;FLAVOR:Marlin
;TIME:5723
;Filament used: 2.00584m
;Layer height: 0.12
;MINX:69.708
;MINY:80.921
;MINZ:0.12
;MAXX:150.284
;MAXY:141.824
;MAXZ:14.04
;Generated with Cura_SteamEngine main
M82 ;absolute extrusion mode
; Ender 3 Custom Start G-code
G92 E0 ; Reset Extruder
G28 ; Home all axes
M104 S175 ; Start heating up the nozzle most of the way
M190 S60 ; Start heating the bed, wait until target temperature reached
M109 S200 ; Finish heating the nozzle
G1 Z2.0 F3000 ; Move Z Axis up little to prevent scratching of Heat Bed
G1 X0.1 Y20 Z0.3 F5000.0 ; Move to start position
G1 X0.1 Y200.0 Z0.3 F1500.0 E15 ; Draw the first line
G1 X0.4 Y200.0 Z0.3 F5000.0 ; Move to side a little
G1 X0.4 Y20 Z0.3 F1500.0 E30 ; Draw the second line
G92 E0 ; Reset Extruder
G1 Z2.0 F3000 ; Move Z Axis up little to prevent scratching of Heat Bed
G1 X5 Y20 Z0.3 F5000.0 ; Move over to prevent blob squish
G92 E0
G92 E0
G1 F1500 E-6.5
;LAYER_COUNT:117
;LAYER:0
M107
G0 F6000 X80.848 Y87.554 Z0.12
G0 X72.781 Y99.924
;TYPE:SKIRT
G1 F1500 E0
G1 F1200 X73.012 Y99.076 E0.01754
G1 X73.145 Y98.637 E0.02669
G1 X73.421 Y97.818 E0.04394
G1 X73.707 Y97.048 E0.06033
G1 X74.017 Y96.301 E0.07647
G1 X74.125 Y96.065 E0.08165
G1 X74.445 Y95.421 E0.096
G1 X74.617 Y95.102 E0.10323
G1 X75.097 Y94.297 E0.12194
G1 X75.516 Y93.701 E0.13648
G1 X75.752 Y93.388 E0.1443
G1 X76.241 Y92.784 E0.15981
G1 X77.157 Y91.732 E0.18765
G1 X78.707 Y89.899 E0.23555
G1 X79.537 Y88.893 E0.26158
G1 X80.164 Y88.196 E0.28029
G1 X80.848 Y87.554 E0.29901
G1 X81.584 Y86.973 E0.31772
G1 X82.368 Y86.458 E0.33644
G1 X83.192 Y86.01 E0.35516
G1 X84.051 Y85.635 E0.37386
G1 X84.94 Y85.334 E0.39259
G1 X85.85 Y85.11 E0.41129
G1 X86.902 Y84.95 E0.43253
G1 X89.676 Y84.666 E0.48818
G1 X92.178 Y84.337 E0.53854
G1 X94.663 Y83.938 E0.58876
G1 X97.123 Y83.472 E0.63873
G1 X99.557 Y82.939 E0.68845
G1 X102.957 Y82.076 E0.75845
G1 X103.696 Y81.878 E0.77372
G1 X104.688 Y81.642 E0.79407
G1 X105.358 Y81.5 E0.80774
G1 X105.999 Y81.377 E0.82076
G1 X107.223 Y81.178 E0.84551
G1 X107.645 Y81.119 E0.85401
G1 X108.685 Y80.994 E0.87492
G1 X109.62 Y80.921 E0.89363
G1 X110.558 Y80.929 E0.91235
G1 X111.241 Y80.985 E0.92603
G1 X112.291 Y81.111 E0.94713
G1 X113.442 Y81.281 E0.97035
G1 X113.891 Y81.357 E0.97944
G1 X114.993 Y81.57 E1.00184
G1 X115.65 Y81.716 E1.01527
G1 X116.192 Y81.848 E1.0264
G1 X116.959 Y82.054 E1.04225
G1 X119.469 Y82.706 E1.094
G1 X121.915 Y83.268 E1.14408
G1 X124.433 Y83.772 E1.19533
G1 X126.856 Y84.186 E1.24439
G1 X129.357 Y84.541 E1.2948
G1 X131.946 Y84.834 E1.34679
G1 X133.06 Y84.945 E1.36913
G1 X133.989 Y85.077 E1.38786
G1 X134.903 Y85.288 E1.40658
G1 X135.795 Y85.576 E1.42528
G1 X136.66 Y85.939 E1.444
G1 X137.491 Y86.374 E1.46272
G1 X138.281 Y86.879 E1.48143
G1 X139.026 Y87.449 E1.50015
G1 X139.72 Y88.08 E1.51887
G1 X140.435 Y88.861 E1.54
G1 X142.322 Y91.132 E1.59893
G1 X142.93 Y91.82 E1.61725
G1 X143.84 Y92.87 E1.64498
G1 X144.614 Y93.875 E1.67029
G1 X144.82 Y94.177 E1.67759
G1 X145.533 Y95.38 E1.70549
G1 X145.767 Y95.839 E1.71577
G1 X146.191 Y96.777 E1.73632
G1 X146.345 Y97.165 E1.74465
G1 X146.555 Y97.74 E1.75686
G1 X146.812 Y98.51 E1.77306
G1 X147.042 Y99.264 E1.78879
G1 X147.178 Y99.764 E1.79914
G1 X147.529 Y101.191 E1.82846
G1 X147.824 Y102.566 E1.85653
G1 X148.099 Y104.041 E1.88647
G1 X148.327 Y105.4 E1.91397
G1 X148.566 Y106.969 E1.94564
G1 X148.808 Y108.716 E1.98084
G1 X149.037 Y110.497 E2.01667
G1 X149.279 Y112.552 E2.05796
G1 X149.529 Y114.864 E2.10437
G1 X149.704 Y116.573 E2.13865
G1 X150.143 Y121.279 E2.23297
G1 X150.254 Y122.763 E2.26267
G1 X150.284 Y123.568 E2.27875
G1 X150.284 Y124.197 E2.2913
G1 X150.219 Y125.391 E2.31516
G1 X150.157 Y125.959 E2.32657
G1 X150.055 Y126.677 E2.34104
G1 X149.983 Y127.085 E2.34931
G1 X149.785 Y127.982 E2.36764
G1 X149.71 Y128.266 E2.3735
G1 X149.548 Y128.82 E2.38502
G1 X149.399 Y129.284 E2.39474
G1 X149.075 Y130.164 E2.41346
G1 X148.837 Y130.693 E2.42503
G1 X148.5 Y131.393 E2.44054
G1 X148.058 Y132.219 E2.45923
G1 X147.762 Y132.691 E2.47035
G1 X147.494 Y133.096 E2.48004
G1 X147.019 Y133.76 E2.49633
G1 X146.7 Y134.172 E2.50673
G1 X146.26 Y134.705 E2.52053
G1 X146.062 Y134.93 E2.52651
G1 X145.542 Y135.481 E2.54163
G1 X145.247 Y135.773 E2.54991
G1 X144.753 Y136.233 E2.56338
G1 X144.553 Y136.408 E2.56868
G1 X143.996 Y136.864 E2.58305
G1 X143.433 Y137.295 E2.5972
G1 X142.759 Y137.772 E2.61368
G1 X142.399 Y138.007 E2.62226
G1 X141.881 Y138.325 E2.63438
G1 X141.496 Y138.547 E2.64325
G1 X140.781 Y138.925 E2.65939
G1 X139.952 Y139.325 E2.67776
G1 X139.318 Y139.611 E2.69164
G1 X138.476 Y139.949 E2.70975
G1 X137.85 Y140.175 E2.72303
G1 X137.45 Y140.308 E2.73144
G1 X136.45 Y140.618 E2.75234
G1 X135.545 Y140.867 E2.77107
G1 X134.591 Y141.094 E2.79064
G1 X133.896 Y141.242 E2.80482
G1 X133.223 Y141.371 E2.81849
G1 X131.978 Y141.573 E2.84366
G1 X131.556 Y141.632 E2.85217
G1 X130.541 Y141.753 E2.87256
G1 X129.606 Y141.824 E2.89128
G1 X128.668 Y141.815 E2.91
G1 X127.996 Y141.76 E2.92345
G1 X126.994 Y141.641 E2.94359
G1 X125.868 Y141.478 E2.96629
G1 X122.757 Y140.977 E3.02918
G1 X120.287 Y140.654 E3.07889
G1 X117.77 Y140.398 E3.12938
G1 X115.242 Y140.212 E3.17996
G1 X112.721 Y140.099 E3.23032
G1 X110.227 Y140.057 E3.2801
G1 X107.709 Y140.086 E3.33035
G1 X105.19 Y140.187 E3.38066
G1 X102.692 Y140.358 E3.43063
G1 X100.158 Y140.603 E3.48143
G1 X97.723 Y140.908 E3.53041
G1 X93.488 Y141.576 E3.61596
G1 X92.073 Y141.752 E3.64442
G1 X91.138 Y141.824 E3.66313
G1 X90.2 Y141.815 E3.68185
G1 X89.522 Y141.759 E3.69543
G1 X88.502 Y141.638 E3.71593
G1 X87.586 Y141.507 E3.73439
G1 X87.149 Y141.436 E3.74323
G1 X85.787 Y141.179 E3.77089
G1 X85.102 Y141.026 E3.7849
G1 X84.162 Y140.791 E3.80423
G1 X83.365 Y140.568 E3.82075
G1 X82.695 Y140.356 E3.83477
G1 X81.845 Y140.064 E3.85271
G1 X81.243 Y139.842 E3.86551
G1 X80.84 Y139.68 E3.87418
G1 X80.149 Y139.378 E3.88923
G1 X79.382 Y139.007 E3.90623
G1 X78.655 Y138.627 E3.9226
G1 X77.919 Y138.205 E3.93953
G1 X77.556 Y137.978 E3.94808
G1 X77.113 Y137.686 E3.95866
G1 X76.766 Y137.445 E3.9671
G1 X76.094 Y136.939 E3.98388
G1 X75.679 Y136.601 E3.99456
G1 X75.125 Y136.118 E4.00923
G1 X74.8 Y135.815 E4.0181
G1 X74.305 Y135.323 E4.03203
G1 X74.117 Y135.124 E4.03749
G1 X73.657 Y134.606 E4.05131
G1 X73.335 Y134.219 E4.06136
G1 X72.901 Y133.662 E4.07545
G1 X72.635 Y133.297 E4.08447
G1 X71.948 Y132.23 E4.10979
G1 X71.731 Y131.846 E4.11859
G1 X71.246 Y130.878 E4.1402
G1 X71.049 Y130.432 E4.14993
G1 X70.78 Y129.767 E4.16424
G1 X70.592 Y129.253 E4.17517
G1 X70.308 Y128.359 E4.19389
G1 X70.164 Y127.762 E4.20614
G1 X70.04 Y127.179 E4.21804
G1 X69.91 Y126.451 E4.23279
G1 X69.859 Y126.095 E4.23997
G1 X69.778 Y125.346 E4.255
G1 X69.738 Y124.805 E4.26583
G1 X69.708 Y123.994 E4.28203
G1 X69.72 Y123.192 E4.29803
G1 X69.743 Y122.705 E4.30776
G1 X69.774 Y122.256 E4.31674
G1 X70.023 Y119.44 E4.37316
G1 X70.314 Y116.397 E4.43416
G1 X70.5 Y114.569 E4.47083
G1 X70.742 Y112.36 E4.51518
G1 X71.037 Y109.911 E4.5644
G1 X71.287 Y108.013 E4.60261
G1 X71.564 Y106.104 E4.6411
G1 X71.711 Y105.173 E4.65991
G1 X71.928 Y103.9 E4.68568
G1 X72.178 Y102.572 E4.71265
G1 X72.425 Y101.404 E4.73647
G1 X72.781 Y99.924 E4.76685
G1 F1500 E-1.73315
G0 F6000 X71.959 Y106.167
G1 F1500 E4.76685
G1 F1200 X72.106 Y105.24 E4.78558
G1 X72.352 Y103.803 E4.81468
G1 X72.569 Y102.655 E4.83799
G1 X72.889 Y101.166 E4.86838
G1 X73.169 Y100.019 E4.89195
G1 X73.397 Y99.184 E4.90922
G1 X73.525 Y98.761 E4.91804
G1 X73.796 Y97.957 E4.93497
G1 X74.082 Y97.187 E4.95136
G1 X74.38 Y96.467 E4.96691
G1 X74.488 Y96.231 E4.97209
G1 X74.797 Y95.611 E4.98592
G1 X74.969 Y95.292 E4.99315
G1 X75.441 Y94.502 E5.01151
G1 X75.835 Y93.941 E5.02519
G1 X76.071 Y93.628 E5.03302
G1 X76.543 Y93.047 E5.04795
G1 X77.453 Y92.002 E5.07561
G1 X78.993 Y90.181 E5.1232
G1 X79.845 Y89.148 E5.14992
G1 X80.461 Y88.463 E5.16831
G1 X81.135 Y87.835 E5.18669
G1 X81.86 Y87.268 E5.20506
G1 X82.631 Y86.766 E5.22342
G1 X83.444 Y86.333 E5.2418
G1 X84.291 Y85.972 E5.26017
G1 X85.165 Y85.685 E5.27853
G1 X86.062 Y85.476 E5.29691
G1 X86.943 Y85.348 E5.31468
G1 X89.737 Y85.062 E5.37073
G1 X92.217 Y84.736 E5.42064
G1 X94.729 Y84.333 E5.47141
G1 X97.185 Y83.867 E5.5213
G1 X99.651 Y83.327 E5.57168
G1 X103.052 Y82.464 E5.6417
G1 X103.79 Y82.266 E5.65695
G1 X104.771 Y82.033 E5.67707
G1 X105.441 Y81.891 E5.69074
G1 X106.072 Y81.77 E5.70356
G1 X107.286 Y81.573 E5.7281
G1 X107.693 Y81.516 E5.7363
G1 X108.733 Y81.391 E5.75721
G1 X109.651 Y81.321 E5.77558
G1 X110.572 Y81.331 E5.79396
G1 X111.196 Y81.383 E5.80646
G1 X112.233 Y81.507 E5.8273
G1 X113.384 Y81.677 E5.85052
G1 X113.817 Y81.75 E5.85928
G1 X114.642 Y81.907 E5.87604
G1 X115.295 Y82.045 E5.88936
G1 X116.097 Y82.237 E5.90582
G1 X116.833 Y82.435 E5.92103
G1 X119.376 Y83.095 E5.97346
G1 X121.826 Y83.658 E6.02362
G1 X124.352 Y84.163 E6.07503
G1 X126.804 Y84.583 E6.12467
G1 X129.292 Y84.936 E6.17482
G1 X131.93 Y85.235 E6.2278
G1 X133.021 Y85.343 E6.24968
G1 X133.932 Y85.473 E6.26805
G1 X134.829 Y85.683 E6.28643
G1 X135.704 Y85.969 E6.3048
G1 X136.551 Y86.33 E6.32317
G1 X137.363 Y86.763 E6.34154
G1 X138.135 Y87.265 E6.35992
G1 X138.86 Y87.832 E6.37828
G1 X139.533 Y88.46 E6.39665
G1 X140.127 Y89.117 E6.41433
G1 X142.014 Y91.388 E6.47325
G1 X142.627 Y92.082 E6.49173
G1 X143.537 Y93.132 E6.51946
G1 X144.284 Y94.101 E6.54387
G1 X144.49 Y94.403 E6.55117
G1 X145.177 Y95.562 E6.57806
G1 X145.411 Y96.021 E6.58834
G1 X145.819 Y96.925 E6.60813
G1 X145.973 Y97.313 E6.61646
G1 X146.176 Y97.867 E6.62824
G1 X146.433 Y98.637 E6.64444
G1 X146.659 Y99.378 E6.6599
G1 X146.789 Y99.859 E6.66984
G1 X147.14 Y101.286 E6.69916
G1 X147.221 Y101.642 E6.70645
G1 X147.48 Y102.889 E6.73187
G1 X147.705 Y104.108 E6.7566
G1 X147.905 Y105.295 E6.78063
G1 X148.191 Y107.172 E6.81852
G1 X148.411 Y108.767 E6.85065
G1 X148.639 Y110.543 E6.88638
G1 X148.893 Y112.699 E6.9297
G1 X149.131 Y114.905 E6.97398
G1 X149.315 Y116.709 E7.01017
G1 X149.763 Y121.525 E7.10669
G1 X149.856 Y122.792 E7.13205
G1 X149.884 Y123.568 E7.14754
G1 X149.884 Y124.197 E7.16009
G1 X149.821 Y125.347 E7.18308
G1 X149.759 Y125.915 E7.19448
G1 X149.661 Y126.607 E7.20843
G1 X149.589 Y127.015 E7.2167
G1 X149.399 Y127.88 E7.23437
G1 X149.324 Y128.164 E7.24023
G1 X149.167 Y128.698 E7.25134
G1 X149.018 Y129.162 E7.26106
G1 X148.699 Y130.025 E7.27942
G1 X148.477 Y130.519 E7.29023
G1 X148.14 Y131.219 E7.30574
G1 X147.705 Y132.03 E7.3241
G1 X147.429 Y132.471 E7.33448
G1 X147.161 Y132.876 E7.34418
G1 X146.702 Y133.515 E7.35988
G1 X146.383 Y133.927 E7.37027
G1 X145.96 Y134.441 E7.38356
G1 X145.762 Y134.666 E7.38954
G1 X145.261 Y135.197 E7.40411
G1 X144.966 Y135.489 E7.41239
G1 X144.489 Y135.932 E7.42538
G1 X144.289 Y136.107 E7.43069
G1 X143.752 Y136.547 E7.44454
G1 X143.189 Y136.978 E7.45869
G1 X142.54 Y137.437 E7.47455
G1 X142.18 Y137.672 E7.48313
G1 X141.681 Y137.979 E7.49482
G1 X141.296 Y138.201 E7.50369
G1 X140.607 Y138.565 E7.51924
G1 X139.778 Y138.965 E7.53761
G1 X139.158 Y139.244 E7.55118
G1 X138.331 Y139.576 E7.56896
G1 X137.717 Y139.798 E7.58199
G1 X137.332 Y139.926 E7.59009
G1 X136.332 Y140.236 E7.61098
G1 X135.451 Y140.478 E7.62922
G1 X134.508 Y140.703 E7.64856
G1 X133.813 Y140.851 E7.66274
G1 X133.149 Y140.978 E7.67623
G1 X131.916 Y141.178 E7.70116
G1 X131.509 Y141.234 E7.70936
G1 X130.494 Y141.355 E7.72976
G1 X129.576 Y141.425 E7.74813
G1 X128.655 Y141.414 E7.76651
G1 X128.041 Y141.362 E7.77881
G1 X127.051 Y141.245 E7.7987
G1 X125.931 Y141.083 E7.82129
G1 X122.802 Y140.579 E7.88453
G1 X120.343 Y140.257 E7.93403
G1 X117.804 Y139.999 E7.98496
G1 X115.255 Y139.812 E8.03596
G1 X112.746 Y139.699 E8.08608
G1 X110.23 Y139.657 E8.1363
G1 X107.724 Y139.686 E8.18631
G1 X105.143 Y139.789 E8.23786
G1 X102.662 Y139.959 E8.28749
G1 X100.141 Y140.202 E8.33803
G1 X97.64 Y140.516 E8.38833
G1 X93.425 Y141.181 E8.47348
G1 X92.026 Y141.355 E8.50162
G1 X91.108 Y141.425 E8.51999
G1 X90.187 Y141.414 E8.53837
G1 X89.567 Y141.362 E8.55079
G1 X88.857 Y141.281 E8.56505
G1 X87.642 Y141.111 E8.58953
G1 X87.222 Y141.042 E8.59803
G1 X85.872 Y140.788 E8.62544
G1 X85.197 Y140.638 E8.63924
G1 X84.268 Y140.406 E8.65835
G1 X83.75 Y140.263 E8.66907
G1 X83.18 Y140.093 E8.68094
G1 X81.975 Y139.686 E8.70632
G1 X81.385 Y139.468 E8.71887
G1 X80.997 Y139.312 E8.72722
G1 X80.32 Y139.016 E8.74197
G1 X79.568 Y138.652 E8.75864
G1 X78.841 Y138.272 E8.77501
G1 X78.131 Y137.865 E8.79134
G1 X77.768 Y137.638 E8.79988
G1 X77.341 Y137.357 E8.81008
G1 X76.994 Y137.116 E8.81852
G1 X76.347 Y136.629 E8.83468
G1 X75.932 Y136.291 E8.84536
G1 X75.398 Y135.825 E8.8595
G1 X75.073 Y135.522 E8.86837
G1 X74.596 Y135.048 E8.88179
G1 X74.408 Y134.849 E8.88725
G1 X73.965 Y134.35 E8.90057
G1 X73.643 Y133.963 E8.91061
G1 X73.224 Y133.426 E8.92421
G1 X72.958 Y133.061 E8.93322
G1 X72.297 Y132.033 E8.95761
G1 X72.08 Y131.649 E8.96641
G1 X71.612 Y130.717 E8.98722
G1 X71.415 Y130.271 E8.99695
G1 X71.156 Y129.629 E9.01077
G1 X70.968 Y129.115 E9.02169
G1 X70.69 Y128.238 E9.04005
G1 X70.555 Y127.679 E9.05153
G1 X70.431 Y127.096 E9.06342
G1 X70.306 Y126.394 E9.07765
G1 X70.255 Y126.038 E9.08483
G1 X70.177 Y125.317 E9.0993
G1 X70.137 Y124.776 E9.11013
G1 X70.108 Y123.994 E9.12574
G1 X70.12 Y123.211 E9.14137
G1 X70.172 Y122.291 E9.15976
G1 X70.421 Y119.478 E9.21611
G1 X70.712 Y116.438 E9.27706
G1 X70.898 Y114.613 E9.31367
G1 X71.153 Y112.292 E9.36026
G1 X71.434 Y109.963 E9.40708
G1 X71.703 Y107.927 E9.44806
G1 X71.959 Y106.167 E9.48355
G1 F1500 E2.98355
G0 F6000 X71.55 Y112.34
G1 F1500 E9.48355
G1 F1200 X71.83 Y110.015 E9.53029
G1 X72.08 Y108.117 E9.56849
G1 X72.354 Y106.229 E9.60656
G1 X72.5 Y105.307 E9.62519
G1 X72.745 Y103.876 E9.65416
G1 X72.913 Y102.976 E9.67243
G1 X73.278 Y101.261 E9.70743
G1 X73.558 Y100.114 E9.73099
G1 X73.782 Y99.292 E9.74799
G1 X73.906 Y98.885 E9.75648
G1 X74.171 Y98.096 E9.77309
G1 X74.457 Y97.326 E9.78948
G1 X74.744 Y96.634 E9.80443
G1 X74.852 Y96.398 E9.80961
G1 X75.149 Y95.801 E9.82292
G1 X75.321 Y95.482 E9.83015
G1 X75.784 Y94.707 E9.84817
G1 X76.155 Y94.182 E9.861
G1 X76.391 Y93.869 E9.86882
G1 X76.844 Y93.31 E9.88318
G1 X77.745 Y92.276 E9.91055
G1 X79.346 Y90.382 E9.96004
G1 X80.154 Y89.402 E9.98538
G1 X80.759 Y88.732 E10.0034
G1 X81.421 Y88.117 E10.02143
G1 X82.134 Y87.564 E10.03944
G1 X82.894 Y87.076 E10.05746
G1 X83.694 Y86.657 E10.07548
G1 X84.528 Y86.31 E10.09351
G1 X85.389 Y86.039 E10.11152
G1 X86.271 Y85.844 E10.12955
G1 X86.983 Y85.746 E10.14389
G1 X89.762 Y85.462 E10.19964
G1 X92.301 Y85.127 E10.25075
G1 X94.796 Y84.727 E10.30117
G1 X97.266 Y84.259 E10.35134
G1 X99.745 Y83.716 E10.40199
G1 X103.16 Y82.85 E10.47229
G1 X103.884 Y82.655 E10.48726
G1 X104.57 Y82.489 E10.50134
G1 X105.524 Y82.283 E10.52082
G1 X106.146 Y82.164 E10.53346
G1 X107.349 Y81.968 E10.55778
G1 X107.741 Y81.913 E10.56568
G1 X108.781 Y81.788 E10.58658
G1 X109.681 Y81.72 E10.60459
G1 X110.584 Y81.732 E10.62262
G1 X111.15 Y81.78 E10.63395
G1 X112.174 Y81.902 E10.65453
G1 X113.325 Y82.072 E10.67775
G1 X113.742 Y82.143 E10.68619
G1 X114.567 Y82.3 E10.70295
G1 X115.211 Y82.436 E10.71609
G1 X116.003 Y82.626 E10.73234
G1 X119.3 Y83.488 E10.80035
G1 X121.729 Y84.046 E10.85008
G1 X124.271 Y84.555 E10.90182
G1 X126.756 Y84.98 E10.95213
G1 X129.258 Y85.335 E11.00256
G1 X131.85 Y85.629 E11.05462
G1 X132.981 Y85.741 E11.0773
G1 X133.875 Y85.87 E11.09532
G1 X134.754 Y86.077 E11.11334
G1 X135.611 Y86.362 E11.13137
G1 X136.44 Y86.721 E11.1494
G1 X137.234 Y87.152 E11.16742
G1 X137.986 Y87.651 E11.18544
G1 X138.691 Y88.215 E11.20345
G1 X139.344 Y88.84 E11.22149
G1 X139.819 Y89.372 E11.23572
G1 X141.703 Y91.64 E11.29456
G1 X142.325 Y92.344 E11.31331
G1 X143.235 Y93.394 E11.34104
G1 X143.953 Y94.326 E11.36452
G1 X144.159 Y94.628 E11.37181
G1 X144.82 Y95.743 E11.39768
G1 X145.054 Y96.202 E11.40796
G1 X145.448 Y97.072 E11.42702
G1 X145.602 Y97.46 E11.43535
G1 X145.796 Y97.994 E11.44669
G1 X146.053 Y98.764 E11.46289
G1 X146.275 Y99.492 E11.47808
G1 X146.401 Y99.955 E11.48765
G1 X146.83 Y101.724 E11.52398
G1 X147.087 Y102.962 E11.54921
G1 X147.281 Y104.007 E11.57042
G1 X147.536 Y105.52 E11.60104
G1 X147.795 Y107.227 E11.63549
G1 X148.002 Y108.723 E11.66563
G1 X148.242 Y110.59 E11.7032
G1 X148.495 Y112.742 E11.74644
G1 X148.733 Y114.946 E11.79068
