;FLAVOR:Marlin
;TIME:5613
;Filament used: 1.93702m
;Layer height: 0.12
;MINX:69.561
;MINY:81.296
;MINZ:0.12
;MAXX:150.437
;MAXY:140.782
;MAXZ:13.32
;Generated with Cura_SteamEngine main
M82 ;absolute extrusion mode
; Ender 3 Custom Start G-code
G92 E0 ; Reset Extruder
G28 ; Home all axes
M104 S175 ; Start heating up the nozzle most of the way
M190 S60 ; Start heating the bed, wait until target temperature reached
M109 S200 ; Finish heating the nozzle
G1 Z2.0 F3000 ; Move Z Axis up little to prevent scratching of Heat Bed
G1 X0.1 Y20 Z0.3 F5000.0 ; Move to start position
G1 X0.1 Y200.0 Z0.3 F1500.0 E15 ; Draw the first line
G1 X0.4 Y200.0 Z0.3 F5000.0 ; Move to side a little
G1 X0.4 Y20 Z0.3 F1500.0 E30 ; Draw the second line
G92 E0 ; Reset Extruder
G1 Z2.0 F3000 ; Move Z Axis up little to prevent scratching of Heat Bed
G1 X5 Y20 Z0.3 F5000.0 ; Move over to prevent blob squish
G92 E0
G92 E0
G1 F1500 E-6.5
;LAYER_COUNT:111
;LAYER:0
M107
G0 F6000 X80.698 Y86.518 Z0.12
G0 X73.974 Y95.051
;TYPE:SKIRT
G1 F1500 E0
G1 F1200 X74.27 Y94.445 E0.01346
G1 X74.717 Y93.621 E0.03217
G1 X75.189 Y92.895 E0.04945
G1 X76.011 Y91.829 E0.07631
G1 X77.152 Y90.523 E0.11092
G1 X78.565 Y88.85 E0.15462
G1 X79.386 Y87.856 E0.18035
G1 X80.013 Y87.159 E0.19906
G1 X80.698 Y86.518 E0.21778
G1 X81.435 Y85.938 E0.23649
G1 X82.219 Y85.423 E0.25521
G1 X83.044 Y84.976 E0.27394
G1 X83.903 Y84.601 E0.29264
G1 X84.792 Y84.301 E0.31137
G1 X85.703 Y84.078 E0.33008
G1 X86.629 Y83.933 E0.34879
G1 X87.562 Y83.867 E0.36745
G1 X89.889 Y83.803 E0.41391
G1 X92.472 Y83.67 E0.46552
G1 X94.948 Y83.474 E0.51509
G1 X97.436 Y83.205 E0.56503
G1 X99.942 Y82.862 E0.61551
G1 X102.454 Y82.445 E0.66632
G1 X105.902 Y81.771 E0.73643
G1 X106.287 Y81.702 E0.74424
G1 X107.331 Y81.536 E0.76533
G1 X107.766 Y81.476 E0.7741
G1 X108.696 Y81.366 E0.79279
G1 X109.631 Y81.296 E0.8115
G1 X110.569 Y81.305 E0.83022
G1 X111.225 Y81.36 E0.84335
G1 X112.276 Y81.484 E0.86447
G1 X113.225 Y81.621 E0.88361
G1 X113.666 Y81.694 E0.89253
G1 X115.221 Y81.984 E0.92409
G1 X117.119 Y82.365 E0.96273
G1 X119.618 Y82.794 E1.01333
G1 X122.087 Y83.146 E1.0631
G1 X124.59 Y83.431 E1.11337
G1 X127.09 Y83.644 E1.16344
G1 X129.592 Y83.787 E1.21345
G1 X132.443 Y83.867 E1.27037
G1 X133.379 Y83.934 E1.2891
G1 X134.306 Y84.079 E1.30782
G1 X135.216 Y84.303 E1.32652
G1 X136.105 Y84.604 E1.34525
G1 X136.964 Y84.98 E1.36396
G1 X137.788 Y85.427 E1.38267
G1 X138.572 Y85.943 E1.4014
G1 X139.308 Y86.523 E1.4201
G1 X139.992 Y87.165 E1.43882
G1 X140.596 Y87.834 E1.45681
G1 X142.459 Y90.076 E1.51498
G1 X142.906 Y90.58 E1.52843
G1 X143.918 Y91.753 E1.55934
G1 X144.391 Y92.337 E1.57434
G1 X144.659 Y92.692 E1.58322
G1 X145.192 Y93.464 E1.60194
G1 X145.723 Y94.41 E1.62359
G1 X145.936 Y94.837 E1.63311
G1 X146.204 Y95.414 E1.64581
G1 X146.463 Y96.043 E1.65938
G1 X146.753 Y96.83 E1.67612
G1 X146.907 Y97.289 E1.68578
G1 X147.064 Y97.8 E1.69645
G1 X147.407 Y99.04 E1.72212
G1 X147.721 Y100.343 E1.74887
G1 X147.972 Y101.527 E1.77302
G1 X148.223 Y102.866 E1.80021
G1 X148.486 Y104.425 E1.83176
G1 X148.707 Y105.873 E1.86099
G1 X148.979 Y107.84 E1.90062
G1 X149.193 Y109.512 E1.93426
G1 X149.38 Y111.095 E1.96607
G1 X149.648 Y113.532 E2.01499
G1 X149.887 Y115.872 E2.06193
G1 X150.107 Y118.176 E2.10812
G1 X150.384 Y121.336 E2.17143
G1 X150.422 Y121.992 E2.18454
G1 X150.437 Y122.532 E2.19532
G1 X150.435 Y123.202 E2.20869
G1 X150.424 Y123.533 E2.2153
G1 X150.354 Y124.456 E2.23377
G1 X150.267 Y125.194 E2.2486
G1 X150.022 Y126.544 E2.27598
G1 X149.854 Y127.224 E2.28996
G1 X149.59 Y128.124 E2.30868
G1 X149.394 Y128.658 E2.32003
G1 X149.182 Y129.19 E2.33146
G1 X148.891 Y129.854 E2.34592
G1 X148.694 Y130.267 E2.35506
G1 X148.255 Y131.095 E2.37376
G1 X147.977 Y131.545 E2.38431
G1 X147.661 Y132.029 E2.39585
G1 X147.182 Y132.704 E2.41237
G1 X146.979 Y132.969 E2.41903
G1 X146.507 Y133.544 E2.43387
G1 X146.186 Y133.909 E2.44357
G1 X145.675 Y134.452 E2.45845
G1 X145.406 Y134.719 E2.46602
G1 X144.88 Y135.208 E2.48035
G1 X144.293 Y135.707 E2.49572
G1 X144.034 Y135.914 E2.50234
G1 X143.532 Y136.292 E2.51488
G1 X143.167 Y136.551 E2.52381
G1 X142.549 Y136.964 E2.53865
G1 X142.089 Y137.247 E2.54942
G1 X141.691 Y137.479 E2.55862
G1 X140.958 Y137.87 E2.5752
G1 X140.184 Y138.246 E2.59237
G1 X139.77 Y138.437 E2.60147
G1 X139.054 Y138.74 E2.61698
G1 X138.647 Y138.899 E2.6257
G1 X138.009 Y139.13 E2.63924
G1 X137.634 Y139.255 E2.64713
G1 X136.679 Y139.553 E2.6671
G1 X136.09 Y139.722 E2.67932
G1 X134.724 Y140.056 E2.70739
G1 X133.796 Y140.25 E2.72631
G1 X133.114 Y140.373 E2.74014
G1 X132.119 Y140.532 E2.76024
G1 X131.682 Y140.593 E2.76905
G1 X130.69 Y140.711 E2.78899
G1 X129.755 Y140.782 E2.8077
G1 X128.817 Y140.773 E2.82642
G1 X128.146 Y140.717 E2.83986
G1 X127.145 Y140.599 E2.85997
G1 X126.006 Y140.434 E2.88294
G1 X122.838 Y139.919 E2.94699
G1 X120.401 Y139.598 E2.99604
G1 X117.867 Y139.336 E3.04688
G1 X115.372 Y139.15 E3.09681
G1 X112.862 Y139.034 E3.14695
G1 X110.33 Y138.989 E3.19749
G1 X107.842 Y139.014 E3.24714
G1 X105.286 Y139.113 E3.29819
G1 X102.805 Y139.279 E3.34781
G1 X100.282 Y139.52 E3.39839
G1 X97.816 Y139.826 E3.44798
G1 X94.567 Y140.333 E3.5136
G1 X93.378 Y140.527 E3.53764
G1 X92.912 Y140.593 E3.54703
G1 X91.921 Y140.711 E3.56695
G1 X90.985 Y140.782 E3.58568
G1 X90.048 Y140.773 E3.60438
G1 X89.382 Y140.718 E3.61772
G1 X88.337 Y140.595 E3.63871
G1 X87.469 Y140.47 E3.65622
G1 X87.035 Y140.398 E3.66499
G1 X85.884 Y140.185 E3.68835
G1 X85.394 Y140.083 E3.69834
G1 X84.577 Y139.893 E3.71508
G1 X84.158 Y139.787 E3.72371
G1 X83.462 Y139.596 E3.73811
G1 X82.873 Y139.42 E3.75038
G1 X81.699 Y139.022 E3.77511
G1 X81.031 Y138.775 E3.78933
G1 X80.41 Y138.516 E3.80276
G1 X79.776 Y138.229 E3.81664
G1 X79.195 Y137.945 E3.82955
G1 X78.489 Y137.574 E3.84546
G1 X77.824 Y137.195 E3.86074
G1 X77.455 Y136.967 E3.8694
G1 X76.893 Y136.596 E3.88283
G1 X76.536 Y136.344 E3.89155
G1 X76.003 Y135.942 E3.90488
G1 X75.641 Y135.652 E3.91413
G1 X75.022 Y135.117 E3.93046
G1 X74.673 Y134.792 E3.93998
G1 X74.156 Y134.278 E3.95453
G1 X73.872 Y133.976 E3.9628
G1 X73.458 Y133.511 E3.97522
G1 X73.166 Y133.163 E3.98429
G1 X72.595 Y132.419 E4.00301
G1 X72.328 Y132.021 E4.01257
G1 X71.937 Y131.41 E4.02705
G1 X71.465 Y130.599 E4.04577
G1 X71.171 Y129.995 E4.05918
G1 X70.883 Y129.355 E4.07318
G1 X70.459 Y128.262 E4.09658
G1 X70.317 Y127.828 E4.10569
G1 X70.058 Y126.9 E4.12492
G1 X69.947 Y126.423 E4.13469
G1 X69.811 Y125.738 E4.14863
G1 X69.683 Y124.871 E4.16612
G1 X69.62 Y124.23 E4.17897
G1 X69.595 Y123.891 E4.18575
G1 X69.566 Y123.217 E4.19922
G1 X69.561 Y122.81 E4.20734
G1 X69.587 Y121.901 E4.22549
G1 X69.693 Y120.398 E4.25556
G1 X70.175 Y115.26 E4.35854
G1 X70.384 Y113.225 E4.39936
G1 X70.548 Y111.728 E4.42942
G1 X70.888 Y108.866 E4.48693
G1 X71.07 Y107.47 E4.51503
G1 X71.299 Y105.841 E4.54786
G1 X71.563 Y104.13 E4.58241
G1 X71.78 Y102.857 E4.60818
G1 X71.988 Y101.738 E4.63089
G1 X72.264 Y100.416 E4.65784
G1 X72.643 Y98.843 E4.69013
G1 X72.917 Y97.852 E4.71065
G1 X73.167 Y97.083 E4.72678
G1 X73.529 Y96.095 E4.74778
G1 X73.974 Y95.051 E4.77043
G1 F1500 E-1.72957
G0 F6000 X72.597 Y102.833
G1 F1500 E4.77043
G1 F1200 X72.82 Y101.653 E4.7944
G1 X73.046 Y100.581 E4.81626
G1 X73.42 Y99.034 E4.84802
G1 X73.687 Y98.071 E4.86796
G1 X73.919 Y97.358 E4.88293
G1 X74.281 Y96.37 E4.90392
G1 X74.693 Y95.402 E4.92492
G1 X74.989 Y94.796 E4.93838
G1 X75.421 Y94.003 E4.9564
G1 X75.851 Y93.344 E4.9721
G1 X76.613 Y92.355 E4.99702
G1 X77.771 Y91.03 E5.03213
G1 X79.118 Y89.435 E5.0738
G1 X80.002 Y88.365 E5.10149
G1 X80.608 Y87.695 E5.11952
G1 X81.27 Y87.081 E5.13754
G1 X81.985 Y86.529 E5.15557
G1 X82.745 Y86.041 E5.17359
G1 X83.545 Y85.623 E5.1916
G1 X84.379 Y85.277 E5.20962
G1 X85.241 Y85.006 E5.22765
G1 X86.123 Y84.813 E5.24567
G1 X87.019 Y84.698 E5.2637
G1 X87.584 Y84.667 E5.27499
G1 X89.91 Y84.603 E5.32143
G1 X92.507 Y84.47 E5.37332
G1 X95.026 Y84.269 E5.42375
G1 X97.557 Y83.996 E5.47455
G1 X100.078 Y83.651 E5.52533
G1 X102.568 Y83.238 E5.5757
G1 X106.056 Y82.556 E5.64662
G1 X107.456 Y82.327 E5.67493
G1 X107.86 Y82.271 E5.68307
G1 X108.79 Y82.161 E5.70176
G1 X109.691 Y82.094 E5.71979
G1 X110.594 Y82.108 E5.73781
G1 X111.135 Y82.155 E5.74865
G1 X112.161 Y82.276 E5.76927
G1 X113.11 Y82.413 E5.7884
G1 X113.52 Y82.48 E5.79669
G1 X114.922 Y82.741 E5.82515
G1 X116.969 Y83.152 E5.86682
G1 X119.483 Y83.583 E5.91772
G1 X121.986 Y83.94 E5.96818
G1 X124.497 Y84.226 E6.01861
G1 X127.05 Y84.444 E6.06974
G1 X129.559 Y84.587 E6.11989
G1 X132.421 Y84.667 E6.17703
G1 X133.322 Y84.732 E6.19506
G1 X134.213 Y84.877 E6.21307
G1 X135.088 Y85.1 E6.23109
G1 X135.94 Y85.399 E6.24911
G1 X136.763 Y85.773 E6.26715
G1 X137.548 Y86.218 E6.28516
G1 X138.292 Y86.731 E6.30319
G1 X138.987 Y87.307 E6.32121
G1 X139.629 Y87.943 E6.33924
G1 X139.981 Y88.345 E6.3499
G1 X141.855 Y90.6 E6.40842
G1 X142.308 Y91.111 E6.42204
G1 X142.412 Y91.24 E6.42535
G1 X143.314 Y92.278 E6.45279
G1 X143.753 Y92.819 E6.4667
G1 X144.021 Y93.174 E6.47557
G1 X144.532 Y93.919 E6.4936
G1 X145.007 Y94.767 E6.513
G1 X145.22 Y95.194 E6.52252
G1 X145.468 Y95.729 E6.53429
G1 X145.715 Y96.327 E6.5472
G1 X145.859 Y96.706 E6.55529
G1 X146.148 Y97.544 E6.57298
G1 X146.294 Y98.017 E6.58286
G1 X146.63 Y99.23 E6.60798
G1 X146.938 Y100.509 E6.63423
G1 X147.239 Y101.941 E6.66343
G1 X147.406 Y102.838 E6.68164
G1 X147.695 Y104.546 E6.71621
G1 X147.893 Y105.838 E6.7423
G1 X148.185 Y107.942 E6.78469
G1 X148.398 Y109.606 E6.81816
G1 X148.585 Y111.183 E6.84985
G1 X148.852 Y113.613 E6.89864
G1 X149.091 Y115.948 E6.94548
G1 X149.31 Y118.246 E6.99155
G1 X149.587 Y121.406 E7.05485
G1 X149.622 Y122.014 E7.067
G1 X149.637 Y122.554 E7.07778
G1 X149.635 Y123.176 E7.0902
G1 X149.624 Y123.507 E7.09681
G1 X149.56 Y124.362 E7.11392
G1 X149.473 Y125.1 E7.12875
G1 X149.245 Y126.352 E7.15414
G1 X149.077 Y127.032 E7.16812
G1 X148.822 Y127.899 E7.18615
G1 X148.65 Y128.362 E7.19601
G1 X148.438 Y128.894 E7.20744
G1 X148.169 Y129.509 E7.22084
G1 X147.972 Y129.922 E7.22997
G1 X147.548 Y130.719 E7.24798
G1 X147.307 Y131.107 E7.2571
G1 X146.991 Y131.591 E7.26863
G1 X146.547 Y132.218 E7.28396
G1 X146.344 Y132.483 E7.29063
G1 X145.906 Y133.016 E7.30439
G1 X145.585 Y133.381 E7.31409
G1 X145.112 Y133.884 E7.32787
G1 X144.843 Y134.151 E7.33544
G1 X144.355 Y134.605 E7.34874
G1 X144.123 Y134.807 E7.35488
G1 X143.534 Y135.289 E7.37006
G1 X143.069 Y135.64 E7.38169
G1 X142.704 Y135.899 E7.39062
G1 X142.113 Y136.293 E7.4048
G1 X141.686 Y136.556 E7.41481
G1 X141.288 Y136.788 E7.424
G1 X140.608 Y137.151 E7.43938
G1 X139.834 Y137.527 E7.45655
G1 X139.45 Y137.703 E7.46498
G1 X138.763 Y137.995 E7.47988
G1 X138.356 Y138.154 E7.4886
G1 X137.743 Y138.376 E7.50161
G1 X136.44 Y138.789 E7.52889
G1 X135.877 Y138.951 E7.54058
G1 X134.824 Y139.212 E7.56223
G1 X133.65 Y139.464 E7.58619
G1 X132.988 Y139.583 E7.59961
G1 X131.993 Y139.742 E7.61972
G1 X131.588 Y139.799 E7.62788
G1 X130.596 Y139.917 E7.64782
G1 X129.695 Y139.983 E7.66585
G1 X128.792 Y139.97 E7.68387
G1 X128.237 Y139.923 E7.69499
G1 X127.259 Y139.807 E7.71464
G1 X126.135 Y139.644 E7.7373
G1 X122.973 Y139.13 E7.80123
G1 X120.484 Y138.802 E7.85133
G1 X117.975 Y138.543 E7.90167
G1 X115.397 Y138.35 E7.95326
G1 X112.878 Y138.234 E8.00358
G1 X110.336 Y138.189 E8.05432
G1 X107.803 Y138.215 E8.10487
G1 X105.273 Y138.312 E8.1554
G1 X102.745 Y138.481 E8.20596
G1 X100.176 Y138.727 E8.25746
G1 X97.724 Y139.031 E8.30677
G1 X94.46 Y139.541 E8.37269
G1 X93.249 Y139.738 E8.39718
G1 X92.817 Y139.798 E8.40588
G1 X91.826 Y139.916 E8.4258
G1 X90.925 Y139.983 E8.44383
G1 X90.022 Y139.97 E8.46185
G1 X89.472 Y139.923 E8.47287
G1 X88.451 Y139.803 E8.49338
G1 X87.583 Y139.678 E8.51088
G1 X87.181 Y139.612 E8.51901
G1 X86.03 Y139.399 E8.54237
G1 X85.576 Y139.304 E8.55163
G1 X84.759 Y139.114 E8.56837
G1 X84.37 Y139.015 E8.57638
G1 X83.365 Y138.734 E8.5972
G1 X82.806 Y138.557 E8.6089
G1 X81.958 Y138.266 E8.6268
G1 X81.316 Y138.027 E8.64047
G1 X80.74 Y137.787 E8.65292
G1 X80.106 Y137.5 E8.66681
G1 X79.567 Y137.237 E8.67878
G1 X78.861 Y136.866 E8.69469
G1 X78.244 Y136.514 E8.70887
G1 X77.875 Y136.286 E8.71752
G1 X77.355 Y135.942 E8.72997
G1 X76.998 Y135.69 E8.73869
G1 X76.503 Y135.318 E8.75104
G1 X76.141 Y135.028 E8.7603
G1 X75.567 Y134.532 E8.77544
G1 X75.218 Y134.207 E8.78496
G1 X74.738 Y133.73 E8.79846
G1 X74.454 Y133.428 E8.80673
G1 X74.071 Y132.996 E8.81825
G1 X73.779 Y132.648 E8.82732
G1 X73.002 Y131.59 E8.85352
G1 X72.611 Y130.979 E8.86799
G1 X72.158 Y130.197 E8.88603
G1 X71.9 Y129.667 E8.89779
G1 X71.612 Y129.027 E8.9118
G1 X71.22 Y128.013 E8.93349
G1 X71.078 Y127.579 E8.9426
G1 X70.837 Y126.719 E8.96043
G1 X70.726 Y126.242 E8.9702
G1 X70.6 Y125.607 E8.98312
G1 X70.478 Y124.783 E8.99974
G1 X70.418 Y124.171 E9.01201
G1 X70.393 Y123.832 E9.0188
G1 X70.366 Y123.207 E9.03128
G1 X70.361 Y122.8 E9.0394
G1 X70.385 Y121.957 E9.05623
G1 X70.491 Y120.454 E9.0863
G1 X70.971 Y115.342 E9.18877
G1 X71.18 Y113.312 E9.22949
G1 X71.354 Y111.724 E9.26137
G1 X71.682 Y108.969 E9.31674
G1 X71.862 Y107.581 E9.34467
G1 X72.111 Y105.817 E9.38022
G1 X72.326 Y104.423 E9.40837
G1 X72.597 Y102.833 E9.44056
G1 F1500 E2.94056
G0 F6000 X71.285 Y108.918
G1 F1500 E9.44056
G1 F1200 X71.466 Y107.525 E9.46859
G1 X71.695 Y105.896 E9.50142
G1 X71.931 Y104.362 E9.53239
G1 X72.204 Y102.76 E9.56482
G1 X72.429 Y101.57 E9.58899
G1 X72.731 Y100.164 E9.61769
G1 X73.031 Y98.939 E9.64286
G1 X73.302 Y97.962 E9.66309
G1 X73.543 Y97.22 E9.67866
G1 X73.905 Y96.232 E9.69966
G1 X74.333 Y95.227 E9.72146
G1 X74.629 Y94.621 E9.73491
G1 X75.069 Y93.812 E9.75329
G1 X75.52 Y93.119 E9.76979
G1 X76.312 Y92.092 E9.79567
G1 X77.476 Y90.76 E9.83097
G1 X78.799 Y89.193 E9.8719
G1 X79.694 Y88.11 E9.89994
G1 X80.311 Y87.427 E9.91831
G1 X80.985 Y86.8 E9.93668
G1 X81.71 Y86.233 E9.95504
G1 X82.482 Y85.731 E9.97342
G1 X83.295 Y85.299 E9.99179
G1 X84.142 Y84.938 E10.01017
G1 X85.017 Y84.653 E10.02853
G1 X85.914 Y84.444 E10.04691
G1 X86.825 Y84.314 E10.06528
G1 X87.573 Y84.267 E10.08023
G1 X89.922 Y84.202 E10.12713
G1 X92.453 Y84.072 E10.1777
G1 X94.987 Y83.871 E10.22843
G1 X97.531 Y83.596 E10.27949
G1 X99.996 Y83.259 E10.32914
G1 X102.491 Y82.845 E10.37961
G1 X105.979 Y82.163 E10.45054
G1 X107.393 Y81.932 E10.47913
G1 X107.813 Y81.873 E10.4876
G1 X108.743 Y81.763 E10.50628
G1 X109.661 Y81.695 E10.52465
G1 X110.582 Y81.707 E10.54304
G1 X111.18 Y81.757 E10.55501
G1 X111.896 Y81.838 E10.56939
G1 X113.168 Y82.017 E10.59502
G1 X113.593 Y82.087 E10.60362
G1 X114.995 Y82.348 E10.63208
G1 X117.016 Y82.753 E10.67321
G1 X119.565 Y83.19 E10.72482
G1 X122.021 Y83.541 E10.77433
G1 X124.54 Y83.828 E10.82493
G1 X127.073 Y84.044 E10.87566
G1 X129.592 Y84.187 E10.92601
G1 X132.432 Y84.267 E10.98271
G1 X133.351 Y84.333 E11.00109
G1 X134.26 Y84.478 E11.01946
G1 X135.153 Y84.702 E11.03784
G1 X136.023 Y85.002 E11.0562
G1 X136.864 Y85.376 E11.07457
G1 X137.669 Y85.823 E11.09294
G1 X138.433 Y86.337 E11.11132
G1 X139.149 Y86.916 E11.1297
G1 X139.812 Y87.554 E11.14806
G1 X140.288 Y88.089 E11.16235
G1 X142.149 Y90.329 E11.22046
G1 X142.607 Y90.845 E11.23423
G1 X143.616 Y92.015 E11.26507
G1 X144.072 Y92.578 E11.27952
G1 X144.34 Y92.933 E11.2884
G1 X144.862 Y93.692 E11.30678
G1 X145.365 Y94.588 E11.32729
G1 X145.578 Y95.015 E11.33681
G1 X145.836 Y95.571 E11.34904
G1 X146.089 Y96.185 E11.3623
G1 X146.233 Y96.564 E11.37039
G1 X146.527 Y97.416 E11.38837
G1 X146.679 Y97.909 E11.39867
G1 X147.019 Y99.135 E11.42406
G1 X147.33 Y100.426 E11.45056
G1 X147.581 Y101.61 E11.47471
G1 X147.829 Y102.933 E11.50157
G1 X148.091 Y104.485 E11.53298
G1 X148.289 Y105.777 E11.55907
G1 X148.582 Y107.891 E11.60166
G1 X148.795 Y109.559 E11.63521
G1 X148.982 Y111.139 E11.66697
G1 X149.25 Y113.572 E11.71581
G1 X149.489 Y115.91 E11.76271
G1 X149.709 Y118.211 E11.80884
G1 X149.986 Y121.371 E11.87214
G1 X150.022 Y122.003 E11.88478
G1 X150.037 Y122.543 E11.89556
G1 X150.035 Y123.189 E11.90845
G1 X150.024 Y123.52 E11.91506
G1 X149.957 Y124.409 E11.93285
G1 X149.87 Y125.147 E11.94768
G1 X149.634 Y126.448 E11.97407
G1 X149.466 Y127.128 E11.98804
G1 X149.206 Y128.012 E12.00643
G1 X149.022 Y128.51 E12.01703
G1 X148.81 Y129.042 E12.02846
G1 X148.53 Y129.682 E12.0424
G1 X148.333 Y130.095 E12.05153
