;FLAVOR:Marlin
;TIME:11945
;Filament used: 9.68632m
;Layer height: 0.2
;MINX:18.265
;MINY:87.239
;MINZ:0.2
;MAXX:194.161
;MAXY:173.189
;MAXZ:16.2
;Generated with Cura_SteamEngine main
M82 ;absolute extrusion mode
; Ender 3 Custom Start G-code
G92 E0 ; Reset Extruder
G28 ; Home all axes
M104 S175 ; Start heating up the nozzle most of the way
M190 S60 ; Start heating the bed, wait until target temperature reached
M109 S200 ; Finish heating the nozzle
G1 Z2.0 F3000 ; Move Z Axis up little to prevent scratching of Heat Bed
G1 X0.1 Y20 Z0.3 F5000.0 ; Move to start position
G1 X0.1 Y200.0 Z0.3 F1500.0 E15 ; Draw the first line
G1 X0.4 Y200.0 Z0.3 F5000.0 ; Move to side a little
G1 X0.4 Y20 Z0.3 F1500.0 E30 ; Draw the second line
G92 E0 ; Reset Extruder
G1 Z2.0 F3000 ; Move Z Axis up little to prevent scratching of Heat Bed
G1 X5 Y20 Z0.3 F5000.0 ; Move over to prevent blob squish
G92 E0
G92 E0
G1 F1500 E-6.5
;LAYER_COUNT:81
;LAYER:0
M107
G0 F6000 X39.966 Y99.193 Z0.2
G0 X36.585 Y100.628
;TYPE:SKIRT
G1 F1500 E0
G1 F1200 X39.108 Y99.549 E0.09127
G1 X39.966 Y99.193 E0.12216
G1 X42.547 Y98.154 E0.2147
G1 X45.213 Y97.132 E0.30967
G1 X47.788 Y96.191 E0.40085
G1 X50.272 Y95.328 E0.48831
G1 X52.232 Y94.679 E0.55698
G1 X53.228 Y94.36 E0.59177
G1 X55.786 Y93.571 E0.6808
G1 X57.701 Y93.01 E0.74717
G1 X60.303 Y92.29 E0.83697
G1 X61.201 Y92.053 E0.86786
G1 X63.717 Y91.417 E0.95417
G1 X65.65 Y90.96 E1.02024
G1 X66.62 Y90.741 E1.05331
G1 X68.388 Y90.357 E1.11349
G1 X69.341 Y90.16 E1.14585
G1 X70.997 Y89.832 E1.202
G1 X72.072 Y89.629 E1.23839
G1 X73.882 Y89.306 E1.29954
G1 X76.371 Y88.9 E1.38342
G1 X77.48 Y88.733 E1.42072
G1 X79.246 Y88.485 E1.48003
G1 X80.184 Y88.363 E1.51149
G1 X81.981 Y88.144 E1.57171
G1 X82.947 Y88.037 E1.60403
G1 X84.54 Y87.876 E1.65728
G1 X85.752 Y87.765 E1.69776
G1 X87.371 Y87.633 E1.75179
G1 X88.576 Y87.546 E1.79197
G1 X90.36 Y87.438 E1.85142
G1 X91.417 Y87.385 E1.88662
G1 X93.076 Y87.318 E1.94184
G1 X94.334 Y87.28 E1.9837
G1 X95.979 Y87.248 E2.03843
G1 X97.138 Y87.239 E2.07698
G1 X98.85 Y87.241 E2.13392
G1 X99.922 Y87.254 E2.16957
G1 X101.623 Y87.292 E2.22616
G1 X102.837 Y87.332 E2.26656
G1 X104.328 Y87.397 E2.3162
G1 X105.593 Y87.465 E2.35834
G1 X107.149 Y87.567 E2.4102
G1 X108.392 Y87.66 E2.45166
G1 X110.007 Y87.8 E2.50558
G1 X111.246 Y87.921 E2.54698
G1 X112.953 Y88.106 E2.60409
G1 X114.076 Y88.24 E2.6417
G1 X115.701 Y88.453 E2.69621
G1 X116.949 Y88.632 E2.73815
G1 X118.623 Y88.889 E2.79448
G1 X119.673 Y89.062 E2.82987
G1 X121.477 Y89.382 E2.89081
G1 X122.605 Y89.594 E2.92898
G1 X124.2 Y89.913 E2.98308
G1 X125.512 Y90.191 E3.02769
G1 X127.055 Y90.537 E3.08029
G1 X128.237 Y90.815 E3.12067
G1 X129.785 Y91.198 E3.17371
G1 X131.033 Y91.522 E3.2166
G1 X132.664 Y91.965 E3.27281
G1 X133.735 Y92.269 E3.30984
G1 X135.174 Y92.694 E3.35974
G1 X136.529 Y93.11 E3.40689
G1 X138.078 Y93.606 E3.46098
G1 X139.21 Y93.984 E3.50068
G1 X140.608 Y94.465 E3.54985
G1 X141.88 Y94.92 E3.59478
G1 X143.416 Y95.489 E3.64926
G1 X144.57 Y95.932 E3.69037
G1 X146.07 Y96.526 E3.74403
G1 X147.194 Y96.986 E3.78443
G1 X148.721 Y97.63 E3.83955
G1 X149.796 Y98.099 E3.87856
G1 X151.157 Y98.709 E3.92816
G1 X152.392 Y99.28 E3.97342
G1 X153.884 Y99.988 E4.02835
G1 X154.913 Y100.49 E4.06643
G1 X156.393 Y101.234 E4.12152
G1 X157.397 Y101.752 E4.1591
G1 X158.882 Y102.54 E4.21501
G1 X159.857 Y103.069 E4.2519
G1 X161.406 Y103.933 E4.3109
G1 X162.43 Y104.52 E4.35015
G1 X163.874 Y105.369 E4.40587
G1 X164.819 Y105.937 E4.44254
G1 X166.325 Y106.864 E4.50136
G1 X167.232 Y107.438 E4.53706
G1 X168.602 Y108.322 E4.59129
G1 X169.667 Y109.026 E4.63375
G1 X171.019 Y109.94 E4.68803
G1 X171.957 Y110.589 E4.72597
G1 X173.323 Y111.554 E4.78159
G1 X174.279 Y112.246 E4.82085
G1 X175.52 Y113.161 E4.87213
G1 X176.54 Y113.931 E4.91463
G1 X177.884 Y114.966 E4.97106
G1 X178.651 Y115.569 E5.00351
G1 X179.979 Y116.634 E5.06012
G1 X180.994 Y117.466 E5.10378
G1 X182.262 Y118.526 E5.15874
G1 X183.085 Y119.23 E5.19477
G1 X184.483 Y120.448 E5.25644
G1 X186.513 Y122.275 E5.34727
G1 X187.29 Y122.993 E5.38246
G1 X188.561 Y124.19 E5.44053
G1 X189.347 Y124.945 E5.47678
G1 X190.515 Y126.089 E5.53116
G1 X190.966 Y126.543 E5.55244
G1 X191.598 Y127.236 E5.58364
G1 X192.169 Y127.98 E5.61483
G1 X192.674 Y128.77 E5.64601
G1 X193.11 Y129.6 E5.6772
G1 X193.474 Y130.465 E5.70841
G1 X193.762 Y131.357 E5.73959
G1 X193.974 Y132.271 E5.77079
G1 X194.107 Y133.199 E5.80197
G1 X194.161 Y134.135 E5.83316
G1 X194.134 Y135.073 E5.86437
G1 X194.028 Y136.005 E5.89557
G1 X193.843 Y136.924 E5.92675
G1 X193.58 Y137.825 E5.95796
G1 X193.242 Y138.699 E5.98913
G1 X192.83 Y139.542 E6.02034
G1 X192.348 Y140.346 E6.05152
G1 X191.799 Y141.107 E6.08273
G1 X191.187 Y141.818 E6.11393
G1 X190.831 Y142.181 E6.13084
G1 X190.391 Y142.599 E6.15103
G1 X160.176 Y169.893 E7.50529
G1 X159.509 Y170.477 E7.53478
G1 X158.778 Y171.064 E7.56596
G1 X157.998 Y171.586 E7.59718
G1 X157.178 Y172.04 E7.62835
G1 X156.321 Y172.422 E7.65956
G1 X155.436 Y172.73 E7.69073
G1 X154.527 Y172.962 E7.72193
G1 X153.601 Y173.115 E7.75314
G1 X152.666 Y173.189 E7.78434
G1 X151.729 Y173.183 E7.81551
G1 X150.795 Y173.097 E7.8467
G1 X149.871 Y172.932 E7.87792
G1 X148.966 Y172.688 E7.9091
G1 X147.855 Y172.272 E7.94855
G1 X145.353 Y171.176 E8.0394
G1 X143.047 Y170.187 E8.12286
G1 X140.7 Y169.243 E8.207
G1 X138.294 Y168.352 E8.29233
G1 X135.947 Y167.557 E8.37475
G1 X133.543 Y166.818 E8.4584
G1 X131.124 Y166.15 E8.54187
G1 X128.654 Y165.541 E8.62648
G1 X126.196 Y165.01 E8.71012
G1 X123.724 Y164.547 E8.79377
G1 X121.247 Y164.156 E8.87717
G1 X118.774 Y163.837 E8.96011
G1 X116.254 Y163.584 E9.04435
G1 X113.735 Y163.402 E9.12835
G1 X111.218 Y163.293 E9.21214
G1 X108.694 Y163.254 E9.2961
G1 X106.206 Y163.287 E9.37886
G1 X103.649 Y163.393 E9.46398
G1 X101.189 Y163.564 E9.54599
G1 X98.653 Y163.813 E9.63075
G1 X96.141 Y164.132 E9.71497
G1 X93.68 Y164.515 E9.79781
G1 X91.18 Y164.977 E9.88236
G1 X88.744 Y165.499 E9.96523
G1 X86.31 Y166.091 E10.04854
G1 X83.882 Y166.758 E10.13229
G1 X81.44 Y167.502 E10.2172
G1 X79.047 Y168.307 E10.30117
G1 X76.718 Y169.163 E10.3837
G1 X74.78 Y169.93 E10.45302
G1 X73.894 Y170.237 E10.48421
G1 X72.985 Y170.469 E10.51541
G1 X72.06 Y170.621 E10.54659
G1 X71.125 Y170.695 E10.57778
G1 X70.187 Y170.689 E10.60898
G1 X69.253 Y170.602 E10.64018
G1 X68.33 Y170.437 E10.67137
G1 X67.424 Y170.193 E10.70258
G1 X66.542 Y169.873 E10.73378
G1 X65.691 Y169.48 E10.76496
G1 X64.877 Y169.015 E10.79614
G1 X64.105 Y168.482 E10.82734
G1 X63.381 Y167.886 E10.85853
G1 X62.894 Y167.42 E10.88095
G1 X62.33 Y166.846 E10.90772
G1 X21.681 Y124.366 E12.86326
G1 X21.211 Y123.861 E12.8862
G1 X20.602 Y123.148 E12.91739
G1 X20.056 Y122.386 E12.94857
G1 X19.576 Y121.579 E12.9798
G1 X19.168 Y120.735 E13.01098
G1 X18.832 Y119.859 E13.04218
G1 X18.573 Y118.958 E13.07336
G1 X18.391 Y118.038 E13.10456
G1 X18.288 Y117.106 E13.13574
G1 X18.265 Y116.168 E13.16695
G1 X18.322 Y115.232 E13.19814
G1 X18.458 Y114.304 E13.22933
G1 X18.673 Y113.391 E13.26053
G1 X18.965 Y112.5 E13.29172
G1 X19.332 Y111.637 E13.32291
G1 X19.771 Y110.808 E13.35411
G1 X20.279 Y110.02 E13.38529
G1 X20.852 Y109.278 E13.41647
G1 X21.487 Y108.587 E13.44769
G1 X22.178 Y107.953 E13.47888
G1 X22.92 Y107.38 E13.51006
G1 X23.897 Y106.765 E13.54846
G1 X24.453 Y106.461 E13.56953
G1 X27.09 Y105.1 E13.66823
G1 X29.462 Y103.92 E13.75635
G1 X31.927 Y102.738 E13.84727
G1 X33.873 Y101.837 E13.9186
G1 X36.585 Y100.628 E14.01736
G1 F1500 E7.51736
G0 F6000 X32.1 Y103.098
G1 F1500 E14.01736
G1 F1200 X34.173 Y102.14 E14.09331
G1 X36.595 Y101.06 E14.18151
G1 X39.262 Y99.918 E14.27801
G1 X40.116 Y99.564 E14.30876
G1 X42.691 Y98.527 E14.40108
G1 X45.351 Y97.507 E14.49584
G1 X47.756 Y96.627 E14.58101
G1 X50.553 Y95.655 E14.6795
G1 X52.267 Y95.088 E14.73955
G1 X53.346 Y94.742 E14.77723
G1 X55.755 Y93.998 E14.86109
G1 X57.653 Y93.44 E14.92689
G1 X60.405 Y92.677 E15.02188
G1 X61.299 Y92.441 E15.05263
G1 X63.979 Y91.765 E15.14456
G1 X65.738 Y91.351 E15.20466
G1 X66.705 Y91.132 E15.23764
G1 X68.469 Y90.749 E15.29768
G1 X69.419 Y90.552 E15.32995
G1 X71.071 Y90.225 E15.38596
G1 X72.143 Y90.023 E15.42224
G1 X73.947 Y89.701 E15.48319
G1 X76.436 Y89.295 E15.56707
G1 X77.536 Y89.13 E15.60406
G1 X79.298 Y88.882 E15.66325
G1 X80.233 Y88.76 E15.69461
G1 X82.025 Y88.542 E15.75465
G1 X82.988 Y88.435 E15.78688
G1 X84.577 Y88.274 E15.84
G1 X85.785 Y88.164 E15.88034
G1 X87.499 Y88.025 E15.93754
G1 X88.6 Y87.946 E15.97425
G1 X90.381 Y87.838 E16.0336
G1 X91.433 Y87.785 E16.06863
G1 X93.088 Y87.718 E16.12372
G1 X94.342 Y87.68 E16.16545
G1 X95.982 Y87.648 E16.22
G1 X97.138 Y87.639 E16.25845
G1 X98.845 Y87.641 E16.31523
G1 X99.913 Y87.654 E16.35075
G1 X101.61 Y87.692 E16.40721
G1 X102.82 Y87.732 E16.44748
G1 X104.413 Y87.802 E16.50051
G1 X105.567 Y87.864 E16.53895
G1 X107.119 Y87.965 E16.59068
G1 X108.231 Y88.048 E16.62777
G1 X110.083 Y88.209 E16.6896
G1 X111.203 Y88.318 E16.72702
G1 X112.787 Y88.489 E16.78001
G1 X114.024 Y88.637 E16.82145
G1 X115.649 Y88.85 E16.87596
G1 X116.888 Y89.027 E16.91759
G1 X118.558 Y89.284 E16.97379
G1 X119.608 Y89.457 E17.00918
G1 X121.403 Y89.775 E17.06981
G1 X122.526 Y89.987 E17.10782
G1 X124.117 Y90.305 E17.16179
G1 X125.424 Y90.581 E17.20622
G1 X126.963 Y90.926 E17.25867
G1 X128.141 Y91.203 E17.29892
G1 X129.684 Y91.585 E17.35179
G1 X130.928 Y91.908 E17.39454
G1 X132.555 Y92.349 E17.45061
G1 X133.516 Y92.622 E17.48383
G1 X135.168 Y93.11 E17.54113
G1 X136.407 Y93.491 E17.58424
G1 X137.827 Y93.945 E17.63383
G1 X139.08 Y94.363 E17.67776
G1 X140.6 Y94.886 E17.73122
G1 X141.637 Y95.257 E17.76785
G1 X143.272 Y95.862 E17.82584
G1 X144.423 Y96.304 E17.86685
G1 X145.811 Y96.853 E17.91649
G1 X147.039 Y97.354 E17.9606
G1 X148.448 Y97.948 E18.01146
G1 X149.632 Y98.464 E18.05442
G1 X151.107 Y99.126 E18.10819
G1 X152.221 Y99.642 E18.14902
G1 X153.709 Y100.347 E18.20379
G1 X154.618 Y100.79 E18.23742
G1 X156.209 Y101.59 E18.29665
G1 X157.323 Y102.165 E18.33835
G1 X158.691 Y102.892 E18.38987
G1 X159.772 Y103.479 E18.43079
G1 X161.208 Y104.28 E18.48548
G1 X162.228 Y104.865 E18.52459
G1 X163.668 Y105.711 E18.58013
G1 X164.609 Y106.277 E18.61666
G1 X166.111 Y107.202 E18.67533
G1 X167.015 Y107.774 E18.71091
G1 X168.382 Y108.656 E18.76502
G1 X169.443 Y109.358 E18.80733
G1 X170.792 Y110.269 E18.86147
G1 X171.726 Y110.915 E18.89924
G1 X173.088 Y111.878 E18.95472
G1 X174.041 Y112.568 E18.99386
G1 X175.376 Y113.553 E19.04904
G1 X176.295 Y114.247 E19.08734
G1 X177.636 Y115.281 E19.14366
G1 X178.483 Y115.947 E19.1795
G1 X179.819 Y117.019 E19.23647
G1 X180.738 Y117.773 E19.27601
G1 X182.002 Y118.83 E19.33081
G1 X182.823 Y119.532 E19.36674
G1 X184.085 Y120.63 E19.42237
G1 X186.242 Y122.569 E19.51884
G1 X187.016 Y123.284 E19.55389
G1 X188.284 Y124.479 E19.61184
G1 X189.067 Y125.231 E19.64795
G1 X190.231 Y126.371 E19.70214
G1 X190.682 Y126.825 E19.72342
G1 X191.302 Y127.505 E19.75403
G1 X191.86 Y128.237 E19.78464
G1 X192.353 Y129.015 E19.81528
G1 X192.777 Y129.832 E19.84589
G1 X193.128 Y130.683 E19.87651
G1 X193.404 Y131.562 E19.90715
G1 X193.602 Y132.461 E19.93777
G1 X193.722 Y133.374 E19.9684
G1 X193.762 Y134.293 E19.99899
G1 X193.722 Y135.213 E20.02962
G1 X193.603 Y136.126 E20.06024
G1 X193.404 Y137.025 E20.09087
G1 X193.129 Y137.904 E20.1215
G1 X192.778 Y138.755 E20.15212
G1 X192.355 Y139.572 E20.18272
G1 X191.862 Y140.35 E20.21335
G1 X191.304 Y141.082 E20.24397
G1 X190.552 Y141.894 E20.28078
G1 X190.122 Y142.302 E20.30049
G1 X159.779 Y169.71 E21.66046
G1 X159.246 Y170.176 E21.68401
G1 X158.527 Y170.751 E21.71463
G1 X157.761 Y171.262 E21.74525
G1 X156.954 Y171.705 E21.77587
G1 X156.111 Y172.075 E21.80649
G1 X155.239 Y172.371 E21.83712
G1 X154.345 Y172.591 E21.86774
G1 X153.435 Y172.732 E21.89837
G1 X152.517 Y172.793 E21.92897
G1 X151.596 Y172.775 E21.95961
G1 X150.681 Y172.676 E21.99022
G1 X149.778 Y172.499 E22.02083
G1 X148.893 Y172.244 E22.05146
G1 X148.016 Y171.905 E22.08273
G1 X145.591 Y170.843 E22.17078
G1 X143.19 Y169.814 E22.25766
G1 X140.809 Y168.855 E22.34304
G1 X138.487 Y167.996 E22.42538
G1 X136.055 Y167.173 E22.51078
G1 X133.662 Y166.437 E22.59405
G1 X131.188 Y165.753 E22.67942
G1 X128.761 Y165.155 E22.76256
G1 X126.276 Y164.618 E22.84712
G1 X123.795 Y164.153 E22.93107
G1 X121.324 Y163.763 E23.01428
G1 X118.794 Y163.437 E23.09912
G1 X116.287 Y163.185 E23.18292
G1 X113.747 Y163.002 E23.26762
G1 X111.241 Y162.893 E23.35105
G1 X108.695 Y162.854 E23.43574
G1 X106.184 Y162.887 E23.51927
G1 X103.64 Y162.992 E23.60395
G1 X101.122 Y163.168 E23.68791
G1 X98.635 Y163.412 E23.77102
G1 X96.101 Y163.733 E23.85598
G1 X93.612 Y164.121 E23.93976
G1 X91.094 Y164.586 E24.02492
G1 X88.645 Y165.111 E24.10823
G1 X86.207 Y165.705 E24.19169
G1 X83.765 Y166.375 E24.27591
G1 X81.344 Y167.113 E24.36009
G1 X78.919 Y167.928 E24.44518
G1 X76.56 Y168.795 E24.52877
G1 X74.633 Y169.558 E24.59771
G1 X73.763 Y169.859 E24.62833
G1 X72.87 Y170.084 E24.65896
G1 X71.961 Y170.23 E24.68958
G1 X71.043 Y170.297 E24.72019
G1 X70.122 Y170.284 E24.75083
G1 X69.206 Y170.192 E24.78145
G1 X68.302 Y170.02 E24.81205
G1 X67.416 Y169.77 E24.84267
G1 X66.554 Y169.445 E24.87331
G1 X65.725 Y169.045 E24.90393
G1 X64.933 Y168.576 E24.93454
G1 X64.185 Y168.039 E24.96517
G1 X63.179 Y167.14 E25.01004
G1 X62.619 Y166.57 E25.03662
G1 X21.974 Y124.094 E26.99197
G1 X21.504 Y123.589 E27.01492
G1 X20.906 Y122.888 E27.04556
G1 X20.372 Y122.138 E27.07618
G1 X19.905 Y121.345 E27.10679
G1 X19.508 Y120.514 E27.13742
G1 X19.185 Y119.652 E27.16804
G1 X18.938 Y118.765 E27.19867
G1 X18.769 Y117.86 E27.22929
G1 X18.679 Y116.944 E27.2599
G1 X18.669 Y116.023 E27.29053
G1 X18.738 Y115.105 E27.32115
G1 X18.888 Y114.197 E27.35176
G1 X19.115 Y113.305 E27.38238
G1 X19.419 Y112.436 E27.413
G1 X19.797 Y111.596 E27.44363
G1 X20.247 Y110.793 E27.47425
G1 X20.764 Y110.032 E27.50485
G1 X21.346 Y109.318 E27.53549
G1 X21.988 Y108.658 E27.56611
G1 X22.684 Y108.056 E27.59672
G1 X23.43 Y107.516 E27.62735
G1 X24.092 Y107.114 E27.65311
G1 X24.637 Y106.816 E27.67377
G1 X27.268 Y105.458 E27.77224
G1 X29.781 Y104.209 E27.86558
G1 X32.1 Y103.098 E27.95111
G1 F1500 E21.45111
G0 F6000 X27.308 Y105.886
G1 F1500 E27.95111
G1 F1200 X29.954 Y104.57 E28.0494
G1 X32.273 Y103.459 E28.13492
G1 X34.336 Y102.505 E28.21052
G1 X36.9 Y101.363 E28.30387
G1 X39.415 Y100.288 E28.39484
G1 X40.265 Y99.935 E28.42546
G1 X42.676 Y98.963 E28.51192
G1 X45.488 Y97.883 E28.61211
G1 X47.893 Y97.003 E28.69728
G1 X50.679 Y96.035 E28.79538
G1 X52.477 Y95.441 E28.85836
G1 X53.464 Y95.124 E28.89284
G1 X55.873 Y94.38 E28.9767
G1 X57.915 Y93.781 E29.04748
G1 X60.391 Y93.095 E29.13293
G1 X61.397 Y92.829 E29.16754
G1 X63.913 Y92.193 E29.25386
G1 X65.827 Y91.741 E29.31927
G1 X66.79 Y91.523 E29.35211
G1 X68.55 Y91.141 E29.41201
G1 X69.497 Y90.945 E29.44417
G1 X71.145 Y90.618 E29.50005
G1 X72.213 Y90.416 E29.5362
G1 X73.856 Y90.122 E29.59172
G1 X76.627 Y89.67 E29.6851
G1 X77.592 Y89.526 E29.71755
G1 X79.35 Y89.279 E29.7766
G1 X80.281 Y89.157 E29.80783
G1 X82.069 Y88.94 E29.86773
G1 X83.028 Y88.833 E29.89983
G1 X84.513 Y88.682 E29.94947
G1 X85.817 Y88.563 E29.99303
G1 X87.528 Y88.424 E30.05012
G1 X88.625 Y88.345 E30.0867
G1 X90.401 Y88.237 E30.14588
G1 X91.449 Y88.184 E30.18078
G1 X93.1 Y88.118 E30.23574
G1 X94.35 Y88.08 E30.27733
G1 X95.985 Y88.048 E30.33172
G1 X97.137 Y88.039 E30.37004
G1 X98.84 Y88.041 E30.42668
G1 X99.904 Y88.053 E30.46207
G1 X101.597 Y88.091 E30.5184
G1 X102.693 Y88.127 E30.55487
G1 X104.392 Y88.201 E30.61143
G1 X105.541 Y88.263 E30.6497
G1 X107.089 Y88.364 E30.7013
G1 X108.323 Y88.457 E30.74246
G1 X110.044 Y88.607 E30.79992
G1 X111.16 Y88.716 E30.83721
G1 X112.858 Y88.9 E30.89402
G1 X113.972 Y89.034 E30.93134
G1 X115.713 Y89.263 E30.98974
G1 X116.828 Y89.422 E31.0272
G1 X118.384 Y89.661 E31.07956
G1 X119.664 Y89.872 E31.12271
G1 X121.329 Y90.168 E31.17896
G1 X122.448 Y90.379 E31.21683
G1 X124.034 Y90.696 E31.27062
G1 X125.337 Y90.972 E31.31492
G1 X126.872 Y91.316 E31.36724
G1 X128.045 Y91.592 E31.40732
G1 X129.584 Y91.972 E31.46005
G1 X130.824 Y92.294 E31.50266
G1 X132.445 Y92.734 E31.55852
G1 X133.508 Y93.037 E31.59529
G1 X135.05 Y93.493 E31.64877
G1 X136.285 Y93.872 E31.69174
G1 X137.825 Y94.365 E31.74552
G1 X138.95 Y94.741 E31.78497
