;FLAVOR:Marlin
;TIME:4887
;Filament used: 5.08572m
;Layer height: 0.28
;MINX:29.316
;MINY:54.51
;MINZ:0.28
;MAXX:190.512
;MAXY:162.466
;MAXZ:1.96
;Generated with Cura_SteamEngine main
M82 ;absolute extrusion mode
; Ender 3 Custom Start G-code
G92 E0 ; Reset Extruder
G28 ; Home all axes
M104 S175 ; Start heating up the nozzle most of the way
M190 S60 ; Start heating the bed, wait until target temperature reached
M109 S200 ; Finish heating the nozzle
G1 Z2.0 F3000 ; Move Z Axis up little to prevent scratching of Heat Bed
G1 X0.1 Y20 Z0.3 F5000.0 ; Move to start position
G1 X0.1 Y200.0 Z0.3 F1500.0 E15 ; Draw the first line
G1 X0.4 Y200.0 Z0.3 F5000.0 ; Move to side a little
G1 X0.4 Y20 Z0.3 F1500.0 E30 ; Draw the second line
G92 E0 ; Reset Extruder
G1 Z2.0 F3000 ; Move Z Axis up little to prevent scratching of Heat Bed
G1 X5 Y20 Z0.3 F5000.0 ; Move over to prevent blob squish
G92 E0
G92 E0
G1 F1500 E-6.5
;LAYER_COUNT:7
;LAYER:0
M107
G0 F6000 X34.747 Y57.915 Z0.28
G0 X29.316 Y67.218
;TYPE:SKIRT
G1 F1500 E0
G1 F1200 X29.371 Y66.282 E0.04366
G1 X29.506 Y65.354 E0.08733
G1 X29.72 Y64.441 E0.13099
G1 X30.011 Y63.549 E0.17468
G1 X30.376 Y62.686 E0.21831
G1 X30.814 Y61.856 E0.26201
G1 X31.321 Y61.067 E0.30568
G1 X31.894 Y60.324 E0.34937
G1 X32.527 Y59.633 E0.39301
G1 X33.217 Y58.998 E0.43667
G1 X33.959 Y58.424 E0.48035
G1 X34.747 Y57.915 E0.52404
G1 X35.575 Y57.475 E0.5677
G1 X36.438 Y57.107 E0.61138
G1 X37.329 Y56.815 E0.65504
G1 X38.511 Y56.551 E0.71144
G1 X39.864 Y56.331 E0.77527
G1 X42.821 Y55.933 E0.9142
G1 X44.728 Y55.703 E1.00364
G1 X46.978 Y55.457 E1.10903
G1 X49.199 Y55.241 E1.21294
G1 X51.582 Y55.039 E1.3243
G1 X53.687 Y54.888 E1.42257
G1 X56.04 Y54.748 E1.53233
G1 X57.981 Y54.657 E1.62281
G1 X59.445 Y54.602 E1.69103
G1 X61.027 Y54.558 E1.76472
G1 X62.418 Y54.53 E1.8295
G1 X64.718 Y54.51 E1.93661
G1 X66.261 Y54.515 E2.00846
G1 X67.626 Y54.53 E2.07202
G1 X69.535 Y54.57 E2.16093
G1 X70.728 Y54.607 E2.21651
G1 X72.625 Y54.683 E2.30491
G1 X74.114 Y54.759 E2.37434
G1 X76.777 Y54.928 E2.49859
G1 X78.375 Y55.052 E2.57322
G1 X79.468 Y55.146 E2.6243
G1 X81.159 Y55.306 E2.70339
G1 X82.612 Y55.459 E2.77142
G1 X84.187 Y55.641 E2.84525
G1 X85.44 Y55.797 E2.90405
G1 X87.162 Y56.029 E2.98495
G1 X88.478 Y56.221 E3.04688
G1 X89.904 Y56.44 E3.11406
G1 X91.279 Y56.666 E3.17895
G1 X93.527 Y57.064 E3.28525
G1 X95.767 Y57.498 E3.39149
G1 X96.995 Y57.751 E3.44988
G1 X98.364 Y58.045 E3.51507
G1 X99.838 Y58.379 E3.58545
G1 X101.067 Y58.669 E3.64425
G1 X102.34 Y58.982 E3.70529
G1 X103.953 Y59.398 E3.78286
G1 X106.062 Y59.97 E3.88461
G1 X107.441 Y60.365 E3.9514
G1 X108.773 Y60.761 E4.01611
G1 X110.585 Y61.322 E4.10443
G1 X112.064 Y61.801 E4.17683
G1 X113.501 Y62.285 E4.24743
G1 X115.487 Y62.982 E4.34544
G1 X116.807 Y63.465 E4.41089
G1 X118.618 Y64.153 E4.5011
G1 X120.18 Y64.772 E4.57933
G1 X121.5 Y65.312 E4.64574
G1 X122.55 Y65.754 E4.69879
G1 X124.081 Y66.418 E4.77649
G1 X125.275 Y66.951 E4.83738
G1 X126.45 Y67.49 E4.89758
G1 X127.679 Y68.069 E4.96084
G1 X129.837 Y69.124 E5.07269
G1 X131.46 Y69.951 E5.15751
G1 X132.861 Y70.688 E5.23122
G1 X134.069 Y71.341 E5.29516
G1 X135.202 Y71.968 E5.35546
G1 X136.89 Y72.931 E5.44595
G1 X138.694 Y74.001 E5.54361
G1 X140.045 Y74.827 E5.61735
G1 X141.153 Y75.522 E5.67825
G1 X143.02 Y76.729 E5.78177
G1 X144.061 Y77.423 E5.84003
G1 X145.398 Y78.336 E5.91542
G1 X146.961 Y79.436 E6.00441
G1 X148.225 Y80.351 E6.07707
G1 X149.832 Y81.549 E6.17041
G1 X151.412 Y82.767 E6.2633
G1 X152.576 Y83.69 E6.33248
G1 X154.117 Y84.946 E6.42505
G1 X155.731 Y86.305 E6.52329
G1 X157.195 Y87.578 E6.61363
G1 X158.452 Y88.703 E6.69218
G1 X159.398 Y89.569 E6.7519
G1 X160.499 Y90.601 E6.82217
G1 X161.836 Y91.886 E6.90852
G1 X162.994 Y93.031 E6.98435
G1 X164.417 Y94.477 E7.07881
G1 X165.305 Y95.403 E7.13855
G1 X166.242 Y96.4 E7.20226
G1 X167.189 Y97.429 E7.26738
G1 X168.413 Y98.793 E7.35272
G1 X169.086 Y99.56 E7.40023
G1 X170.26 Y100.927 E7.48414
G1 X171.079 Y101.903 E7.54346
G1 X171.864 Y102.859 E7.60106
G1 X172.801 Y104.023 E7.67064
G1 X173.463 Y104.86 E7.72034
G1 X174.267 Y105.897 E7.78144
G1 X175.063 Y106.944 E7.84268
G1 X175.865 Y108.021 E7.9052
G1 X177.002 Y109.589 E7.99539
G1 X178.326 Y111.472 E8.10258
G1 X178.972 Y112.419 E8.15596
G1 X180.13 Y114.156 E8.25316
G1 X181.565 Y116.39 E8.3768
G1 X182.341 Y117.639 E8.44527
G1 X183.463 Y119.498 E8.54638
G1 X184.171 Y120.706 E8.61158
G1 X184.961 Y122.086 E8.68562
G1 X185.555 Y123.145 E8.74216
G1 X186.376 Y124.646 E8.82182
G1 X187.041 Y125.895 E8.88771
G1 X188.202 Y128.148 E9.00573
G1 X189.149 Y130.063 E9.10521
G1 X189.471 Y130.749 E9.1405
G1 X189.833 Y131.614 E9.18416
G1 X190.119 Y132.507 E9.22782
G1 X190.329 Y133.421 E9.27149
G1 X190.461 Y134.35 E9.31518
G1 X190.512 Y135.286 E9.35883
G1 X190.484 Y136.224 E9.40253
G1 X190.376 Y137.155 E9.44617
G1 X190.189 Y138.074 E9.48984
G1 X189.924 Y138.974 E9.53353
G1 X189.584 Y139.848 E9.57719
G1 X189.17 Y140.69 E9.62088
G1 X188.686 Y141.493 E9.66454
G1 X188.136 Y142.253 E9.70822
G1 X187.523 Y142.962 E9.75187
G1 X186.851 Y143.617 E9.79556
G1 X186.127 Y144.213 E9.83923
G1 X185.354 Y144.744 E9.8829
G1 X184.539 Y145.208 E9.92657
G1 X184.065 Y145.437 E9.95108
G1 X183.448 Y145.712 E9.98253
G1 X146.029 Y161.355 E11.87105
G1 X145.208 Y161.685 E11.91225
G1 X144.324 Y161.997 E11.9559
G1 X143.416 Y162.232 E11.99957
G1 X142.491 Y162.389 E12.04326
G1 X141.556 Y162.466 E12.08695
G1 X140.618 Y162.464 E12.13062
G1 X139.684 Y162.382 E12.17428
G1 X138.76 Y162.22 E12.21796
G1 X137.854 Y161.98 E12.26161
G1 X136.971 Y161.664 E12.30527
G1 X136.118 Y161.274 E12.34895
G1 X135.301 Y160.813 E12.39263
G1 X134.527 Y160.284 E12.43628
G1 X133.836 Y159.722 E12.47776
G1 X133.4 Y159.331 E12.50503
G1 X131.686 Y157.726 E12.61437
G1 X130.023 Y156.193 E12.71969
G1 X128.078 Y154.471 E12.84065
G1 X126.162 Y152.868 E12.95697
G1 X124.176 Y151.299 E13.07483
G1 X122.16 Y149.797 E13.19189
G1 X120.11 Y148.358 E13.30852
G1 X117.988 Y146.958 E13.42689
G1 X115.851 Y145.632 E13.544
G1 X113.696 Y144.379 E13.66007
G1 X111.49 Y143.176 E13.77708
G1 X109.214 Y142.019 E13.89596
G1 X106.968 Y140.955 E14.01169
G1 X104.635 Y139.931 E14.13033
G1 X102.332 Y138.995 E14.24608
G1 X99.967 Y138.111 E14.36365
G1 X97.587 Y137.298 E14.48076
G1 X95.162 Y136.546 E14.59898
G1 X92.752 Y135.873 E14.71549
G1 X90.286 Y135.259 E14.83383
G1 X87.845 Y134.723 E14.9502
G1 X85.381 Y134.256 E15.06698
G1 X82.888 Y133.855 E15.18455
G1 X80.412 Y133.529 E15.30084
G1 X77.878 Y133.267 E15.41946
G1 X75.388 Y133.081 E15.53573
G1 X72.864 Y132.964 E15.65338
G1 X70.346 Y132.92 E15.77065
G1 X67.862 Y132.945 E15.88632
G1 X66.155 Y133.014 E15.96587
G1 X65.339 Y133.037 E16.00388
G1 X64.401 Y133.023 E16.04757
G1 X63.468 Y132.93 E16.09123
G1 X62.546 Y132.757 E16.13491
G1 X61.642 Y132.507 E16.17858
G1 X60.763 Y132.18 E16.22225
G1 X59.915 Y131.78 E16.26591
G1 X59.104 Y131.309 E16.30958
G1 X58.336 Y130.77 E16.35327
G1 X57.617 Y130.169 E16.39691
G1 X56.951 Y129.508 E16.4406
G1 X56.345 Y128.792 E16.48428
G1 X55.801 Y128.028 E16.52795
G1 X55.325 Y127.22 E16.57162
G1 X55.076 Y126.724 E16.59746
G1 X54.728 Y125.981 E16.63566
G1 X30.473 Y72.355 E19.37625
G1 X30.225 Y71.784 E19.40524
G1 X29.888 Y70.909 E19.4489
G1 X29.627 Y70.008 E19.49258
G1 X29.444 Y69.088 E19.53626
G1 X29.34 Y68.156 E19.57993
G1 X29.316 Y67.218 E19.62362
G0 F6000 X29.717 Y67.141
G1 F1200 X29.78 Y66.222 E19.66651
G1 X29.922 Y65.312 E19.7094
G1 X30.143 Y64.419 E19.75223
G1 X30.44 Y63.547 E19.79513
G1 X30.811 Y62.705 E19.83797
G1 X31.255 Y61.898 E19.88086
G1 X31.767 Y61.133 E19.92373
G1 X32.343 Y60.415 E19.96659
G1 X32.979 Y59.749 E20.00947
G1 X33.671 Y59.142 E20.05233
G1 X34.413 Y58.597 E20.0952
G1 X35.199 Y58.118 E20.13806
G1 X36.024 Y57.709 E20.18094
G1 X36.881 Y57.373 E20.2238
G1 X37.764 Y57.113 E20.26666
G1 X38.576 Y56.945 E20.30527
G1 X39.593 Y56.776 E20.35328
G1 X43.021 Y56.311 E20.51436
G1 X44.772 Y56.101 E20.59648
G1 X47.148 Y55.842 E20.70777
G1 X49.233 Y55.64 E20.80531
G1 X51.754 Y55.427 E20.92312
G1 X53.583 Y55.296 E21.0085
G1 X56.195 Y55.141 E21.13034
G1 X57.996 Y55.056 E21.2143
G1 X59.457 Y55.002 E21.28238
G1 X61.035 Y54.958 E21.35588
G1 X62.422 Y54.93 E21.42048
G1 X64.722 Y54.91 E21.52758
G1 X66.257 Y54.915 E21.59906
G1 X67.618 Y54.93 E21.66244
G1 X69.523 Y54.97 E21.75116
G1 X70.712 Y55.006 E21.80655
G1 X72.605 Y55.082 E21.89477
G1 X73.953 Y55.15 E21.95762
G1 X76.746 Y55.327 E22.08793
G1 X78.252 Y55.443 E22.15826
G1 X79.43 Y55.544 E22.21332
G1 X81.117 Y55.704 E22.29222
G1 X82.676 Y55.869 E22.36522
G1 X84.138 Y56.038 E22.43375
G1 X85.498 Y56.208 E22.49757
G1 X87.104 Y56.425 E22.57303
G1 X89.839 Y56.835 E22.70181
G1 X91.209 Y57.06 E22.76646
G1 X93.625 Y57.489 E22.88072
G1 X95.566 Y57.865 E22.97278
G1 X96.911 Y58.142 E23.03672
G1 X98.276 Y58.435 E23.10173
G1 X99.747 Y58.769 E23.17197
G1 X100.972 Y59.058 E23.23058
G1 X102.357 Y59.399 E23.29699
G1 X103.849 Y59.784 E23.36874
G1 X105.809 Y60.315 E23.4633
G1 X107.327 Y60.749 E23.53682
G1 X108.655 Y61.143 E23.60132
G1 X110.467 Y61.704 E23.68964
G1 X111.936 Y62.18 E23.76155
G1 X113.498 Y62.707 E23.83831
G1 X115.22 Y63.311 E23.92328
G1 X116.664 Y63.839 E23.99487
G1 X118.475 Y64.527 E24.08508
G1 X120.028 Y65.142 E24.16286
G1 X121.345 Y65.681 E24.22912
G1 X122.391 Y66.121 E24.28196
G1 X123.918 Y66.783 E24.35946
G1 X125.108 Y67.315 E24.42016
G1 X126.28 Y67.852 E24.48018
G1 X127.645 Y68.496 E24.55046
G1 X129.497 Y69.401 E24.64645
G1 X131.278 Y70.307 E24.73949
G1 X132.67 Y71.04 E24.81275
G1 X133.875 Y71.691 E24.87652
G1 X135.004 Y72.316 E24.93661
G1 X136.692 Y73.279 E25.0271
G1 X138.617 Y74.421 E25.13132
G1 X139.833 Y75.166 E25.19773
G1 X140.941 Y75.861 E25.25863
G1 X142.798 Y77.062 E25.36161
G1 X143.839 Y77.756 E25.41987
G1 X145.168 Y78.664 E25.49481
G1 X146.844 Y79.844 E25.59026
G1 X147.864 Y80.582 E25.64888
G1 X149.728 Y81.973 E25.75718
G1 X151.164 Y83.08 E25.84161
G1 X152.323 Y84 E25.91051
G1 X153.864 Y85.256 E26.00308
G1 X155.468 Y86.607 E26.10073
G1 X157.049 Y87.983 E26.19833
G1 X158.182 Y88.999 E26.26919
G1 X159.125 Y89.861 E26.32868
G1 X160.222 Y90.889 E26.39869
G1 X161.555 Y92.17 E26.48477
G1 X162.607 Y93.209 E26.55362
G1 X164.032 Y94.655 E26.64816
G1 X165.013 Y95.677 E26.71412
G1 X165.948 Y96.671 E26.77766
G1 X166.891 Y97.696 E26.84252
G1 X168.193 Y99.148 E26.93333
G1 X168.783 Y99.821 E26.975
G1 X169.88 Y101.098 E27.0534
G1 X170.77 Y102.157 E27.11781
G1 X171.487 Y103.029 E27.17038
G1 X172.488 Y104.271 E27.24465
G1 X173.147 Y105.105 E27.29415
G1 X173.948 Y106.139 E27.35505
G1 X174.742 Y107.183 E27.41613
G1 X175.544 Y108.26 E27.47865
G1 X176.767 Y109.948 E27.57572
G1 X177.996 Y111.698 E27.67529
G1 X178.64 Y112.641 E27.72846
G1 X179.692 Y114.216 E27.81666
G1 X181.142 Y116.469 E27.94142
G1 X181.998 Y117.846 E28.01691
G1 X183.19 Y119.822 E28.12437
G1 X183.824 Y120.905 E28.1828
G1 X184.613 Y122.282 E28.2567
G1 X185.204 Y123.337 E28.31301
G1 X186.022 Y124.834 E28.39245
G1 X186.752 Y126.206 E28.46481
G1 X187.768 Y128.176 E28.56802
G1 X188.787 Y130.233 E28.67492
G1 X189.109 Y130.919 E28.7102
G1 X189.463 Y131.769 E28.75308
G1 X189.743 Y132.646 E28.79595
G1 X189.945 Y133.544 E28.8388
G1 X190.069 Y134.456 E28.88166
G1 X190.113 Y135.376 E28.92455
G1 X190.077 Y136.296 E28.96742
G1 X189.961 Y137.209 E29.01028
G1 X189.767 Y138.109 E29.05315
G1 X189.495 Y138.989 E29.09604
G1 X189.148 Y139.841 E29.13887
G1 X188.729 Y140.661 E29.18175
G1 X188.239 Y141.441 E29.22464
G1 X187.684 Y142.175 E29.26749
G1 X187.067 Y142.859 E29.31039
G1 X186.394 Y143.486 E29.35322
G1 X185.668 Y144.053 E29.39611
G1 X184.896 Y144.554 E29.43896
G1 X183.899 Y145.073 E29.4913
G1 X183.293 Y145.343 E29.52219
G1 X145.874 Y160.986 E31.41071
G1 X145.059 Y161.314 E31.45161
G1 X144.191 Y161.619 E31.49445
G1 X143.299 Y161.848 E31.53734
G1 X142.391 Y161.998 E31.58019
G1 X141.473 Y162.069 E31.62306
G1 X140.552 Y162.06 E31.66595
G1 X139.636 Y161.971 E31.7088
G1 X138.731 Y161.803 E31.75167
G1 X137.843 Y161.557 E31.79457
G1 X136.981 Y161.236 E31.8374
G1 X136.149 Y160.84 E31.88031
G1 X135.356 Y160.374 E31.92314
G1 X134.605 Y159.84 E31.96605
G1 X134.1 Y159.422 E31.99657
G1 X133.674 Y159.039 E32.02325
G1 X132.022 Y157.492 E32.12863
G1 X130.275 Y155.882 E32.23926
G1 X128.354 Y154.181 E32.35873
G1 X126.404 Y152.549 E32.47714
G1 X124.439 Y150.998 E32.59371
G1 X122.383 Y149.466 E32.7131
G1 X120.315 Y148.014 E32.83076
G1 X118.214 Y146.627 E32.94798
G1 X116.083 Y145.305 E33.06476
G1 X113.867 Y144.016 E33.18413
G1 X111.657 Y142.811 E33.30134
G1 X109.432 Y141.68 E33.41756
G1 X107.106 Y140.578 E33.53741
G1 X104.828 Y139.579 E33.65323
G1 X102.443 Y138.609 E33.77312
G1 X100.131 Y137.745 E33.88805
G1 X97.687 Y136.911 E34.0083
G1 X95.283 Y136.165 E34.1255
G1 X92.852 Y135.486 E34.24303
G1 X90.397 Y134.875 E34.36084
G1 X87.906 Y134.328 E34.47959
G1 X85.476 Y133.867 E34.59476
G1 X82.938 Y133.459 E34.71446
G1 X80.434 Y133.129 E34.83206
G1 X77.916 Y132.869 E34.94993
G1 X75.433 Y132.683 E35.06588
G1 X72.855 Y132.564 E35.18605
G1 X70.349 Y132.52 E35.30276
G1 X67.841 Y132.545 E35.41954
G1 X66.144 Y132.614 E35.49863
G1 X65.328 Y132.637 E35.53664
G1 X64.407 Y132.623 E35.57953
G1 X63.491 Y132.529 E35.62241
G1 X62.587 Y132.356 E35.66527
G1 X61.701 Y132.105 E35.70815
G1 X60.84 Y131.778 E35.75103
G1 X60.011 Y131.378 E35.79389
G1 X59.22 Y130.908 E35.83674
G1 X58.473 Y130.37 E35.8796
G1 X57.775 Y129.77 E35.92246
G1 X57.131 Y129.111 E35.96537
G1 X56.548 Y128.399 E36.00822
G1 X56.028 Y127.639 E36.0511
G1 X55.438 Y126.554 E36.1086
G1 X55.092 Y125.817 E36.14652
G1 X30.839 Y72.196 E38.88686
G1 X30.591 Y71.625 E38.91584
G1 X30.262 Y70.765 E38.95872
G1 X30.008 Y69.88 E39.00159
G1 X29.832 Y68.977 E39.04443
G1 X29.735 Y68.061 E39.08732
G1 X29.717 Y67.141 E39.13017
G0 F6000 X30.12 Y67.064
G1 F1200 X30.189 Y66.164 E39.1722
G1 X30.339 Y65.273 E39.21427
G1 X30.566 Y64.399 E39.25632
G1 X30.87 Y63.549 E39.29836
G1 X31.248 Y62.729 E39.3404
G1 X31.697 Y61.945 E39.38247
G1 X32.213 Y61.204 E39.42451
G1 X32.793 Y60.512 E39.46656
G1 X33.432 Y59.874 E39.5086
G1 X34.125 Y59.294 E39.55068
G1 X34.866 Y58.779 E39.5927
G1 X35.65 Y58.331 E39.63475
G1 X36.471 Y57.954 E39.67682
G1 X37.322 Y57.651 E39.71888
G1 X38.196 Y57.424 E39.76093
G1 X38.642 Y57.34 E39.78206
G1 X39.97 Y57.124 E39.84471
G1 X42.927 Y56.726 E39.98364
G1 X44.815 Y56.498 E40.07219
G1 X47.065 Y56.252 E40.17759
G1 X49.266 Y56.038 E40.28056
G1 X51.649 Y55.836 E40.39192
G1 X53.734 Y55.687 E40.48925
G1 X56.214 Y55.54 E40.60493
G1 X58.011 Y55.456 E40.6887
G1 X59.468 Y55.402 E40.75659
G1 X61.044 Y55.358 E40.83001
G1 X62.425 Y55.33 E40.89432
G1 X64.845 Y55.31 E41.00701
G1 X66.252 Y55.315 E41.07253
G1 X67.609 Y55.33 E41.13572
G1 X69.511 Y55.37 E41.22431
G1 X70.696 Y55.406 E41.27951
G1 X72.585 Y55.482 E41.36754
G1 X74.063 Y55.557 E41.43645
G1 X76.576 Y55.716 E41.5537
G1 X78.307 Y55.849 E41.63454
G1 X79.393 Y55.942 E41.68529
G1 X81.075 Y56.102 E41.76397
G1 X82.63 Y56.266 E41.83678
G1 X84.088 Y56.435 E41.90512
G1 X85.444 Y56.604 E41.96875
G1 X87.047 Y56.821 E42.04408
G1 X88.356 Y57.012 E42.10567
G1 X89.775 Y57.23 E42.17252
G1 X91.139 Y57.454 E42.23689
G1 X93.549 Y57.882 E42.35086
G1 X95.606 Y58.281 E42.44843
G1 X96.827 Y58.533 E42.50648
G1 X98.188 Y58.826 E42.57131
G1 X99.655 Y59.158 E42.64135
G1 X100.876 Y59.446 E42.69976
G1 X102.258 Y59.786 E42.76603
G1 X103.621 Y60.137 E42.83157
G1 X105.842 Y60.739 E42.93872
G1 X107.213 Y61.132 E43.00513
G1 X108.537 Y61.525 E43.06944
G1 X110.349 Y62.086 E43.15777
G1 X111.809 Y62.56 E43.22924
G1 X113.366 Y63.085 E43.30575
G1 X115.212 Y63.733 E43.39685
G1 X116.4 Y64.167 E43.45575
G1 X118.333 Y64.901 E43.55203
G1 X119.877 Y65.513 E43.62936
G1 X121.19 Y66.05 E43.69542
G1 X122.232 Y66.488 E43.74805
G1 X123.755 Y67.148 E43.82534
G1 X124.853 Y67.638 E43.88133
G1 X126.109 Y68.214 E43.94567
G1 X127.338 Y68.793 E44.00893
G1 X129.474 Y69.837 E44.11964
G1 X131.097 Y70.664 E44.20446
G1 X132.48 Y71.392 E44.27723
G1 X133.682 Y72.041 E44.34084
G1 X134.805 Y72.663 E44.40061
G1 X136.493 Y73.626 E44.49111
G1 X138.408 Y74.762 E44.59479
G1 X139.62 Y75.505 E44.66098
G1 X140.728 Y76.2 E44.72189
G1 X142.576 Y77.395 E44.82436
G1 X143.708 Y78.15 E44.88772
G1 X144.816 Y78.906 E44.95018
G1 X146.609 Y80.168 E45.05227
G1 X147.746 Y80.992 E45.11766
