;FLAVOR:Marlin
;TIME:1757
;Filament used: 0.73657m
;Layer height: 0.2
;MINX:69.849
;MINY:84.835
;MINZ:0.2
;MAXX:150.151
;MAXY:139.093
;MAXZ:11.8
;Generated with Cura_SteamEngine main
M82 ;absolute extrusion mode
; Ender 3 Custom Start G-code
G92 E0 ; Reset Extruder
G28 ; Home all axes
M104 S175 ; Start heating up the nozzle most of the way
M190 S60 ; Start heating the bed, wait until target temperature reached
M109 S200 ; Finish heating the nozzle
G1 Z2.0 F3000 ; Move Z Axis up little to prevent scratching of Heat Bed
G1 X0.1 Y20 Z0.3 F5000.0 ; Move to start position
G1 X0.1 Y200.0 Z0.3 F1500.0 E15 ; Draw the first line
G1 X0.4 Y200.0 Z0.3 F5000.0 ; Move to side a little
G1 X0.4 Y20 Z0.3 F1500.0 E30 ; Draw the second line
G92 E0 ; Reset Extruder
G1 Z2.0 F3000 ; Move Z Axis up little to prevent scratching of Heat Bed
G1 X5 Y20 Z0.3 F5000.0 ; Move over to prevent blob squish
G92 E0
G92 E0
G1 F1500 E-6.5
;LAYER_COUNT:59
;LAYER:0
M107
G0 F6000 X81.547 Y91.614 Z0.2
G0 X80.861 Y92.254
;TYPE:SKIRT
G1 F1500 E0
G1 F1200 X81.547 Y91.614 E0.0312
G1 X82.285 Y91.036 E0.06238
G1 X83.07 Y90.522 E0.09359
G1 X83.895 Y90.077 E0.12477
G1 X84.756 Y89.704 E0.15598
G1 X85.645 Y89.405 E0.18717
G1 X86.556 Y89.184 E0.21835
G1 X87.374 Y89.053 E0.2459
G1 X90.02 Y88.732 E0.33456
G1 X92.525 Y88.356 E0.41881
G1 X94.965 Y87.919 E0.50125
G1 X97.427 Y87.406 E0.5849
G1 X99.892 Y86.818 E0.66918
G1 X102.105 Y86.216 E0.74546
G1 X102.235 Y86.187 E0.74989
G1 X103.394 Y85.868 E0.78988
G1 X104.294 Y85.644 E0.82072
G1 X105.298 Y85.425 E0.8549
G1 X106.276 Y85.242 E0.88799
G1 X107.267 Y85.084 E0.92137
G1 X107.71 Y85.023 E0.93624
G1 X108.71 Y84.905 E0.96974
G1 X109.645 Y84.835 E1.00092
G1 X110.583 Y84.845 E1.03212
G1 X111.242 Y84.9 E1.05411
G1 X112.213 Y85.014 E1.08663
G1 X113.143 Y85.146 E1.11787
G1 X113.594 Y85.22 E1.13308
G1 X114.927 Y85.47 E1.17818
G1 X115.666 Y85.633 E1.20335
G1 X116.525 Y85.847 E1.2328
G1 X119.539 Y86.672 E1.33673
G1 X122.015 Y87.278 E1.42151
G1 X124.438 Y87.8 E1.50395
G1 X126.949 Y88.267 E1.5889
G1 X129.4 Y88.651 E1.67142
G1 X131.958 Y88.979 E1.75719
G1 X132.537 Y89.045 E1.77657
G1 X133.464 Y89.192 E1.80779
G1 X134.374 Y89.416 E1.83896
G1 X135.263 Y89.718 E1.87019
G1 X136.122 Y90.094 E1.90138
G1 X136.946 Y90.542 E1.93257
G1 X137.729 Y91.058 E1.96376
G1 X138.465 Y91.639 E1.99495
G1 X139.042 Y92.173 E2.0211
G1 X139.824 Y92.952 E2.05781
G1 X142.626 Y95.802 E2.19074
G1 X143.311 Y96.517 E2.22367
G1 X143.948 Y97.243 E2.2558
G1 X144.155 Y97.501 E2.2668
G1 X144.863 Y98.491 E2.30728
G1 X145.087 Y98.844 E2.32119
G1 X145.533 Y99.615 E2.35081
G1 X145.653 Y99.843 E2.35938
G1 X145.997 Y100.558 E2.38577
G1 X146.423 Y101.532 E2.42113
G1 X146.738 Y102.336 E2.44985
G1 X146.987 Y103.054 E2.47513
G1 X147.147 Y103.555 E2.49262
G1 X147.557 Y104.966 E2.54149
G1 X147.847 Y106.084 E2.5799
G1 X148.056 Y106.969 E2.61015
G1 X148.403 Y108.609 E2.6659
G1 X148.684 Y110.05 E2.71473
G1 X148.866 Y111.037 E2.74812
G1 X149.108 Y112.473 E2.79655
G1 X149.496 Y114.974 E2.88073
G1 X149.724 Y116.569 E2.93432
G1 X149.899 Y117.87 E2.97798
G1 X150.042 Y119.084 E3.01864
G1 X150.099 Y119.673 E3.03832
G1 X150.134 Y120.238 E3.05715
G1 X150.151 Y120.915 E3.07967
G1 X150.15 Y121.362 E3.09454
G1 X150.124 Y122.124 E3.1199
G1 X150.071 Y122.771 E3.14149
G1 X150.018 Y123.244 E3.15732
G1 X149.901 Y124.051 E3.18444
G1 X149.725 Y124.888 E3.21289
G1 X149.598 Y125.405 E3.23059
G1 X149.364 Y126.236 E3.25931
G1 X149.06 Y127.082 E3.28921
G1 X148.815 Y127.694 E3.31113
G1 X148.43 Y128.549 E3.34232
G1 X148.133 Y129.1 E3.36314
G1 X147.907 Y129.492 E3.37819
G1 X147.546 Y130.075 E3.401
G1 X147.32 Y130.416 E3.4146
G1 X146.856 Y131.063 E3.44108
G1 X146.598 Y131.397 E3.45512
G1 X146.147 Y131.944 E3.4787
G1 X145.94 Y132.179 E3.48912
G1 X145.429 Y132.721 E3.51389
G1 X145.094 Y133.053 E3.52958
G1 X144.542 Y133.564 E3.5546
G1 X144.27 Y133.799 E3.56655
G1 X143.725 Y134.24 E3.58987
G1 X143.27 Y134.585 E3.60886
G1 X142.641 Y135.029 E3.63447
G1 X142.289 Y135.259 E3.64846
G1 X141.804 Y135.557 E3.66739
G1 X141.395 Y135.795 E3.68313
G1 X140.626 Y136.203 E3.71208
G1 X139.762 Y136.618 E3.74396
G1 X139.375 Y136.795 E3.75812
G1 X138.761 Y137.054 E3.78028
G1 X138.394 Y137.198 E3.79339
G1 X137.712 Y137.445 E3.81752
G1 X137.335 Y137.57 E3.83073
G1 X136.031 Y137.971 E3.8761
G1 X135.417 Y138.135 E3.89724
G1 X134.45 Y138.365 E3.9303
G1 X133.544 Y138.555 E3.96109
G1 X132.808 Y138.688 E3.98597
G1 X131.836 Y138.843 E4.0187
G1 X131.418 Y138.901 E4.03274
G1 X130.421 Y139.021 E4.06614
G1 X129.486 Y139.093 E4.09733
G1 X128.549 Y139.086 E4.1285
G1 X127.859 Y139.029 E4.15152
G1 X126.825 Y138.906 E4.18616
G1 X125.742 Y138.749 E4.22255
G1 X122.727 Y138.265 E4.32412
G1 X120.253 Y137.943 E4.4071
G1 X117.721 Y137.686 E4.49174
G1 X115.214 Y137.503 E4.57535
G1 X112.716 Y137.391 E4.65852
G1 X110.164 Y137.349 E4.74341
G1 X107.677 Y137.379 E4.82613
G1 X105.146 Y137.481 E4.91038
G1 X102.648 Y137.652 E4.99366
G1 X100.13 Y137.897 E5.0778
G1 X97.656 Y138.207 E5.16073
G1 X93.614 Y138.843 E5.29683
G1 X93.219 Y138.898 E5.31009
G1 X92.222 Y139.018 E5.34349
G1 X91.287 Y139.09 E5.37468
G1 X90.35 Y139.083 E5.40585
G1 X89.659 Y139.026 E5.42891
G1 X88.646 Y138.906 E5.46283
G1 X87.684 Y138.768 E5.49516
G1 X87.23 Y138.693 E5.51046
G1 X86.216 Y138.504 E5.54477
G1 X85.56 Y138.367 E5.56706
G1 X84.7 Y138.162 E5.59646
G1 X83.793 Y137.918 E5.6277
G1 X83.235 Y137.752 E5.64707
G1 X81.97 Y137.325 E5.69147
G1 X81.322 Y137.084 E5.71447
G1 X80.604 Y136.786 E5.74032
G1 X80.209 Y136.608 E5.75473
G1 X79.641 Y136.333 E5.77572
G1 X78.933 Y135.969 E5.8022
G1 X78.215 Y135.565 E5.8296
G1 X77.781 Y135.299 E5.84653
G1 X77.246 Y134.949 E5.8678
G1 X76.904 Y134.711 E5.88166
G1 X76.233 Y134.205 E5.90961
G1 X75.755 Y133.815 E5.93013
G1 X75.113 Y133.255 E5.95846
G1 X74.57 Y132.717 E5.98388
G1 X74.213 Y132.343 E6.00108
G1 X73.738 Y131.812 E6.02478
G1 X73.449 Y131.467 E6.03975
G1 X72.878 Y130.723 E6.07094
G1 X72.551 Y130.23 E6.09062
G1 X72.23 Y129.716 E6.11077
G1 X71.85 Y129.059 E6.13602
G1 X71.694 Y128.766 E6.14706
G1 X71.342 Y128.041 E6.17386
G1 X71.107 Y127.509 E6.19321
G1 X70.765 Y126.635 E6.22442
G1 X70.596 Y126.099 E6.24311
G1 X70.447 Y125.58 E6.26107
G1 X70.27 Y124.875 E6.28525
G1 X70.2 Y124.552 E6.29624
G1 X70.066 Y123.817 E6.32109
G1 X69.993 Y123.319 E6.33783
G1 X69.913 Y122.61 E6.36156
G1 X69.892 Y122.35 E6.37024
G1 X69.859 Y121.709 E6.39159
G1 X69.849 Y121.26 E6.40652
G1 X69.849 Y120.76 E6.42315
G1 X69.872 Y120.116 E6.44459
G1 X69.896 Y119.73 E6.45745
G1 X69.951 Y119.125 E6.47766
G1 X70.091 Y117.944 E6.51721
G1 X70.256 Y116.711 E6.55859
G1 X70.501 Y114.984 E6.6166
G1 X70.743 Y113.384 E6.67042
G1 X71.092 Y111.274 E6.74155
G1 X71.351 Y109.859 E6.7894
G1 X71.583 Y108.672 E6.82963
G1 X71.918 Y107.077 E6.88383
G1 X72.188 Y105.936 E6.92283
G1 X72.496 Y104.765 E6.9631
G1 X72.711 Y104.022 E6.98883
G1 X72.834 Y103.626 E7.00262
G1 X73.208 Y102.495 E7.04224
G1 X73.451 Y101.824 E7.06598
G1 X73.779 Y101.041 E7.09421
G1 X74.176 Y100.188 E7.12551
G1 X74.732 Y99.144 E7.16485
G1 X74.991 Y98.715 E7.18152
G1 X75.51 Y97.933 E7.21273
G1 X75.912 Y97.413 E7.23459
G1 X76.139 Y97.137 E7.24648
G1 X76.614 Y96.596 E7.27042
G1 X77.317 Y95.852 E7.30447
G1 X80.861 Y92.254 E7.47244
G0 F6000 X81.146 Y92.535
G1 F1200 X81.82 Y91.907 E7.50308
G1 X82.546 Y91.341 E7.5337
G1 X83.318 Y90.84 E7.56431
G1 X84.131 Y90.407 E7.59495
G1 X84.978 Y90.047 E7.62556
G1 X85.854 Y89.762 E7.6562
G1 X86.75 Y89.553 E7.6868
G1 X87.422 Y89.45 E7.70941
G1 X90.091 Y89.126 E7.79883
G1 X92.555 Y88.756 E7.8817
G1 X95.08 Y88.304 E7.96702
G1 X97.496 Y87.8 E8.04911
G1 X99.992 Y87.205 E8.13445
G1 X102.21 Y86.602 E8.2109
G1 X102.345 Y86.572 E8.2155
G1 X103.805 Y86.175 E8.26582
G1 X104.669 Y85.969 E8.29536
G1 X105.662 Y85.76 E8.32911
G1 X106.339 Y85.637 E8.352
G1 X107.33 Y85.479 E8.38538
G1 X107.757 Y85.42 E8.39971
G1 X108.757 Y85.302 E8.43321
G1 X109.675 Y85.234 E8.46382
G1 X110.596 Y85.246 E8.49446
G1 X111.197 Y85.297 E8.51452
G1 X112.157 Y85.41 E8.54667
G1 X113.087 Y85.542 E8.57791
G1 X113.522 Y85.613 E8.59257
G1 X114.551 Y85.803 E8.62737
G1 X115.571 Y86.022 E8.66207
G1 X116.419 Y86.233 E8.69114
G1 X119.443 Y87.061 E8.79542
G1 X121.907 Y87.664 E8.87979
G1 X124.387 Y88.198 E8.96416
G1 X126.852 Y88.657 E9.04756
G1 X129.354 Y89.049 E9.13179
G1 X131.94 Y89.38 E9.2185
G1 X132.492 Y89.443 E9.23698
G1 X133.401 Y89.587 E9.26759
G1 X134.295 Y89.81 E9.29824
G1 X135.165 Y90.109 E9.32884
G1 X136.007 Y90.483 E9.35948
G1 X136.812 Y90.929 E9.39009
G1 X137.576 Y91.442 E9.4207
G1 X138.293 Y92.02 E9.45133
G1 X138.76 Y92.457 E9.4726
G1 X139.539 Y93.233 E9.50917
G1 X142.337 Y96.079 E9.64191
G1 X143.022 Y96.794 E9.67485
G1 X143.636 Y97.494 E9.70582
G1 X143.843 Y97.752 E9.71682
G1 X144.525 Y98.706 E9.75582
G1 X144.749 Y99.059 E9.76973
G1 X145.179 Y99.801 E9.79825
G1 X145.299 Y100.029 E9.80682
G1 X145.631 Y100.718 E9.83226
G1 X146.057 Y101.692 E9.86762
G1 X146.36 Y102.467 E9.89529
G1 X146.609 Y103.185 E9.92057
G1 X146.763 Y103.668 E9.93743
G1 X147.17 Y105.067 E9.98589
G1 X147.395 Y105.926 E10.01543
G1 X147.666 Y107.061 E10.05424
G1 X148.043 Y108.845 E10.11488
G1 X148.272 Y110.024 E10.15483
G1 X148.5 Y111.267 E10.19686
G1 X148.713 Y112.535 E10.23963
G1 X149.1 Y115.031 E10.32364
G1 X149.327 Y116.622 E10.37709
G1 X149.526 Y118.109 E10.42699
G1 X149.645 Y119.13 E10.46118
G1 X149.7 Y119.709 E10.48052
G1 X149.735 Y120.253 E10.49865
G1 X149.751 Y120.914 E10.52064
G1 X149.75 Y121.361 E10.53551
G1 X149.724 Y122.103 E10.56021
G1 X149.673 Y122.726 E10.581
G1 X149.62 Y123.199 E10.59683
G1 X149.508 Y123.978 E10.623
G1 X149.337 Y124.793 E10.6507
G1 X149.21 Y125.31 E10.66841
G1 X148.983 Y126.115 E10.69622
G1 X148.689 Y126.934 E10.72517
G1 X148.444 Y127.546 E10.74709
G1 X148.065 Y128.385 E10.77771
G1 X147.786 Y128.9 E10.79719
G1 X147.56 Y129.292 E10.81224
G1 X147.213 Y129.854 E10.83421
G1 X146.987 Y130.195 E10.84782
G1 X146.54 Y130.819 E10.87335
G1 X146.282 Y131.153 E10.88739
G1 X145.847 Y131.679 E10.91009
G1 X145.64 Y131.914 E10.9205
G1 X145.148 Y132.437 E10.94439
G1 X144.813 Y132.769 E10.96007
G1 X144.281 Y133.261 E10.98417
G1 X144.009 Y133.496 E10.99613
G1 X143.483 Y133.921 E11.01862
G1 X143.028 Y134.266 E11.03761
G1 X142.422 Y134.694 E11.06229
G1 X142.07 Y134.924 E11.07627
G1 X141.603 Y135.212 E11.09452
G1 X141.194 Y135.45 E11.11026
G1 X140.452 Y135.843 E11.13819
G1 X139.588 Y136.258 E11.17007
G1 X139.216 Y136.428 E11.18367
G1 X138.615 Y136.682 E11.20537
G1 X138.248 Y136.826 E11.21849
G1 X137.579 Y137.068 E11.24215
G1 X137.216 Y137.189 E11.25487
G1 X135.925 Y137.585 E11.29979
G1 X135.322 Y137.746 E11.32055
G1 X134.367 Y137.974 E11.3532
G1 X133.471 Y138.161 E11.38365
G1 X132.745 Y138.293 E11.40819
G1 X131.773 Y138.448 E11.44093
G1 X131.371 Y138.504 E11.45443
G1 X130.374 Y138.624 E11.48783
G1 X129.456 Y138.694 E11.51845
G1 X128.535 Y138.685 E11.54908
G1 X127.904 Y138.632 E11.57014
G1 X127.186 Y138.55 E11.59418
G1 X125.805 Y138.354 E11.64057
G1 X122.776 Y137.868 E11.7426
G1 X120.304 Y137.546 E11.82552
G1 X117.758 Y137.288 E11.91063
G1 X115.225 Y137.103 E11.9951
G1 X112.74 Y136.991 E12.07784
G1 X110.166 Y136.949 E12.16346
G1 X107.656 Y136.979 E12.24695
G1 X105.136 Y137.081 E12.33084
G1 X102.618 Y137.253 E12.41478
G1 X100.113 Y137.497 E12.49849
G1 X97.578 Y137.815 E12.58347
G1 X93.552 Y138.448 E12.71902
G1 X93.172 Y138.501 E12.73178
G1 X92.175 Y138.621 E12.76518
G1 X91.257 Y138.691 E12.7958
G1 X90.336 Y138.682 E12.82643
G1 X89.704 Y138.628 E12.84753
G1 X88.703 Y138.51 E12.88105
G1 X87.741 Y138.372 E12.91338
G1 X87.304 Y138.3 E12.92811
G1 X86.29 Y138.111 E12.96241
G1 X85.644 Y137.976 E12.98436
G1 X84.795 Y137.774 E13.01339
G1 X83.899 Y137.532 E13.04426
G1 X83.353 Y137.37 E13.0632
G1 X82.1 Y136.946 E13.1072
G1 X81.744 Y136.817 E13.11979
G1 X81.106 Y136.565 E13.14261
G1 X80.38 Y136.246 E13.16898
G1 X79.824 Y135.977 E13.18953
G1 X79.116 Y135.613 E13.216
G1 X78.424 Y135.224 E13.24241
G1 X77.99 Y134.958 E13.25934
G1 X77.474 Y134.621 E13.27984
G1 X77.132 Y134.383 E13.29369
G1 X76.486 Y133.895 E13.32062
G1 X76.008 Y133.505 E13.34114
G1 X75.473 Y133.038 E13.36476
G1 X74.859 Y132.441 E13.39324
G1 X74.502 Y132.067 E13.41044
G1 X74.044 Y131.555 E13.43329
G1 X73.755 Y131.21 E13.44826
G1 X73.195 Y130.479 E13.47888
G1 X72.89 Y130.018 E13.49727
G1 X72.569 Y129.504 E13.51743
G1 X72.204 Y128.871 E13.54173
G1 X72.048 Y128.578 E13.55277
G1 X71.708 Y127.879 E13.57862
G1 X71.473 Y127.347 E13.59797
G1 X71.138 Y126.49 E13.62857
G1 X70.981 Y125.989 E13.64603
G1 X70.832 Y125.47 E13.66399
G1 X70.66 Y124.79 E13.68732
G1 X70.59 Y124.467 E13.69831
G1 X70.462 Y123.759 E13.72224
G1 X70.389 Y123.261 E13.73898
G1 X70.311 Y122.577 E13.76188
G1 X70.29 Y122.317 E13.77056
G1 X70.259 Y121.7 E13.7911
G1 X70.249 Y121.251 E13.80604
G1 X70.249 Y120.77 E13.82204
G1 X70.271 Y120.141 E13.84297
G1 X70.295 Y119.755 E13.85584
G1 X70.348 Y119.172 E13.87531
G1 X70.468 Y118.154 E13.9094
G1 X70.652 Y116.767 E13.95594
G1 X70.896 Y115.044 E14.01382
G1 X71.138 Y113.449 E14.06747
G1 X71.519 Y111.154 E14.14485
G1 X71.721 Y110.054 E14.18205
G1 X72.001 Y108.623 E14.23055
G1 X72.307 Y107.168 E14.28
G1 X72.575 Y106.037 E14.31866
G1 X72.803 Y105.159 E14.34883
G1 X73.096 Y104.134 E14.38428
G1 X73.214 Y103.752 E14.39758
G1 X73.588 Y102.621 E14.4372
G1 X73.825 Y101.964 E14.46043
G1 X74.142 Y101.209 E14.48767
G1 X74.539 Y100.356 E14.51896
G1 X75.075 Y99.35 E14.55687
G1 X75.334 Y98.921 E14.57354
G1 X75.843 Y98.155 E14.60413
G1 X76.221 Y97.667 E14.62466
G1 X76.448 Y97.391 E14.63655
G1 X76.906 Y96.87 E14.65962
G1 X77.602 Y96.133 E14.69333
G1 X81.146 Y92.535 E14.86131
G0 F6000 X81.431 Y92.815
G1 F1200 X82.093 Y92.201 E14.89134
G1 X82.806 Y91.647 E14.92137
G1 X83.566 Y91.158 E14.95143
G1 X84.366 Y90.739 E14.98147
G1 X85.199 Y90.392 E15.01148
G1 X86.061 Y90.12 E15.04154
G1 X86.942 Y89.925 E15.07155
G1 X87.47 Y89.847 E15.08931
G1 X90.132 Y89.524 E15.17849
G1 X92.642 Y89.147 E15.26291
G1 X95.126 Y88.702 E15.34685
G1 X97.606 Y88.185 E15.4311
G1 X100.093 Y87.592 E15.51614
G1 X102.315 Y86.988 E15.59273
G1 X102.452 Y86.957 E15.5974
G1 X103.899 Y86.564 E15.64727
G1 X104.753 Y86.36 E15.67647
G1 X105.735 Y86.153 E15.70985
G1 X106.402 Y86.032 E15.7324
G1 X107.393 Y85.874 E15.76578
G1 X107.804 Y85.817 E15.77958
G1 X108.804 Y85.699 E15.81307
G1 X109.704 Y85.633 E15.84308
G1 X110.607 Y85.647 E15.87312
G1 X111.152 Y85.694 E15.89131
G1 X112.1 Y85.806 E15.92306
G1 X113.03 Y85.938 E15.95431
G1 X113.449 Y86.007 E15.96843
G1 X114.76 Y86.253 E16.01279
G1 X115.476 Y86.41 E16.03717
G1 X116.314 Y86.619 E16.0659
G1 X119.323 Y87.443 E16.16966
G1 X121.834 Y88.057 E16.25564
G1 X124.301 Y88.589 E16.33958
G1 X126.788 Y89.051 E16.42371
G1 X129.313 Y89.447 E16.50872
G1 X131.847 Y89.771 E16.59369
G1 X132.446 Y89.84 E16.61374
G1 X133.338 Y89.983 E16.64379
G1 X134.214 Y90.203 E16.67383
G1 X135.067 Y90.501 E16.70388
G1 X135.89 Y90.872 E16.73391
G1 X136.677 Y91.315 E16.76395
G1 X137.422 Y91.826 E16.79399
G1 X138.118 Y92.4 E16.824
G1 X138.478 Y92.741 E16.84049
G1 X139.254 Y93.513 E16.8769
G1 X141.955 Y96.259 E17.00501
G1 X142.733 Y97.071 E17.04241
G1 X143.324 Y97.744 E17.0722
G1 X143.531 Y98.002 E17.0832
G1 X144.187 Y98.92 E17.12073
G1 X144.411 Y99.273 E17.13464
G1 X144.825 Y99.987 E17.16209
G1 X144.945 Y100.215 E17.17066
G1 X145.264 Y100.879 E17.19516
G1 X145.69 Y101.853 E17.23052
G1 X145.982 Y102.598 E17.25713
G1 X146.231 Y103.316 E17.28241
G1 X146.38 Y103.78 E17.29862
G1 X146.783 Y105.168 E17.34669
G1 X147.068 Y106.268 E17.38448
G1 X147.333 Y107.404 E17.42328
G1 X147.65 Y108.921 E17.47482
G1 X147.897 Y110.195 E17.51799
G1 X148.106 Y111.334 E17.5565
G1 X148.318 Y112.596 E17.59907
G1 X148.686 Y114.963 E17.67874
G1 X148.931 Y116.675 E17.73626
G1 X149.106 Y117.976 E17.77992
G1 X149.247 Y119.176 E17.82011
G1 X149.302 Y119.744 E17.83909
G1 X149.335 Y120.268 E17.85655
G1 X149.351 Y120.913 E17.87801
G1 X149.35 Y121.36 E17.89288
G1 X149.325 Y122.082 E17.91691
G1 X149.276 Y122.682 E17.93693
G1 X149.223 Y123.155 E17.95276
G1 X149.113 Y123.91 E17.97813
G1 X148.949 Y124.697 E18.00487
G1 X148.822 Y125.214 E18.02258
G1 X148.601 Y125.995 E18.04958
G1 X148.317 Y126.785 E18.0775
G1 X148.072 Y127.397 E18.09942
G1 X147.7 Y128.22 E18.12946
G1 X147.44 Y128.701 E18.14765
