;FLAVOR:Marlin
;TIME:6734
;Filament used: 5.59322m
;Layer height: 0.28
;MINX:81.789
;MINY:78.714
;MINZ:0.28
;MAXX:148.546
;MAXY:139.545
;MAXZ:28.84
;Generated with Cura_SteamEngine main
M82 ;absolute extrusion mode
; Ender 3 Custom Start G-code
G92 E0 ; Reset Extruder
G28 ; Home all axes
M104 S175 ; Start heating up the nozzle most of the way
M190 S60 ; Start heating the bed, wait until target temperature reached
M109 S200 ; Finish heating the nozzle
G1 Z2.0 F3000 ; Move Z Axis up little to prevent scratching of Heat Bed
G1 X0.1 Y20 Z0.3 F5000.0 ; Move to start position
G1 X0.1 Y200.0 Z0.3 F1500.0 E15 ; Draw the first line
G1 X0.4 Y200.0 Z0.3 F5000.0 ; Move to side a little
G1 X0.4 Y20 Z0.3 F1500.0 E30 ; Draw the second line
G92 E0 ; Reset Extruder
G1 Z2.0 F3000 ; Move Z Axis up little to prevent scratching of Heat Bed
G1 X5 Y20 Z0.3 F5000.0 ; Move over to prevent blob squish
G92 E0
G92 E0
G1 F1500 E-6.5
;LAYER_COUNT:103
;LAYER:0
M107
G0 F6000 X104.874 Y82.672 Z0.28
G0 X102.309 Y90.239
;TYPE:SKIRT
G1 F1500 E0
G1 F1200 X102.318 Y89.574 E0.03097
G1 X102.371 Y88.638 E0.07462
G1 X102.503 Y87.709 E0.11831
G1 X102.714 Y86.795 E0.16199
G1 X103.002 Y85.903 E0.20564
G1 X103.365 Y85.038 E0.24932
G1 X103.8 Y84.207 E0.293
G1 X104.304 Y83.417 E0.33663
G1 X104.874 Y82.672 E0.38031
G1 X105.506 Y81.978 E0.42402
G1 X106.194 Y81.341 E0.46768
G1 X106.934 Y80.765 E0.51134
G1 X107.72 Y80.253 E0.55502
G1 X108.547 Y79.811 E0.59869
G1 X109.409 Y79.441 E0.64237
G1 X110.299 Y79.145 E0.68604
G1 X111.211 Y78.927 E0.7297
G1 X112.138 Y78.786 E0.77336
G1 X113.009 Y78.727 E0.81401
G1 X113.638 Y78.714 E0.84331
G1 X136.997 Y78.715 E1.931
G1 X137.695 Y78.725 E1.96351
G1 X138.631 Y78.779 E2.00716
G1 X139.559 Y78.911 E2.05081
G1 X140.473 Y79.123 E2.0945
G1 X141.365 Y79.412 E2.13816
G1 X142.23 Y79.775 E2.18184
G1 X143.06 Y80.211 E2.2255
G1 X143.851 Y80.716 E2.2692
G1 X144.595 Y81.287 E2.31287
G1 X145.288 Y81.919 E2.35654
G1 X145.925 Y82.607 E2.4002
G1 X146.5 Y83.348 E2.44387
G1 X147.011 Y84.134 E2.48753
G1 X147.453 Y84.962 E2.53123
G1 X147.822 Y85.824 E2.57489
G1 X148.117 Y86.714 E2.61855
G1 X148.335 Y87.626 E2.66222
G1 X148.475 Y88.554 E2.70592
G1 X148.533 Y89.415 E2.7461
G1 X148.546 Y90.044 E2.77539
G1 X148.545 Y127.945 E4.54022
G1 X148.536 Y128.672 E4.57408
G1 X148.485 Y129.609 E4.61777
G1 X148.353 Y130.537 E4.66142
G1 X148.144 Y131.451 E4.70508
G1 X147.857 Y132.344 E4.74875
G1 X147.495 Y133.21 E4.79246
G1 X147.061 Y134.041 E4.83611
G1 X146.557 Y134.832 E4.87979
G1 X145.988 Y135.577 E4.92344
G1 X145.357 Y136.272 E4.96715
G1 X144.67 Y136.91 E5.01081
G1 X143.931 Y137.487 E5.05446
G1 X143.145 Y137.999 E5.09814
G1 X142.319 Y138.442 E5.14179
G1 X141.457 Y138.814 E5.1855
G1 X140.568 Y139.11 E5.22913
G1 X139.656 Y139.33 E5.27282
G1 X138.729 Y139.471 E5.31648
G1 X137.845 Y139.532 E5.35774
G1 X137.216 Y139.545 E5.38704
G1 X113.873 Y139.544 E6.47398
G1 X113.175 Y139.535 E6.50649
G1 X112.239 Y139.483 E6.55014
G1 X111.31 Y139.351 E6.59383
G1 X110.396 Y139.141 E6.6375
G1 X109.503 Y138.854 E6.68118
G1 X108.638 Y138.491 E6.72486
G1 X107.807 Y138.057 E6.76851
G1 X107.016 Y137.553 E6.81219
G1 X106.271 Y136.983 E6.85586
G1 X105.577 Y136.352 E6.89954
G1 X104.94 Y135.665 E6.94317
G1 X104.363 Y134.925 E6.98686
G1 X103.851 Y134.139 E7.03054
G1 X103.408 Y133.312 E7.07422
G1 X103.037 Y132.451 E7.11788
G1 X102.741 Y131.561 E7.16155
G1 X102.522 Y130.649 E7.20523
G1 X102.381 Y129.722 E7.24889
G1 X102.321 Y128.833 E7.29038
G1 X102.308 Y128.203 E7.31972
G1 X102.309 Y90.239 E9.08748
G0 F6000 X102.709 Y90.245
G1 F1200 X102.718 Y89.58 E9.11845
G1 X102.77 Y88.66 E9.16136
G1 X102.902 Y87.749 E9.20422
G1 X103.113 Y86.853 E9.24708
G1 X103.4 Y85.978 E9.28996
G1 X103.763 Y85.132 E9.33283
G1 X104.197 Y84.32 E9.3757
G1 X104.7 Y83.549 E9.41857
G1 X105.269 Y82.825 E9.46145
G1 X105.897 Y82.153 E9.50427
G1 X106.582 Y81.537 E9.54717
G1 X107.318 Y80.984 E9.59004
G1 X108.099 Y80.496 E9.63292
G1 X108.919 Y80.078 E9.67578
G1 X109.773 Y79.733 E9.71867
G1 X110.653 Y79.463 E9.76153
G1 X111.553 Y79.271 E9.80438
G1 X112.467 Y79.157 E9.84727
G1 X113.02 Y79.127 E9.87306
G1 X113.638 Y79.114 E9.90184
G1 X136.839 Y79.114 E10.98217
G1 X137.689 Y79.125 E11.02176
G1 X138.608 Y79.178 E11.06462
G1 X139.519 Y79.311 E11.10749
G1 X140.415 Y79.522 E11.15035
G1 X141.289 Y79.81 E11.1932
G1 X142.136 Y80.173 E11.23611
G1 X142.947 Y80.608 E11.27897
G1 X143.717 Y81.112 E11.32182
G1 X144.441 Y81.681 E11.3647
G1 X145.113 Y82.311 E11.40759
G1 X145.728 Y82.996 E11.45045
G1 X146.281 Y83.732 E11.49332
G1 X146.768 Y84.513 E11.53618
G1 X147.185 Y85.334 E11.57906
G1 X147.53 Y86.188 E11.62194
G1 X147.799 Y87.068 E11.66479
G1 X147.991 Y87.969 E11.70769
G1 X148.104 Y88.882 E11.75053
G1 X148.133 Y89.426 E11.77589
G1 X148.146 Y90.044 E11.80468
G1 X148.145 Y127.94 E13.56927
G1 X148.136 Y128.667 E13.60313
G1 X148.085 Y129.586 E13.64598
G1 X147.954 Y130.498 E13.68889
G1 X147.744 Y131.394 E13.73174
G1 X147.458 Y132.269 E13.7746
G1 X147.097 Y133.116 E13.81748
G1 X146.663 Y133.928 E13.86035
G1 X146.161 Y134.7 E13.90323
G1 X145.593 Y135.425 E13.94611
G1 X144.965 Y136.098 E13.98898
G1 X144.281 Y136.714 E14.03184
G1 X143.546 Y137.268 E14.0747
G1 X142.766 Y137.757 E14.11756
G1 X141.946 Y138.176 E14.16044
G1 X141.093 Y138.522 E14.2033
G1 X140.213 Y138.793 E14.24618
G1 X139.313 Y138.986 E14.28904
G1 X138.399 Y139.101 E14.33194
G1 X137.834 Y139.132 E14.35828
G1 X137.216 Y139.145 E14.38707
G1 X113.878 Y139.144 E15.47378
G1 X113.18 Y139.135 E15.50629
G1 X112.261 Y139.083 E15.54915
G1 X111.35 Y138.952 E15.592
G1 X110.454 Y138.742 E15.63486
G1 X109.579 Y138.455 E15.67774
G1 X108.732 Y138.093 E15.72063
G1 X107.92 Y137.659 E15.7635
G1 X107.149 Y137.157 E15.80634
G1 X106.424 Y136.589 E15.84922
G1 X105.751 Y135.96 E15.89212
G1 X105.136 Y135.276 E15.93495
G1 X104.582 Y134.541 E15.97781
G1 X104.094 Y133.76 E16.02069
G1 X103.675 Y132.94 E16.06357
G1 X103.329 Y132.087 E16.10643
G1 X103.059 Y131.207 E16.14929
G1 X102.866 Y130.306 E16.1922
G1 X102.752 Y129.393 E16.23504
G1 X102.721 Y128.822 E16.26167
G1 X102.708 Y128.203 E16.2905
G1 X102.709 Y90.245 E18.05798
G0 F6000 X103.109 Y90.25
G1 F1200 X103.118 Y89.585 E18.08895
G1 X103.17 Y88.683 E18.13102
G1 X103.302 Y87.79 E18.17305
G1 X103.512 Y86.912 E18.21509
G1 X103.799 Y86.055 E18.25717
G1 X104.161 Y85.228 E18.29921
G1 X104.594 Y84.436 E18.34124
G1 X105.096 Y83.685 E18.3833
G1 X105.663 Y82.981 E18.42539
G1 X106.289 Y82.331 E18.46742
G1 X106.97 Y81.738 E18.50946
G1 X107.702 Y81.208 E18.55154
G1 X108.477 Y80.745 E18.59358
G1 X109.29 Y80.352 E18.63563
G1 X110.135 Y80.032 E18.6777
G1 X111.004 Y79.789 E18.71972
G1 X111.892 Y79.623 E18.76178
G1 X113.031 Y79.527 E18.81501
G1 X113.638 Y79.514 E18.84328
G1 X136.839 Y79.514 E19.92362
G1 X137.683 Y79.525 E19.96292
G1 X138.585 Y79.578 E20.00499
G1 X139.478 Y79.71 E20.04703
G1 X140.356 Y79.921 E20.08907
G1 X141.212 Y80.209 E20.13113
G1 X142.039 Y80.571 E20.17316
G1 X142.831 Y81.006 E20.21524
G1 X143.582 Y81.508 E20.2573
G1 X144.285 Y82.075 E20.29936
G1 X144.935 Y82.702 E20.34141
G1 X145.527 Y83.384 E20.38346
G1 X146.057 Y84.115 E20.42551
G1 X146.519 Y84.891 E20.46756
G1 X146.912 Y85.704 E20.50961
G1 X147.23 Y86.549 E20.55165
G1 X147.473 Y87.419 E20.59371
G1 X147.638 Y88.307 E20.63577
G1 X147.733 Y89.437 E20.68857
G1 X147.746 Y90.044 E20.71684
G1 X147.745 Y127.935 E22.4812
G1 X147.736 Y128.662 E22.51506
G1 X147.685 Y129.564 E22.55713
G1 X147.554 Y130.458 E22.5992
G1 X147.345 Y131.336 E22.64122
G1 X147.059 Y132.193 E22.68329
G1 X146.698 Y133.021 E22.72535
G1 X146.266 Y133.813 E22.76736
G1 X145.765 Y134.565 E22.80944
G1 X145.199 Y135.269 E22.8515
G1 X144.574 Y135.92 E22.89352
G1 X143.893 Y136.514 E22.9356
G1 X143.162 Y137.045 E22.97767
G1 X142.388 Y137.509 E23.01969
G1 X141.575 Y137.903 E23.06176
G1 X140.731 Y138.223 E23.10379
G1 X139.861 Y138.468 E23.14588
G1 X138.974 Y138.634 E23.1879
G1 X137.823 Y138.732 E23.24169
G1 X137.216 Y138.745 E23.26996
G1 X113.883 Y138.744 E24.35644
G1 X113.185 Y138.735 E24.38894
G1 X112.284 Y138.684 E24.43096
G1 X111.39 Y138.552 E24.47304
G1 X110.512 Y138.343 E24.51507
G1 X109.655 Y138.056 E24.55715
G1 X108.828 Y137.695 E24.59917
G1 X108.035 Y137.262 E24.64124
G1 X107.284 Y136.761 E24.68328
G1 X106.58 Y136.195 E24.72534
G1 X105.929 Y135.569 E24.7674
G1 X105.336 Y134.888 E24.80944
G1 X104.806 Y134.157 E24.85149
G1 X104.342 Y133.382 E24.89355
G1 X103.948 Y132.569 E24.93562
G1 X103.628 Y131.725 E24.97765
G1 X103.384 Y130.855 E25.01972
G1 X103.218 Y129.967 E25.06179
G1 X103.121 Y128.812 E25.11576
G1 X103.108 Y128.203 E25.14412
G1 X103.109 Y90.25 E26.91137
G1 F1500 E20.41137
;MESH:fox mold.stl
G0 F6000 X112.643 Y90.25
G0 X113.908 Y127.945
;TYPE:WALL-INNER
G1 F1500 E26.91137
G1 F1200 X136.946 Y127.945 E27.98412
G1 X136.946 Y101.833 E29.2
G1 X136.946 Y90.314 E29.73637
G1 X113.908 Y90.314 E30.80912
G1 X113.908 Y127.945 E32.56138
G0 F6000 X113.508 Y128.345
;TYPE:WALL-OUTER
G1 F1200 X137.346 Y128.345 E33.67137
G1 X137.346 Y101.833 E34.90588
G1 X137.346 Y89.914 E35.46088
G1 X113.508 Y89.914 E36.57088
G1 X113.508 Y128.345 E38.36039
G0 F6000 X113.778 Y128.075
G0 X114.008 Y127.585
G0 X114.268 Y127.585
;TYPE:SKIN
G1 F1200 X136.586 Y127.585 E39.39961
G1 X136.586 Y101.833 E40.59873
G1 X136.586 Y90.674 E41.11834
G1 X114.268 Y90.674 E42.15756
G1 X114.268 Y127.585 E43.87629
G0 F6000 X114.938 Y127.383
G1 F1200 X114.467 Y126.912 E43.9073
G0 F6000 X114.467 Y126.346
G1 F1200 X115.504 Y127.383 E43.97559
G0 F6000 X116.07 Y127.383
G1 F1200 X114.467 Y125.78 E44.08115
G0 F6000 X114.467 Y125.215
G1 F1200 X116.635 Y127.383 E44.22392
G0 F6000 X117.201 Y127.383
G1 F1200 X114.467 Y124.649 E44.40396
G0 F6000 X114.467 Y124.083
G1 F1200 X117.767 Y127.383 E44.62127
G0 F6000 X118.332 Y127.383
G1 F1200 X114.467 Y123.518 E44.87579
G0 F6000 X114.467 Y122.952
G1 F1200 X118.898 Y127.383 E45.16757
G0 F6000 X119.464 Y127.383
G1 F1200 X114.467 Y122.386 E45.49664
G0 F6000 X114.467 Y121.821
G1 F1200 X120.029 Y127.383 E45.8629
G0 F6000 X120.595 Y127.383
G1 F1200 X114.467 Y121.255 E46.26644
G0 F6000 X114.467 Y120.689
G1 F1200 X121.161 Y127.383 E46.70725
G0 F6000 X121.727 Y127.383
G1 F1200 X114.467 Y120.124 E47.1853
G0 F6000 X114.467 Y119.558
G1 F1200 X122.292 Y127.383 E47.70059
G0 F6000 X122.858 Y127.383
G1 F1200 X114.467 Y118.992 E48.25315
G0 F6000 X114.467 Y118.426
G1 F1200 X123.424 Y127.383 E48.84299
G0 F6000 X123.989 Y127.383
G1 F1200 X114.467 Y117.861 E49.47003
G0 F6000 X114.467 Y117.295
G1 F1200 X124.555 Y127.383 E50.13434
G0 F6000 X125.121 Y127.383
G1 F1200 X114.467 Y116.729 E50.83592
G0 F6000 X114.467 Y116.164
G1 F1200 X125.687 Y127.384 E51.57478
G0 F6000 X126.253 Y127.384
G1 F1200 X114.467 Y115.598 E52.35091
G0 F6000 X114.467 Y115.032
G1 F1200 X126.818 Y127.384 E53.16428
G0 F6000 X127.384 Y127.384
G1 F1200 X114.467 Y114.467 E54.01488
G0 F6000 X114.467 Y113.901
G1 F1200 X127.95 Y127.384 E54.90276
G0 F6000 X128.515 Y127.384
G1 F1200 X114.467 Y113.335 E55.82788
G0 F6000 X114.467 Y112.77
G1 F1200 X129.081 Y127.384 E56.79024
G0 F6000 X129.647 Y127.384
G1 F1200 X114.467 Y112.204 E57.78986
G0 F6000 X114.467 Y111.638
G1 F1200 X130.213 Y127.384 E58.82677
G0 F6000 X130.778 Y127.384
G1 F1200 X114.467 Y111.073 E59.90087
G0 F6000 X114.467 Y110.507
G1 F1200 X131.344 Y127.384 E61.01225
G0 F6000 X131.91 Y127.384
G1 F1200 X114.467 Y109.941 E62.1609
G0 F6000 X114.467 Y109.375
G1 F1200 X132.475 Y127.384 E63.34679
G0 F6000 X133.041 Y127.384
G1 F1200 X114.467 Y108.81 E64.56992
G0 F6000 X114.467 Y108.244
G1 F1200 X133.607 Y127.384 E65.83033
G0 F6000 X134.172 Y127.384
G1 F1200 X114.467 Y107.678 E67.12797
G0 F6000 X114.467 Y107.113
G1 F1200 X134.738 Y127.384 E68.46285
G0 F6000 X135.304 Y127.384
G1 F1200 X114.467 Y106.547 E69.835
G0 F6000 X114.467 Y105.981
G1 F1200 X135.869 Y127.384 E71.24439
G0 F6000 X136.385 Y127.334
G1 F1200 X114.467 Y105.416 E72.68773
G0 F6000 X114.467 Y104.85
G1 F1200 X136.385 Y126.768 E74.13106
G0 F6000 X136.385 Y126.203
G1 F1200 X114.467 Y104.284 E75.57444
G0 F6000 X114.467 Y103.719
G1 F1200 X136.385 Y125.637 E77.01777
G0 F6000 X136.385 Y125.071
G1 F1200 X114.467 Y103.153 E78.46111
G0 F6000 X114.467 Y102.587
G1 F1200 X136.385 Y124.505 E79.90445
G0 F6000 X136.385 Y123.94
G1 F1200 X114.467 Y102.022 E81.34779
G0 F6000 X114.467 Y101.456
G1 F1200 X136.385 Y123.374 E82.79112
G0 F6000 X136.385 Y122.808
G1 F1200 X114.467 Y100.89 E84.23446
G0 F6000 X114.467 Y100.325
G1 F1200 X136.385 Y122.243 E85.6778
G0 F6000 X136.385 Y121.677
G1 F1200 X114.467 Y99.759 E87.12114
G0 F6000 X114.467 Y99.193
G1 F1200 X136.385 Y121.111 E88.56448
G0 F6000 X136.385 Y120.546
G1 F1200 X114.467 Y98.627 E90.00785
G0 F6000 X114.467 Y98.062
G1 F1200 X136.385 Y119.98 E91.45118
G0 F6000 X136.385 Y119.414
G1 F1200 X114.467 Y97.496 E92.89452
G0 F6000 X114.467 Y96.93
G1 F1200 X136.385 Y118.849 E94.33789
G0 F6000 X136.385 Y118.283
G1 F1200 X114.467 Y96.365 E95.78123
G0 F6000 X114.467 Y95.799
G1 F1200 X136.385 Y117.717 E97.22457
G0 F6000 X136.385 Y117.152
G1 F1200 X114.467 Y95.233 E98.66794
G0 F6000 X114.467 Y94.668
G1 F1200 X136.385 Y116.586 E100.11128
G0 F6000 X136.385 Y116.02
G1 F1200 X114.467 Y94.102 E101.55461
G0 F6000 X114.467 Y93.536
G1 F1200 X136.385 Y115.454 E102.99795
G0 F6000 X136.385 Y114.889
G1 F1200 X114.467 Y92.971 E104.44129
G0 F6000 X114.467 Y92.405
G1 F1200 X136.385 Y114.323 E105.88463
G0 F6000 X136.385 Y113.757
G1 F1200 X114.467 Y91.839 E107.32796
G0 F6000 X114.467 Y91.274
G1 F1200 X136.385 Y113.192 E108.7713
G0 F6000 X136.385 Y112.626
G1 F1200 X114.633 Y90.874 E110.20371
G0 F6000 X115.199 Y90.874
G1 F1200 X136.385 Y112.06 E111.59884
G0 F6000 X136.385 Y111.495
G1 F1200 X115.764 Y90.874 E112.95677
G0 F6000 X116.33 Y90.874
G1 F1200 X136.385 Y110.929 E114.27743
G0 F6000 X136.385 Y110.363
G1 F1200 X116.896 Y90.874 E115.56081
G0 F6000 X117.461 Y90.874
G1 F1200 X136.385 Y109.798 E116.80699
G0 F6000 X136.385 Y109.232
G1 F1200 X118.027 Y90.874 E118.01589
G0 F6000 X118.593 Y90.874
G1 F1200 X136.385 Y108.666 E119.18753
G0 F6000 X136.385 Y108.101
G1 F1200 X119.158 Y90.874 E120.32196
G0 F6000 X119.724 Y90.874
G1 F1200 X136.385 Y107.535 E121.41911
G0 F6000 X136.385 Y106.969
G1 F1200 X120.29 Y90.874 E122.47899
G0 F6000 X120.855 Y90.874
G1 F1200 X136.385 Y106.404 E123.50167
G0 F6000 X136.385 Y105.838
G1 F1200 X121.421 Y90.874 E124.48708
G0 F6000 X121.987 Y90.874
G1 F1200 X136.385 Y105.272 E125.43521
G0 F6000 X136.385 Y104.706
G1 F1200 X122.552 Y90.874 E126.3461
G0 F6000 X123.118 Y90.874
G1 F1200 X136.385 Y104.141 E127.21976
G0 F6000 X136.385 Y103.575
G1 F1200 X123.684 Y90.874 E128.05614
G0 F6000 X124.249 Y90.874
G1 F1200 X136.385 Y103.009 E128.85528
G0 F6000 X136.385 Y102.444
G1 F1200 X124.815 Y90.874 E129.61719
G0 F6000 X125.381 Y90.874
G1 F1200 X136.385 Y101.878 E130.34182
G0 F6000 X136.385 Y101.312
G1 F1200 X125.947 Y90.874 E131.02918
G0 F6000 X126.512 Y90.874
G1 F1200 X136.385 Y100.747 E131.67933
G0 F6000 X136.385 Y100.181
G1 F1200 X127.078 Y90.874 E132.29222
G0 F6000 X127.644 Y90.874
G1 F1200 X136.385 Y99.615 E132.86782
G0 F6000 X136.385 Y99.05
G1 F1200 X128.209 Y90.874 E133.40623
G0 F6000 X128.775 Y90.874
G1 F1200 X136.385 Y98.484 E133.90736
G0 F6000 X136.385 Y97.918
G1 F1200 X129.341 Y90.874 E134.37122
G0 F6000 X129.906 Y90.874
G1 F1200 X136.385 Y97.353 E134.79787
G0 F6000 X136.385 Y96.787
G1 F1200 X130.472 Y90.874 E135.18725
G0 F6000 X131.038 Y90.874
G1 F1200 X136.385 Y96.221 E135.53936
G0 F6000 X136.385 Y95.655
G1 F1200 X131.603 Y90.874 E135.85423
G0 F6000 X132.169 Y90.874
G1 F1200 X136.385 Y95.09 E136.13186
G0 F6000 X136.385 Y94.524
G1 F1200 X132.735 Y90.874 E136.37222
G0 F6000 X133.3 Y90.874
G1 F1200 X136.385 Y93.958 E136.57534
G0 F6000 X136.385 Y93.393
G1 F1200 X133.866 Y90.874 E136.74122
G0 F6000 X134.432 Y90.874
G1 F1200 X136.385 Y92.827 E136.86983
G0 F6000 X136.385 Y92.261
G1 F1200 X134.997 Y90.874 E136.9612
G0 F6000 X135.563 Y90.874
G1 F1200 X136.385 Y91.696 E137.01533
G0 F6000 X136.385 Y91.13
M104 S200
G1 F1200 X136.129 Y90.874 E137.03219
G1 F1500 E130.53219
;MESH:NONMESH
G0 F300 X136.129 Y90.874 Z0.56
G0 F6000 X136.129 Y90.414
G0 X114.08 Y90.486
G0 X113.728 Y128.125
G0 X112.643 Y128.125
G0 X105.37 Y129.686
;TIME_ELAPSED:162.606246
;LAYER:1
M106 S85
;TYPE:WALL-INNER
;MESH:fox mold.stl
