;FLAVOR:Marlin
;TIME:2818
;Filament used: 0.941863m
;Layer height: 0.2
;MINX:84.008
;MINY:84.008
;MINZ:0.2
;MAXX:135.992
;MAXY:135.992
;MAXZ:14
;Generated with Cura_SteamEngine main
M82 ;absolute extrusion mode
; Ender 3 Custom Start G-code
G92 E0 ; Reset Extruder
G28 ; Home all axes
M104 S175 ; Start heating up the nozzle most of the way
M190 S60 ; Start heating the bed, wait until target temperature reached
M109 S200 ; Finish heating the nozzle
G1 Z2.0 F3000 ; Move Z Axis up little to prevent scratching of Heat Bed
G1 X0.1 Y20 Z0.3 F5000.0 ; Move to start position
G1 X0.1 Y200.0 Z0.3 F1500.0 E15 ; Draw the first line
G1 X0.4 Y200.0 Z0.3 F5000.0 ; Move to side a little
G1 X0.4 Y20 Z0.3 F1500.0 E30 ; Draw the second line
G92 E0 ; Reset Extruder
G1 Z2.0 F3000 ; Move Z Axis up little to prevent scratching of Heat Bed
G1 X5 Y20 Z0.3 F5000.0 ; Move over to prevent blob squish
G92 E0
G92 E0
G1 F1500 E-6.5
;LAYER_COUNT:70
;LAYER:0
M107
G0 F6000 X91.636 Y91.607 Z0.2
G0 X84.008 Y109.864
;TYPE:SKIRT
G1 F1500 E0
G1 F1200 X84.016 Y109.342 E0.01736
G1 X84.042 Y108.671 E0.0397
G1 X84.07 Y108.204 E0.05526
G1 X84.124 Y107.541 E0.07738
G1 X84.181 Y107.01 E0.09515
G1 X84.275 Y106.29 E0.1193
G1 X84.351 Y105.795 E0.13595
G1 X84.472 Y105.112 E0.15902
G1 X84.577 Y104.589 E0.17677
G1 X84.735 Y103.895 E0.20044
G1 X84.87 Y103.367 E0.21856
G1 X85.082 Y102.611 E0.24468
G1 X85.234 Y102.113 E0.262
G1 X85.442 Y101.487 E0.28394
G1 X85.608 Y101.023 E0.30033
G1 X85.866 Y100.349 E0.32433
G1 X86.099 Y99.787 E0.34457
G1 X86.428 Y99.052 E0.37135
G1 X86.639 Y98.608 E0.3877
G1 X86.956 Y97.977 E0.41119
G1 X87.223 Y97.478 E0.43001
G1 X87.542 Y96.917 E0.45147
G1 X87.794 Y96.495 E0.46782
G1 X88.188 Y95.869 E0.49242
G1 X88.495 Y95.403 E0.51098
G1 X89.147 Y94.487 E0.54838
G1 X89.464 Y94.069 E0.56583
G1 X89.857 Y93.575 E0.58682
G1 X90.21 Y93.153 E0.60512
G1 X90.808 Y92.474 E0.63522
G1 X91.205 Y92.047 E0.65461
G1 X91.636 Y91.607 E0.67509
G1 X91.988 Y91.262 E0.69149
G1 X92.528 Y90.758 E0.71606
G1 X92.941 Y90.393 E0.73439
G1 X93.536 Y89.891 E0.76028
G1 X93.992 Y89.526 E0.77971
G1 X94.629 Y89.044 E0.80628
G1 X95.126 Y88.689 E0.82659
G1 X95.902 Y88.167 E0.8577
G1 X96.394 Y87.855 E0.87707
G1 X96.882 Y87.563 E0.89599
G1 X97.313 Y87.318 E0.91248
G1 X98.063 Y86.914 E0.94081
G1 X98.587 Y86.649 E0.96034
G1 X99.223 Y86.349 E0.98373
G1 X99.742 Y86.12 E1.0026
G1 X100.576 Y85.778 E1.03258
G1 X101.119 Y85.573 E1.05188
G1 X101.708 Y85.367 E1.07264
G1 X102.219 Y85.202 E1.0905
G1 X103.01 Y84.968 E1.11793
G1 X103.528 Y84.828 E1.13578
G1 X104.214 Y84.661 E1.15926
G1 X104.722 Y84.55 E1.17656
G1 X105.408 Y84.417 E1.1998
G1 X105.936 Y84.328 E1.21761
G1 X106.638 Y84.227 E1.2412
G1 X107.138 Y84.167 E1.25795
G1 X107.826 Y84.1 E1.28094
G1 X108.323 Y84.063 E1.29751
G1 X108.979 Y84.029 E1.31936
G1 X109.452 Y84.014 E1.3351
G1 X110.136 Y84.008 E1.35785
G1 X110.657 Y84.016 E1.37518
G1 X111.329 Y84.042 E1.39755
G1 X111.8 Y84.071 E1.41324
G1 X112.461 Y84.125 E1.4353
G1 X112.987 Y84.18 E1.45289
G1 X113.708 Y84.274 E1.47708
G1 X114.205 Y84.351 E1.4938
G1 X114.888 Y84.472 E1.51687
G1 X115.411 Y84.577 E1.53462
G1 X116.105 Y84.735 E1.55829
G1 X116.637 Y84.871 E1.57655
G1 X117.392 Y85.083 E1.60264
G1 X117.877 Y85.231 E1.6195
G1 X118.505 Y85.439 E1.6415
G1 X118.984 Y85.61 E1.65842
G1 X119.657 Y85.868 E1.68239
G1 X120.213 Y86.099 E1.70242
G1 X120.948 Y86.428 E1.7292
G1 X121.392 Y86.639 E1.74555
G1 X122.023 Y86.956 E1.76904
G1 X122.522 Y87.223 E1.78786
G1 X123.083 Y87.542 E1.80933
G1 X123.505 Y87.794 E1.82567
G1 X124.131 Y88.188 E1.85028
G1 X124.597 Y88.495 E1.86884
G1 X125.375 Y89.045 E1.90053
G1 X125.798 Y89.362 E1.91811
G1 X126.39 Y89.829 E1.94319
G1 X126.85 Y90.212 E1.9631
G1 X127.515 Y90.798 E1.99258
G1 X127.924 Y91.178 E2.01114
G1 X128.378 Y91.621 E2.03224
G1 X128.731 Y91.981 E2.04901
G1 X129.235 Y92.52 E2.07355
G1 X129.613 Y92.947 E2.09252
G1 X130.115 Y93.543 E2.11844
G1 X130.477 Y93.993 E2.13765
G1 X131.173 Y94.928 E2.17642
G1 X131.479 Y95.367 E2.19422
G1 X131.877 Y95.968 E2.21819
G1 X132.145 Y96.394 E2.23493
G1 X132.428 Y96.867 E2.25326
G1 X132.668 Y97.289 E2.26941
G1 X133.081 Y98.054 E2.29832
G1 X133.348 Y98.581 E2.31797
G1 X133.648 Y99.216 E2.34133
G1 X133.881 Y99.746 E2.36059
G1 X134.223 Y100.581 E2.3906
G1 X134.427 Y101.119 E2.40974
G1 X134.633 Y101.708 E2.43049
G1 X134.798 Y102.219 E2.44835
G1 X135.032 Y103.01 E2.47579
G1 X135.172 Y103.528 E2.49363
G1 X135.339 Y104.214 E2.51712
G1 X135.45 Y104.722 E2.53441
G1 X135.583 Y105.408 E2.55765
G1 X135.671 Y105.931 E2.57529
G1 X135.772 Y106.631 E2.59882
G1 X135.834 Y107.139 E2.61584
G1 X135.901 Y107.829 E2.63889
G1 X135.937 Y108.317 E2.65517
G1 X135.971 Y108.967 E2.67682
G1 X135.986 Y109.444 E2.69269
G1 X135.992 Y110.117 E2.71508
G1 X135.985 Y110.613 E2.73157
G1 X135.962 Y111.249 E2.75274
G1 X135.933 Y111.737 E2.769
G1 X135.875 Y112.455 E2.79296
G1 X135.82 Y112.984 E2.81065
G1 X135.727 Y113.701 E2.8347
G1 X135.649 Y114.205 E2.85166
G1 X135.528 Y114.888 E2.87473
G1 X135.423 Y115.411 E2.89247
G1 X135.265 Y116.105 E2.91615
G1 X135.13 Y116.633 E2.93427
G1 X134.918 Y117.389 E2.96039
G1 X134.766 Y117.887 E2.9777
G1 X134.558 Y118.513 E2.99964
G1 X134.392 Y118.977 E3.01603
G1 X134.134 Y119.651 E3.04004
G1 X133.901 Y120.212 E3.06024
G1 X133.577 Y120.936 E3.08662
G1 X133.37 Y121.375 E3.10277
G1 X133.048 Y122.017 E3.12666
G1 X132.777 Y122.522 E3.14572
G1 X132.458 Y123.083 E3.16718
G1 X132.206 Y123.505 E3.18353
G1 X131.812 Y124.131 E3.20813
G1 X131.505 Y124.597 E3.22669
G1 X130.955 Y125.375 E3.25838
G1 X130.638 Y125.798 E3.27596
G1 X130.171 Y126.39 E3.30104
G1 X129.79 Y126.847 E3.32083
G1 X129.192 Y127.526 E3.35092
G1 X128.795 Y127.953 E3.37032
G1 X128.364 Y128.393 E3.3908
G1 X128.012 Y128.738 E3.4072
G1 X127.472 Y129.242 E3.43176
G1 X127.059 Y129.607 E3.4501
G1 X126.464 Y130.109 E3.47599
G1 X126.008 Y130.474 E3.49541
G1 X125.371 Y130.956 E3.52198
G1 X124.874 Y131.311 E3.5423
G1 X124.098 Y131.833 E3.5734
G1 X123.606 Y132.145 E3.59278
G1 X123.118 Y132.437 E3.61169
G1 X122.668 Y132.692 E3.6289
G1 X121.866 Y133.122 E3.65916
G1 X121.275 Y133.417 E3.68113
G1 X120.514 Y133.768 E3.70901
G1 X120.022 Y133.98 E3.72683
G1 X119.365 Y134.245 E3.75039
G1 X118.881 Y134.427 E3.76759
G1 X118.292 Y134.633 E3.78834
G1 X117.781 Y134.798 E3.8062
G1 X116.99 Y135.032 E3.83364
G1 X116.472 Y135.172 E3.85148
G1 X115.786 Y135.339 E3.87497
G1 X115.278 Y135.45 E3.89226
G1 X114.592 Y135.583 E3.9155
G1 X114.064 Y135.672 E3.93331
G1 X113.362 Y135.773 E3.9569
G1 X112.862 Y135.833 E3.97365
G1 X112.174 Y135.9 E3.99664
G1 X111.677 Y135.937 E4.01322
G1 X111.021 Y135.971 E4.03507
G1 X110.548 Y135.986 E4.05081
G1 X109.864 Y135.992 E4.07356
G1 X109.342 Y135.984 E4.09092
G1 X108.671 Y135.958 E4.11325
G1 X108.204 Y135.93 E4.12881
G1 X107.541 Y135.876 E4.15094
G1 X107.01 Y135.819 E4.1687
G1 X106.29 Y135.725 E4.19285
G1 X105.795 Y135.649 E4.20951
G1 X105.112 Y135.528 E4.23258
G1 X104.589 Y135.423 E4.25032
G1 X103.895 Y135.265 E4.27399
G1 X103.367 Y135.13 E4.29212
G1 X102.611 Y134.918 E4.31824
G1 X102.113 Y134.766 E4.33555
G1 X101.487 Y134.558 E4.35749
G1 X101.023 Y134.392 E4.37388
G1 X100.349 Y134.134 E4.39789
G1 X99.787 Y133.901 E4.41812
G1 X99.052 Y133.572 E4.44491
G1 X98.608 Y133.361 E4.46126
G1 X97.977 Y133.044 E4.48474
G1 X97.478 Y132.777 E4.50357
G1 X96.917 Y132.458 E4.52503
G1 X96.495 Y132.206 E4.54138
G1 X95.869 Y131.812 E4.56598
G1 X95.375 Y131.486 E4.58567
G1 X94.49 Y130.855 E4.62182
G1 X94.069 Y130.536 E4.63939
G1 X93.575 Y130.143 E4.66038
G1 X93.152 Y129.789 E4.67873
G1 X92.472 Y129.19 E4.70887
G1 X92.046 Y128.794 E4.72821
G1 X91.607 Y128.364 E4.74865
G1 X91.262 Y128.012 E4.76504
G1 X90.758 Y127.472 E4.78961
G1 X90.388 Y127.054 E4.80818
G1 X89.874 Y126.444 E4.83471
G1 X89.509 Y125.99 E4.85408
G1 X88.817 Y125.057 E4.89272
G1 X88.52 Y124.631 E4.90999
G1 X88.125 Y124.035 E4.93377
G1 X87.855 Y123.606 E4.95063
G1 X87.563 Y123.118 E4.96955
G1 X87.318 Y122.687 E4.98604
G1 X86.914 Y121.937 E5.01437
G1 X86.649 Y121.413 E5.0339
G1 X86.349 Y120.777 E5.05729
G1 X86.12 Y120.258 E5.07616
G1 X85.778 Y119.424 E5.10614
G1 X85.573 Y118.881 E5.12544
G1 X85.367 Y118.292 E5.1462
G1 X85.198 Y117.769 E5.16448
G1 X84.955 Y116.944 E5.19308
G1 X84.816 Y116.427 E5.21089
G1 X84.658 Y115.775 E5.2332
G1 X84.55 Y115.278 E5.25012
G1 X84.417 Y114.592 E5.27336
G1 X84.328 Y114.064 E5.29117
G1 X84.227 Y113.362 E5.31476
G1 X84.167 Y112.862 E5.33151
G1 X84.1 Y112.174 E5.3545
G1 X84.063 Y111.679 E5.37101
G1 X84.029 Y111.025 E5.39279
G1 X84.014 Y110.55 E5.4086
G1 X84.008 Y109.864 E5.43141
G0 F6000 X84.408 Y109.861
G1 F1200 X84.416 Y109.358 E5.44815
G1 X84.442 Y108.687 E5.47048
G1 X84.469 Y108.237 E5.48547
G1 X84.523 Y107.574 E5.5076
G1 X84.577 Y107.062 E5.52472
G1 X84.671 Y106.342 E5.54887
G1 X84.745 Y105.865 E5.56493
G1 X84.866 Y105.182 E5.588
G1 X84.967 Y104.678 E5.60509
G1 X85.125 Y103.984 E5.62877
G1 X85.255 Y103.475 E5.64624
G1 X85.467 Y102.719 E5.67235
G1 X85.614 Y102.239 E5.68905
G1 X85.822 Y101.613 E5.71099
G1 X85.981 Y101.166 E5.72677
G1 X86.239 Y100.492 E5.75077
G1 X86.464 Y99.95 E5.77029
G1 X86.793 Y99.215 E5.79708
G1 X86.996 Y98.788 E5.8128
G1 X87.313 Y98.157 E5.83629
G1 X87.571 Y97.675 E5.85447
G1 X87.89 Y97.114 E5.87594
G1 X88.133 Y96.708 E5.89167
G1 X88.527 Y96.082 E5.91628
G1 X88.828 Y95.625 E5.93448
G1 X89.471 Y94.721 E5.97137
G1 X89.777 Y94.318 E5.9882
G1 X90.17 Y93.824 E6.0092
G1 X90.51 Y93.417 E6.02684
G1 X91.108 Y92.738 E6.05693
G1 X91.491 Y92.327 E6.07562
G1 X91.922 Y91.887 E6.0961
G1 X92.261 Y91.555 E6.11188
G1 X92.801 Y91.051 E6.13645
G1 X93.199 Y90.698 E6.15415
G1 X93.794 Y90.196 E6.18004
G1 X94.233 Y89.845 E6.19873
G1 X94.87 Y89.363 E6.2253
G1 X95.35 Y89.021 E6.2449
G1 X96.126 Y88.499 E6.27601
G1 X96.599 Y88.198 E6.29466
G1 X97.087 Y87.906 E6.31357
G1 X97.503 Y87.67 E6.32948
G1 X98.253 Y87.266 E6.35781
G1 X98.758 Y87.011 E6.37663
G1 X99.394 Y86.711 E6.40002
G1 X99.894 Y86.491 E6.41819
G1 X100.728 Y86.149 E6.44817
G1 X101.251 Y85.95 E6.46678
G1 X101.84 Y85.744 E6.48753
G1 X102.332 Y85.585 E6.50473
G1 X103.123 Y85.351 E6.53217
G1 X103.623 Y85.217 E6.54938
G1 X104.309 Y85.05 E6.57287
G1 X104.798 Y84.943 E6.58952
G1 X105.484 Y84.81 E6.61276
G1 X105.992 Y84.724 E6.62989
G1 X106.694 Y84.623 E6.65348
G1 X107.177 Y84.565 E6.66966
G1 X107.865 Y84.498 E6.69265
G1 X108.343 Y84.462 E6.7086
G1 X108.999 Y84.428 E6.73045
G1 X109.455 Y84.414 E6.74562
G1 X110.139 Y84.408 E6.76837
G1 X110.642 Y84.416 E6.7851
G1 X111.314 Y84.442 E6.80747
G1 X111.767 Y84.469 E6.82256
G1 X112.428 Y84.523 E6.84462
G1 X112.935 Y84.577 E6.86158
G1 X113.656 Y84.671 E6.88576
G1 X114.135 Y84.745 E6.90188
G1 X114.818 Y84.866 E6.92495
G1 X115.322 Y84.967 E6.94205
G1 X116.016 Y85.125 E6.96572
G1 X116.529 Y85.256 E6.98333
G1 X117.284 Y85.468 E7.00942
G1 X117.751 Y85.611 E7.02566
G1 X118.379 Y85.819 E7.04766
G1 X118.84 Y85.983 E7.06394
G1 X119.513 Y86.241 E7.08791
G1 X120.05 Y86.464 E7.10725
G1 X120.785 Y86.793 E7.13403
G1 X121.212 Y86.996 E7.14976
G1 X121.843 Y87.313 E7.17325
G1 X122.325 Y87.571 E7.19143
G1 X122.886 Y87.89 E7.21289
G1 X123.292 Y88.133 E7.22863
G1 X123.918 Y88.527 E7.25323
G1 X124.375 Y88.828 E7.27143
G1 X125.143 Y89.37 E7.3027
G1 X125.55 Y89.676 E7.31963
G1 X126.142 Y90.143 E7.34471
G1 X126.585 Y90.512 E7.36389
G1 X127.25 Y91.098 E7.39337
G1 X127.645 Y91.464 E7.41128
G1 X128.099 Y91.907 E7.43238
G1 X128.438 Y92.254 E7.44851
G1 X128.942 Y92.793 E7.47306
G1 X129.307 Y93.204 E7.49134
G1 X129.809 Y93.8 E7.51726
G1 X130.163 Y94.24 E7.53604
G1 X130.85 Y95.165 E7.57436
G1 X131.146 Y95.588 E7.59153
G1 X131.544 Y96.189 E7.61551
G1 X131.802 Y96.6 E7.63165
G1 X132.085 Y97.073 E7.64998
G1 X132.317 Y97.479 E7.66553
G1 X132.73 Y98.244 E7.69445
G1 X132.986 Y98.752 E7.71337
G1 X133.286 Y99.387 E7.73673
G1 X133.511 Y99.897 E7.75527
G1 X133.853 Y100.732 E7.78528
G1 X134.05 Y101.251 E7.80374
G1 X134.256 Y101.84 E7.8245
G1 X134.415 Y102.332 E7.84169
G1 X134.649 Y103.123 E7.86913
G1 X134.783 Y103.623 E7.88635
G1 X134.95 Y104.309 E7.90983
G1 X135.057 Y104.798 E7.92648
G1 X135.19 Y105.484 E7.94972
G1 X135.275 Y105.988 E7.96672
G1 X135.376 Y106.688 E7.99024
G1 X135.435 Y107.178 E8.00666
G1 X135.502 Y107.868 E8.02972
G1 X135.538 Y108.338 E8.04539
G1 X135.572 Y108.988 E8.06704
G1 X135.586 Y109.448 E8.08235
G1 X135.592 Y110.121 E8.10473
G1 X135.585 Y110.598 E8.1206
G1 X135.562 Y111.234 E8.14177
G1 X135.535 Y111.704 E8.15743
G1 X135.477 Y112.422 E8.18138
G1 X135.423 Y112.932 E8.19844
G1 X135.33 Y113.649 E8.22249
G1 X135.255 Y114.135 E8.23884
G1 X135.134 Y114.818 E8.26192
G1 X135.033 Y115.322 E8.27901
G1 X134.875 Y116.016 E8.30268
G1 X134.745 Y116.525 E8.32016
G1 X134.533 Y117.281 E8.34627
G1 X134.386 Y117.761 E8.36297
G1 X134.178 Y118.387 E8.38491
G1 X134.019 Y118.834 E8.40069
G1 X133.761 Y119.508 E8.42469
G1 X133.536 Y120.049 E8.44418
G1 X133.212 Y120.773 E8.47056
G1 X133.012 Y121.195 E8.48609
G1 X132.69 Y121.837 E8.50998
G1 X132.429 Y122.325 E8.52839
G1 X132.11 Y122.886 E8.54985
G1 X131.867 Y123.292 E8.56559
G1 X131.473 Y123.918 E8.59019
G1 X131.172 Y124.375 E8.60839
G1 X130.63 Y125.143 E8.63966
G1 X130.324 Y125.55 E8.65659
G1 X129.857 Y126.142 E8.68167
G1 X129.49 Y126.583 E8.70076
G1 X128.892 Y127.262 E8.73085
G1 X128.509 Y127.673 E8.74953
G1 X128.078 Y128.113 E8.77002
G1 X127.739 Y128.445 E8.7858
G1 X127.199 Y128.949 E8.81037
G1 X126.801 Y129.302 E8.82806
G1 X126.206 Y129.804 E8.85396
G1 X125.767 Y130.155 E8.87265
G1 X125.13 Y130.637 E8.89922
G1 X124.65 Y130.979 E8.91882
G1 X123.874 Y131.501 E8.94993
G1 X123.401 Y131.802 E8.96857
G1 X122.913 Y132.094 E8.98749
G1 X122.479 Y132.34 E9.00408
G1 X121.677 Y132.77 E9.03435
G1 X121.108 Y133.053 E9.05549
G1 X120.347 Y133.404 E9.08336
G1 X119.872 Y133.609 E9.10057
G1 X119.215 Y133.874 E9.12413
G1 X118.749 Y134.05 E9.1407
G1 X118.16 Y134.256 E9.16145
G1 X117.668 Y134.415 E9.17865
G1 X116.877 Y134.649 E9.20608
G1 X116.377 Y134.783 E9.2233
G1 X115.691 Y134.95 E9.24678
G1 X115.202 Y135.057 E9.26343
G1 X114.516 Y135.19 E9.28667
G1 X114.008 Y135.276 E9.30381
G1 X113.306 Y135.377 E9.3274
G1 X112.823 Y135.435 E9.34358
G1 X112.135 Y135.502 E9.36657
G1 X111.657 Y135.538 E9.38251
G1 X111.001 Y135.572 E9.40436
G1 X110.545 Y135.586 E9.41954
G1 X109.861 Y135.592 E9.44229
G1 X109.358 Y135.584 E9.45902
G1 X108.687 Y135.558 E9.48135
G1 X108.237 Y135.531 E9.49635
G1 X107.574 Y135.477 E9.51847
G1 X107.062 Y135.423 E9.53559
G1 X106.342 Y135.329 E9.55974
G1 X105.865 Y135.255 E9.5758
G1 X105.182 Y135.134 E9.59887
G1 X104.678 Y135.033 E9.61597
G1 X103.984 Y134.875 E9.63964
G1 X103.475 Y134.745 E9.65711
G1 X102.719 Y134.533 E9.68323
G1 X102.239 Y134.386 E9.69992
G1 X101.613 Y134.178 E9.72186
G1 X101.166 Y134.019 E9.73764
G1 X100.492 Y133.761 E9.76165
G1 X99.95 Y133.536 E9.78117
G1 X99.215 Y133.207 E9.80795
G1 X98.788 Y133.004 E9.82367
G1 X98.157 Y132.687 E9.84716
G1 X97.675 Y132.429 E9.86535
G1 X97.114 Y132.11 E9.88681
G1 X96.708 Y131.867 E9.90255
G1 X96.082 Y131.473 E9.92715
G1 X95.599 Y131.154 E9.9464
G1 X94.723 Y130.53 E9.98217
G1 X94.318 Y130.223 E9.99908
G1 X93.824 Y129.83 E10.02007
G1 X93.416 Y129.489 E10.03776
G1 X92.736 Y128.89 E10.0679
G1 X92.326 Y128.509 E10.08651
G1 X91.887 Y128.079 E10.10695
G1 X91.555 Y127.739 E10.12276
G1 X91.051 Y127.199 E10.14733
G1 X90.694 Y126.796 E10.16523
G1 X90.18 Y126.186 E10.19176
G1 X89.823 Y125.742 E10.21071
G1 X89.14 Y124.821 E10.24885
G1 X88.853 Y124.41 E10.26552
G1 X88.458 Y123.814 E10.2893
G1 X88.198 Y123.401 E10.30553
G1 X87.906 Y122.913 E10.32445
G1 X87.67 Y122.497 E10.34036
G1 X87.266 Y121.747 E10.36869
G1 X87.011 Y121.242 E10.38751
G1 X86.711 Y120.606 E10.4109
G1 X86.491 Y120.106 E10.42906
G1 X86.149 Y119.272 E10.45905
G1 X85.95 Y118.749 E10.47766
G1 X85.744 Y118.16 E10.49841
G1 X85.582 Y117.656 E10.51602
G1 X85.339 Y116.831 E10.54462
G1 X85.205 Y116.332 E10.56181
G1 X85.047 Y115.68 E10.58412
G1 X84.943 Y115.202 E10.60039
G1 X84.81 Y114.516 E10.62363
G1 X84.724 Y114.008 E10.64077
G1 X84.623 Y113.306 E10.66436
G1 X84.565 Y112.823 E10.68054
G1 X84.498 Y112.135 E10.70353
G1 X84.462 Y111.658 E10.71944
G1 X84.428 Y111.004 E10.74122
G1 X84.414 Y110.547 E10.75643
G1 X84.408 Y109.861 E10.77925
G0 F6000 X84.808 Y109.857
G1 F1200 X84.816 Y109.373 E10.79535
