;FLAVOR:Marlin
;TIME:3634
;Filament used: 1.45598m
;Layer height: 0.12
;MINX:83.206
;MINY:50.5
;MINZ:0.12
;MAXX:136.777
;MAXY:164.512
;MAXZ:30
;Generated with Cura_SteamEngine main
M82 ;absolute extrusion mode
; Ender 3 Custom Start G-code
G92 E0 ; Reset Extruder
G28 ; Home all axes
M104 S175 ; Start heating up the nozzle most of the way
M190 S60 ; Start heating the bed, wait until target temperature reached
M109 S200 ; Finish heating the nozzle
G1 Z2.0 F3000 ; Move Z Axis up little to prevent scratching of Heat Bed
G1 X0.1 Y20 Z0.3 F5000.0 ; Move to start position
G1 X0.1 Y200.0 Z0.3 F1500.0 E15 ; Draw the first line
G1 X0.4 Y200.0 Z0.3 F5000.0 ; Move to side a little
G1 X0.4 Y20 Z0.3 F1500.0 E30 ; Draw the second line
G92 E0 ; Reset Extruder
G1 Z2.0 F3000 ; Move Z Axis up little to prevent scratching of Heat Bed
G1 X5 Y20 Z0.3 F5000.0 ; Move over to prevent blob squish
G92 E0
G92 E0
G1 F1500 E-6.5
;LAYER_COUNT:250
;LAYER:0
M107
G0 F6000 X88.35 Y61.802 Z0.12
G0 X83.61 Y76.782
;TYPE:SKIRT
G1 F1500 E0
G1 F1200 X83.626 Y75.992 E0.01577
G1 X83.662 Y75.254 E0.03051
G1 X83.713 Y74.551 E0.04458
G1 X83.76 Y74.09 E0.05383
G1 X83.849 Y73.363 E0.06844
G1 X83.954 Y72.642 E0.08298
G1 X84.032 Y72.191 E0.09212
G1 X84.166 Y71.505 E0.10607
G1 X84.339 Y70.728 E0.12195
G1 X84.618 Y69.671 E0.14377
G1 X84.842 Y68.919 E0.15943
G1 X84.975 Y68.517 E0.16788
G1 X85.303 Y67.591 E0.18748
G1 X85.603 Y66.833 E0.20375
G1 X85.907 Y66.127 E0.21909
G1 X86.178 Y65.533 E0.23212
G1 X86.378 Y65.126 E0.24117
G1 X86.722 Y64.46 E0.25613
G1 X87.04 Y63.877 E0.26938
G1 X87.281 Y63.464 E0.27892
G1 X87.684 Y62.808 E0.29429
G1 X88.071 Y62.208 E0.30853
G1 X88.35 Y61.802 E0.31836
G1 X88.752 Y61.254 E0.33193
G1 X89.709 Y60.022 E0.36306
G1 X90.132 Y59.521 E0.37614
G1 X90.7 Y58.892 E0.39306
G1 X91.164 Y58.407 E0.40645
G1 X91.744 Y57.832 E0.42275
G1 X92.521 Y57.119 E0.4438
G1 X93.063 Y56.651 E0.45809
G1 X93.691 Y56.146 E0.47417
G1 X94.036 Y55.885 E0.4828
G1 X94.962 Y55.213 E0.50563
G1 X95.419 Y54.899 E0.5167
G1 X95.964 Y54.544 E0.52968
G1 X96.464 Y54.237 E0.54139
G1 X97.087 Y53.877 E0.55575
G1 X97.747 Y53.517 E0.57075
G1 X98.146 Y53.313 E0.57969
G1 X98.781 Y53.005 E0.59378
G1 X99.558 Y52.654 E0.61079
G1 X100.553 Y52.251 E0.63221
G1 X101.195 Y52.012 E0.64588
G1 X101.66 Y51.854 E0.65569
G1 X102.389 Y51.624 E0.67094
G1 X102.932 Y51.464 E0.68224
G1 X103.405 Y51.338 E0.69201
G1 X104.164 Y51.155 E0.70759
G1 X104.865 Y51.004 E0.7219
G1 X105.317 Y50.92 E0.73107
G1 X106.028 Y50.803 E0.74545
G1 X106.756 Y50.7 E0.76012
G1 X107.191 Y50.651 E0.76886
G1 X107.874 Y50.587 E0.78255
G1 X108.694 Y50.532 E0.79895
G1 X109.094 Y50.517 E0.80694
G1 X110.069 Y50.5 E0.8264
G1 X110.886 Y50.516 E0.8427
G1 X111.618 Y50.551 E0.85733
G1 X112.352 Y50.604 E0.87202
G1 X112.8 Y50.65 E0.881
G1 X113.527 Y50.739 E0.89562
G1 X114.248 Y50.844 E0.91016
G1 X114.698 Y50.922 E0.91927
G1 X115.369 Y51.053 E0.93292
G1 X116.15 Y51.227 E0.94888
G1 X116.557 Y51.329 E0.95726
G1 X117.228 Y51.511 E0.97113
G1 X117.766 Y51.668 E0.98232
G1 X118.228 Y51.817 E0.992
G1 X118.989 Y52.081 E1.00808
G1 X119.637 Y52.322 E1.02188
G1 X120.085 Y52.504 E1.03152
G1 X120.79 Y52.809 E1.04685
G1 X121.322 Y53.052 E1.05853
G1 X121.742 Y53.257 E1.06785
G1 X122.396 Y53.594 E1.08253
G1 X123.125 Y53.995 E1.09914
G1 X124.059 Y54.559 E1.12091
G1 X124.696 Y54.971 E1.13605
G1 X125.094 Y55.244 E1.14568
G1 X125.638 Y55.643 E1.15915
G1 X126.853 Y56.587 E1.18985
G1 X127.349 Y57.004 E1.20278
G1 X127.969 Y57.563 E1.21944
G1 X128.759 Y58.327 E1.24137
G1 X129.307 Y58.9 E1.2572
G1 X129.769 Y59.409 E1.27091
G1 X130.287 Y60.011 E1.28676
G1 X130.755 Y60.596 E1.30171
G1 X131.001 Y60.922 E1.30986
G1 X131.675 Y61.85 E1.33275
G1 X131.99 Y62.307 E1.34383
G1 X132.342 Y62.847 E1.35669
G1 X132.665 Y63.375 E1.36904
G1 X133.051 Y64.047 E1.38451
G1 X133.435 Y64.756 E1.4006
G1 X133.89 Y65.679 E1.42114
G1 X134.17 Y66.293 E1.4346
G1 X134.339 Y66.694 E1.44329
G1 X134.631 Y67.424 E1.45898
G1 X134.891 Y68.123 E1.47386
G1 X135.058 Y68.62 E1.48432
G1 X135.363 Y69.607 E1.50494
G1 X135.547 Y70.278 E1.51882
G1 X135.734 Y71.054 E1.53475
G1 X135.881 Y71.733 E1.54862
G1 X135.969 Y72.202 E1.55814
G1 X136.085 Y72.905 E1.57236
G1 X136.177 Y73.542 E1.5852
G1 X136.232 Y74.011 E1.59463
G1 X136.302 Y74.749 E1.60942
G1 X136.355 Y75.529 E1.62502
G1 X136.387 Y76.629 E1.64698
G1 X136.384 Y77.444 E1.66325
G1 X136.372 Y77.865 E1.67165
G1 X136.34 Y78.512 E1.68458
G1 X136.281 Y79.291 E1.70017
G1 X136.237 Y79.721 E1.70879
G1 X136.149 Y80.436 E1.72317
G1 X136.064 Y81.032 E1.73519
G1 X135.983 Y81.503 E1.74472
G1 X135.838 Y82.253 E1.75997
G1 X135.712 Y82.837 E1.77189
G1 X134.945 Y85.884 E1.83459
G1 X134.399 Y88.311 E1.88424
G1 X133.917 Y90.79 E1.93463
G1 X133.503 Y93.282 E1.98505
G1 X133.163 Y95.775 E2.03526
G1 X132.891 Y98.298 E2.0859
G1 X132.695 Y100.758 E2.13515
G1 X132.565 Y103.312 E2.18618
G1 X132.509 Y105.804 E2.23592
G1 X132.522 Y108.326 E2.28625
G1 X132.608 Y110.846 E2.33657
G1 X132.766 Y113.378 E2.3872
G1 X132.989 Y115.846 E2.43665
G1 X133.291 Y118.378 E2.48754
G1 X133.657 Y120.845 E2.53731
G1 X134.098 Y123.336 E2.58779
G1 X134.604 Y125.792 E2.63783
G1 X135.185 Y128.252 E2.68828
G1 X135.711 Y130.253 E2.72956
G1 X135.964 Y131.174 E2.74862
G1 X136.098 Y131.712 E2.75969
G1 X136.249 Y132.395 E2.77365
G1 X136.363 Y132.988 E2.7857
G1 X136.485 Y133.776 E2.80161
G1 X136.627 Y134.891 E2.82404
G1 X136.68 Y135.407 E2.83439
G1 X136.733 Y136.072 E2.84771
G1 X136.765 Y136.693 E2.86012
G1 X136.777 Y137.535 E2.87692
G1 X136.761 Y138.668 E2.89953
G1 X136.736 Y139.329 E2.91273
G1 X136.684 Y140.057 E2.9273
G1 X136.638 Y140.523 E2.93664
G1 X136.539 Y141.287 E2.95202
G1 X136.358 Y142.441 E2.97533
G1 X136.262 Y142.968 E2.98602
G1 X136.128 Y143.615 E2.9992
G1 X135.985 Y144.22 E3.01161
G1 X135.787 Y144.962 E3.02693
G1 X135.561 Y145.728 E3.04287
G1 X135.428 Y146.136 E3.05144
G1 X135.184 Y146.823 E3.06599
G1 X134.794 Y147.837 E3.08767
G1 X134.596 Y148.317 E3.09803
G1 X134.318 Y148.949 E3.11181
G1 X134.06 Y149.494 E3.12384
G1 X133.672 Y150.241 E3.14064
G1 X133.104 Y151.258 E3.16388
G1 X132.712 Y151.906 E3.179
G1 X132.105 Y152.836 E3.20116
G1 X131.654 Y153.476 E3.21678
G1 X130.979 Y154.365 E3.23906
G1 X130.487 Y154.967 E3.25458
G1 X129.758 Y155.798 E3.27664
G1 X129.28 Y156.317 E3.29072
G1 X129.001 Y156.604 E3.2987
G1 X128.45 Y157.141 E3.31406
G1 X127.866 Y157.671 E3.3298
G1 X126.998 Y158.415 E3.35261
G1 X126.387 Y158.902 E3.3682
G1 X125.511 Y159.551 E3.38996
G1 X124.881 Y159.984 E3.40521
G1 X123.93 Y160.591 E3.42773
G1 X123.275 Y160.978 E3.44291
G1 X121.938 Y161.699 E3.47323
G1 X121.339 Y161.992 E3.48653
G1 X120.586 Y162.329 E3.503
G1 X119.859 Y162.621 E3.51863
G1 X118.818 Y163.008 E3.54079
G1 X118.094 Y163.249 E3.55602
G1 X117.001 Y163.571 E3.57876
G1 X116.471 Y163.712 E3.5897
G1 X115.791 Y163.876 E3.60366
G1 X115.157 Y164.01 E3.6166
G1 X114.385 Y164.142 E3.63223
G1 X113.293 Y164.301 E3.65425
G1 X112.741 Y164.367 E3.66534
G1 X112.073 Y164.43 E3.67873
G1 X111.484 Y164.47 E3.69051
G1 X110.741 Y164.5 E3.70535
G1 X110.021 Y164.512 E3.71972
G1 X109.581 Y164.508 E3.7285
G1 X108.769 Y164.476 E3.74472
G1 X107.635 Y164.4 E3.7674
G1 X107.238 Y164.366 E3.77535
G1 X106.565 Y164.292 E3.78886
G1 X105.725 Y164.169 E3.80581
G1 X104.98 Y164.032 E3.82092
G1 X103.94 Y163.812 E3.84214
G1 X103.577 Y163.728 E3.84957
G1 X102.884 Y163.552 E3.86384
G1 X102.096 Y163.321 E3.88023
G1 X101.375 Y163.079 E3.8954
G1 X100.303 Y162.689 E3.91817
G1 X99.572 Y162.393 E3.93391
G1 X98.546 Y161.934 E3.95634
G1 X97.853 Y161.594 E3.97174
G1 X96.882 Y161.075 E3.99371
G1 X96.422 Y160.815 E4.00426
G1 X95.85 Y160.473 E4.01756
G1 X95.313 Y160.13 E4.03027
G1 X94.607 Y159.642 E4.0474
G1 X93.435 Y158.776 E4.07648
G1 X92.902 Y158.351 E4.09009
G1 X92.311 Y157.846 E4.1056
G1 X91.695 Y157.277 E4.12233
G1 X90.904 Y156.505 E4.14439
G1 X90.538 Y156.13 E4.15485
G1 X90.063 Y155.62 E4.16876
G1 X89.655 Y155.157 E4.18107
G1 X89.125 Y154.508 E4.19779
G1 X88.438 Y153.616 E4.22026
G1 X88.024 Y153.05 E4.23426
G1 X87.567 Y152.374 E4.25054
G1 X87.349 Y152.034 E4.2586
G1 X86.963 Y151.392 E4.27355
G1 X86.416 Y150.424 E4.29574
G1 X86.062 Y149.743 E4.31105
G1 X85.578 Y148.727 E4.33351
G1 X85.285 Y148.068 E4.3479
G1 X85.131 Y147.697 E4.35592
G1 X84.838 Y146.929 E4.37232
G1 X84.603 Y146.237 E4.38691
G1 X84.278 Y145.198 E4.40863
G1 X84.164 Y144.808 E4.41674
G1 X83.994 Y144.17 E4.42992
G1 X83.804 Y143.346 E4.44679
G1 X83.662 Y142.605 E4.46185
G1 X83.479 Y141.483 E4.48454
G1 X83.383 Y140.733 E4.49963
G1 X83.28 Y139.628 E4.52177
G1 X83.232 Y138.892 E4.53649
G1 X83.217 Y138.506 E4.5442
G1 X83.206 Y137.69 E4.56049
G1 X83.216 Y137.004 E4.57418
G1 X83.241 Y136.318 E4.58788
G1 X83.269 Y135.88 E4.59664
G1 X83.344 Y135.07 E4.61287
G1 X83.477 Y133.969 E4.635
G1 X83.597 Y133.207 E4.65039
G1 X83.813 Y132.086 E4.67318
G1 X83.952 Y131.441 E4.68634
G1 X84.053 Y131.03 E4.69479
G1 X84.787 Y128.27 E4.75178
G1 X85.365 Y125.826 E4.8019
G1 X85.871 Y123.383 E4.85169
G1 X86.32 Y120.864 E4.90275
G1 X86.686 Y118.406 E4.95234
G1 X86.987 Y115.904 E5.00263
G1 X87.217 Y113.39 E5.05301
G1 X87.376 Y110.876 E5.10328
G1 X87.462 Y108.39 E5.15292
G1 X87.478 Y105.829 E5.20403
G1 X87.424 Y103.342 E5.25367
G1 X87.296 Y100.811 E5.30425
G1 X87.102 Y98.338 E5.35375
G1 X86.831 Y95.8 E5.40469
G1 X86.494 Y93.319 E5.45465
G1 X86.08 Y90.811 E5.50538
G1 X85.602 Y88.345 E5.55551
G1 X85.063 Y85.926 E5.60496
G1 X84.44 Y83.45 E5.65592
G1 X84.262 Y82.71 E5.6711
G1 X84.12 Y82.052 E5.68454
G1 X84.033 Y81.589 E5.69394
G1 X83.912 Y80.854 E5.7088
G1 X83.811 Y80.139 E5.72321
G1 X83.761 Y79.699 E5.73205
G1 X83.696 Y79.005 E5.74596
G1 X83.645 Y78.265 E5.76076
G1 X83.629 Y77.85 E5.76905
G1 X83.61 Y76.782 E5.79037
G0 F6000 X84.01 Y76.786
G1 F1200 X84.026 Y76.012 E5.80582
G1 X84.062 Y75.274 E5.82056
G1 X84.112 Y74.583 E5.83439
G1 X84.157 Y74.139 E5.8433
G1 X84.288 Y73.102 E5.86415
G1 X84.425 Y72.268 E5.88102
G1 X84.559 Y71.582 E5.89497
G1 X84.729 Y70.818 E5.91059
G1 X85.004 Y69.776 E5.93209
G1 X85.225 Y69.037 E5.94749
G1 X85.352 Y68.65 E5.95562
G1 X85.579 Y68.002 E5.96932
G1 X85.8 Y67.411 E5.98191
G1 X85.97 Y66.991 E5.99095
G1 X86.274 Y66.285 E6.00629
G1 X86.541 Y65.702 E6.01909
G1 X86.733 Y65.31 E6.0278
G1 X87.23 Y64.357 E6.04925
G1 X87.622 Y63.673 E6.06498
G1 X88.025 Y63.017 E6.08034
G1 X88.406 Y62.427 E6.09436
G1 X88.674 Y62.036 E6.10382
G1 X89.069 Y61.498 E6.11714
G1 X89.775 Y60.581 E6.14023
G1 X90.017 Y60.278 E6.14797
G1 X90.432 Y59.786 E6.16082
G1 X90.989 Y59.168 E6.17742
G1 X91.453 Y58.683 E6.19082
G1 X92.023 Y58.119 E6.20682
G1 X92.79 Y57.415 E6.22759
G1 X93.323 Y56.955 E6.24164
G1 X93.938 Y56.461 E6.25739
G1 X94.271 Y56.209 E6.26572
G1 X95.197 Y55.537 E6.28855
G1 X95.638 Y55.234 E6.29923
G1 X96.183 Y54.879 E6.31221
G1 X96.665 Y54.583 E6.3235
G1 X97.288 Y54.223 E6.33786
G1 X97.936 Y53.869 E6.35259
G1 X98.321 Y53.673 E6.36121
G1 X98.956 Y53.365 E6.3753
G1 X99.719 Y53.02 E6.39201
G1 X100.7 Y52.623 E6.41313
G1 X101.332 Y52.388 E6.42658
G1 X101.781 Y52.235 E6.43605
G1 X102.51 Y52.005 E6.4513
G1 X103.043 Y51.848 E6.46239
G1 X103.498 Y51.727 E6.47179
G1 X104.257 Y51.544 E6.48737
G1 X104.947 Y51.396 E6.50145
G1 X105.382 Y51.315 E6.51028
G1 X106.093 Y51.198 E6.52466
G1 X106.809 Y51.097 E6.53909
G1 X107.228 Y51.049 E6.54751
G1 X107.911 Y50.985 E6.5612
G1 X108.717 Y50.932 E6.57732
G1 X109.754 Y50.902 E6.59802
G1 X110.445 Y50.903 E6.61181
G1 X110.867 Y50.915 E6.62023
G1 X111.599 Y50.95 E6.63486
G1 X112.32 Y51.003 E6.64929
G1 X112.751 Y51.047 E6.65793
G1 X113.788 Y51.178 E6.67879
G1 X114.621 Y51.314 E6.69563
G1 X115.292 Y51.445 E6.70928
G1 X116.061 Y51.616 E6.725
G1 X117.123 Y51.897 E6.74692
G1 X117.652 Y52.051 E6.75792
G1 X118.097 Y52.194 E6.76724
G1 X118.858 Y52.458 E6.78332
G1 X119.494 Y52.696 E6.79687
G1 X119.926 Y52.871 E6.80617
G1 X120.631 Y53.176 E6.8215
G1 X121.154 Y53.415 E6.83298
G1 X121.558 Y53.612 E6.84195
G1 X122.212 Y53.949 E6.85663
G1 X122.929 Y54.344 E6.87296
G1 X123.85 Y54.9 E6.89443
G1 X124.476 Y55.305 E6.90931
G1 X124.86 Y55.569 E6.91861
G1 X125.394 Y55.96 E6.93182
G1 X126.598 Y56.895 E6.96224
G1 X127.084 Y57.304 E6.97492
G1 X127.692 Y57.852 E6.99125
G1 X128.473 Y58.606 E7.01292
G1 X129.011 Y59.169 E7.02846
G1 X129.473 Y59.678 E7.04217
G1 X129.982 Y60.27 E7.05775
G1 X130.44 Y60.842 E7.07238
G1 X130.678 Y61.157 E7.08026
G1 X131.352 Y62.085 E7.10314
G1 X131.655 Y62.526 E7.11382
G1 X132.007 Y63.066 E7.12669
G1 X132.319 Y63.574 E7.13858
G1 X132.705 Y64.246 E7.15405
G1 X133.081 Y64.943 E7.16985
G1 X133.53 Y65.854 E7.19012
G1 X133.805 Y66.457 E7.20335
G1 X133.968 Y66.842 E7.21169
G1 X134.26 Y67.572 E7.22738
G1 X134.515 Y68.259 E7.242
G1 X134.675 Y68.738 E7.25208
G1 X134.98 Y69.725 E7.2727
G1 X135.158 Y70.372 E7.28609
G1 X135.345 Y71.148 E7.30202
G1 X135.49 Y71.815 E7.31564
G1 X135.575 Y72.267 E7.32482
G1 X135.691 Y72.97 E7.33904
G1 X135.781 Y73.597 E7.35168
G1 X135.834 Y74.049 E7.36076
G1 X135.904 Y74.787 E7.37555
G1 X135.956 Y75.553 E7.39087
G1 X135.987 Y76.638 E7.41254
G1 X135.984 Y77.44 E7.42854
G1 X135.94 Y78.493 E7.44957
G1 X135.882 Y79.257 E7.46486
G1 X135.84 Y79.672 E7.47319
G1 X135.752 Y80.387 E7.48756
G1 X135.668 Y80.973 E7.49938
G1 X135.59 Y81.427 E7.50857
G1 X135.383 Y82.476 E7.52991
G1 X135.253 Y83.041 E7.54148
G1 X134.551 Y85.812 E7.59852
G1 X134.003 Y88.251 E7.64841
G1 X133.523 Y90.719 E7.69858
G1 X133.106 Y93.228 E7.74934
G1 X132.767 Y95.71 E7.79933
G1 X132.496 Y98.228 E7.84987
G1 X132.293 Y100.775 E7.90086
G1 X132.166 Y103.283 E7.95097
G1 X132.109 Y105.764 E8.0005
G1 X132.122 Y108.341 E8.05193
G1 X132.209 Y110.885 E8.10272
G1 X132.363 Y113.368 E8.15237
G1 X132.595 Y115.927 E8.20365
G1 X132.892 Y118.417 E8.25369
G1 X133.26 Y120.896 E8.3037
G1 X133.707 Y123.422 E8.35489
G1 X134.209 Y125.86 E8.40457
G1 X134.802 Y128.367 E8.45598
G1 X135.297 Y130.253 E8.49489
G1 X135.579 Y131.28 E8.51614
G1 X135.707 Y131.799 E8.52681
G1 X135.858 Y132.482 E8.54077
G1 X135.968 Y133.053 E8.55238
G1 X136.088 Y133.827 E8.56801
G1 X136.23 Y134.942 E8.59044
G1 X136.281 Y135.439 E8.60041
G1 X136.334 Y136.104 E8.61372
G1 X136.365 Y136.702 E8.62567
G1 X136.377 Y137.53 E8.64219
G1 X136.35 Y139.015 E8.67183
G1 X136.316 Y139.625 E8.68403
G1 X136.241 Y140.475 E8.70106
G1 X136.144 Y141.225 E8.71615
G1 X135.963 Y142.379 E8.73946
G1 X135.871 Y142.887 E8.74976
G1 X135.737 Y143.534 E8.76295
G1 X135.599 Y144.117 E8.7749
G1 X135.401 Y144.859 E8.79023
G1 X135.179 Y145.611 E8.80587
G1 X135.05 Y146.005 E8.81415
G1 X134.81 Y146.679 E8.82843
G1 X134.42 Y147.693 E8.85011
G1 X134.23 Y148.156 E8.86009
G1 X133.952 Y148.788 E8.87387
G1 X133.703 Y149.313 E8.88547
G1 X133.322 Y150.046 E8.90195
G1 X132.754 Y151.063 E8.9252
G1 X132.377 Y151.688 E8.93977
G1 X131.77 Y152.618 E8.96193
G1 X131.335 Y153.234 E8.97698
G1 X130.66 Y154.123 E8.99925
G1 X130.186 Y154.703 E9.0142
G1 X129.457 Y155.534 E9.03626
G1 X128.988 Y156.044 E9.05009
G1 X128.451 Y156.586 E9.06531
G1 X127.901 Y157.104 E9.08039
G1 X127.605 Y157.367 E9.08829
G1 X126.737 Y158.111 E9.11111
G1 X126.149 Y158.58 E9.12612
G1 X125.273 Y159.229 E9.14787
G1 X124.666 Y159.647 E9.16258
G1 X123.715 Y160.254 E9.1851
G1 X123.083 Y160.627 E9.19974
G1 X121.759 Y161.341 E9.22976
G1 X121.171 Y161.629 E9.24283
G1 X120.434 Y161.959 E9.25894
G1 X119.72 Y162.246 E9.2743
G1 X118.679 Y162.633 E9.29646
G1 X117.98 Y162.865 E9.31116
G1 X116.887 Y163.187 E9.3339
G1 X116.377 Y163.324 E9.34444
G1 X115.697 Y163.488 E9.35839
G1 X115.086 Y163.616 E9.37085
G1 X114.327 Y163.746 E9.38622
G1 X113.235 Y163.905 E9.40824
G1 X112.703 Y163.969 E9.41893
G1 X112.035 Y164.032 E9.43232
G1 X111.468 Y164.07 E9.44366
G1 X110.725 Y164.1 E9.4585
G1 X110.017 Y164.112 E9.47264
G1 X109.593 Y164.108 E9.4811
G1 X108.796 Y164.077 E9.49701
G1 X107.662 Y164.001 E9.5197
G1 X106.941 Y163.934 E9.53415
G1 X106.217 Y163.841 E9.54871
G1 X105.795 Y163.776 E9.55723
G1 X105.063 Y163.641 E9.57209
G1 X104.023 Y163.421 E9.5933
G1 X103.309 Y163.25 E9.60795
G1 X102.646 Y163.069 E9.62167
G1 X102.22 Y162.941 E9.63054
G1 X101.512 Y162.703 E9.64545
G1 X100.44 Y162.313 E9.66821
G1 X99.735 Y162.028 E9.68339
G1 X98.709 Y161.569 E9.70582
G1 X98.041 Y161.241 E9.72067
G1 X97.07 Y160.722 E9.74264
G1 X96.627 Y160.472 E9.75279
G1 X96.055 Y160.13 E9.76609
G1 X95.538 Y159.8 E9.77833
