;FLAVOR:Marlin
;TIME:1238
;Filament used: 1.35594m
;Layer height: 0.28
;MINX:89
;MINY:89
;MINZ:0.28
;MAXX:131
;MAXY:131
;MAXZ:19.88
;Generated with Cura_SteamEngine main
M82 ;absolute extrusion mode
; Ender 3 Custom Start G-code
G92 E0 ; Reset Extruder
G28 ; Home all axes
M104 S175 ; Start heating up the nozzle most of the way
M190 S60 ; Start heating the bed, wait until target temperature reached
M109 S200 ; Finish heating the nozzle
G1 Z2.0 F3000 ; Move Z Axis up little to prevent scratching of Heat Bed
G1 X0.1 Y20 Z0.3 F5000.0 ; Move to start position
G1 X0.1 Y200.0 Z0.3 F1500.0 E15 ; Draw the first line
G1 X0.4 Y200.0 Z0.3 F5000.0 ; Move to side a little
G1 X0.4 Y20 Z0.3 F1500.0 E30 ; Draw the second line
G92 E0 ; Reset Extruder
G1 Z2.0 F3000 ; Move Z Axis up little to prevent scratching of Heat Bed
G1 X5 Y20 Z0.3 F5000.0 ; Move over to prevent blob squish
G92 E0
G92 E0
G1 F1500 E-6.5
;LAYER_COUNT:71
;LAYER:0
M107
G0 F6000 X92.198 Y92.264 Z0.28
G0 X89.001 Y100.525
;TYPE:SKIRT
G1 F1500 E0
G1 F1200 X89.01 Y99.86 E0.03097
G1 X89.063 Y98.924 E0.07462
G1 X89.195 Y97.995 E0.11831
G1 X89.406 Y97.081 E0.16199
G1 X89.694 Y96.189 E0.20564
G1 X90.057 Y95.324 E0.24932
G1 X90.492 Y94.493 E0.293
G1 X90.996 Y93.703 E0.33663
G1 X91.566 Y92.958 E0.38031
G1 X92.198 Y92.264 E0.42402
G1 X92.886 Y91.627 E0.46768
G1 X93.626 Y91.051 E0.51134
G1 X94.412 Y90.539 E0.55502
G1 X95.239 Y90.097 E0.59869
G1 X96.101 Y89.727 E0.64237
G1 X96.991 Y89.431 E0.68604
G1 X97.903 Y89.213 E0.7297
G1 X98.83 Y89.072 E0.77336
G1 X99.701 Y89.013 E0.81401
G1 X100.33 Y89 E0.84331
G1 X119.451 Y89.001 E1.73366
G1 X120.149 Y89.011 E1.76617
G1 X121.085 Y89.065 E1.80982
G1 X122.013 Y89.197 E1.85347
G1 X122.927 Y89.409 E1.89716
G1 X123.819 Y89.698 E1.94082
G1 X124.684 Y90.061 E1.9845
G1 X125.514 Y90.497 E2.02816
G1 X126.305 Y91.002 E2.07186
G1 X127.049 Y91.573 E2.11553
G1 X127.742 Y92.205 E2.1592
G1 X128.379 Y92.893 E2.20286
G1 X128.954 Y93.634 E2.24653
G1 X129.465 Y94.42 E2.29019
G1 X129.907 Y95.248 E2.33389
G1 X130.276 Y96.11 E2.37755
G1 X130.571 Y97 E2.42121
G1 X130.789 Y97.912 E2.46488
G1 X130.929 Y98.84 E2.50858
G1 X130.987 Y99.701 E2.54876
G1 X131 Y100.33 E2.57805
G1 X130.999 Y119.4 E3.46603
G1 X130.99 Y120.127 E3.49989
G1 X130.939 Y121.064 E3.54358
G1 X130.807 Y121.992 E3.58723
G1 X130.598 Y122.906 E3.63089
G1 X130.311 Y123.799 E3.67456
G1 X129.949 Y124.665 E3.71827
G1 X129.515 Y125.496 E3.76192
G1 X129.011 Y126.287 E3.8056
G1 X128.442 Y127.032 E3.84925
G1 X127.811 Y127.727 E3.89296
G1 X127.124 Y128.365 E3.93662
G1 X126.385 Y128.942 E3.98027
G1 X125.599 Y129.454 E4.02395
G1 X124.773 Y129.897 E4.0676
G1 X123.911 Y130.269 E4.11131
G1 X123.022 Y130.565 E4.15494
G1 X122.11 Y130.785 E4.19863
G1 X121.183 Y130.926 E4.24229
G1 X120.299 Y130.987 E4.28355
G1 X119.67 Y131 E4.31285
G1 X100.565 Y130.999 E5.20245
G1 X99.867 Y130.99 E5.23496
G1 X98.931 Y130.938 E5.27861
G1 X98.002 Y130.806 E5.3223
G1 X97.088 Y130.596 E5.36597
G1 X96.195 Y130.309 E5.40965
G1 X95.33 Y129.946 E5.45333
G1 X94.499 Y129.512 E5.49698
G1 X93.708 Y129.008 E5.54066
G1 X92.963 Y128.438 E5.58434
G1 X92.269 Y127.807 E5.62801
G1 X91.632 Y127.12 E5.67164
G1 X91.055 Y126.38 E5.71533
G1 X90.543 Y125.594 E5.75901
G1 X90.1 Y124.767 E5.8027
G1 X89.729 Y123.906 E5.84635
G1 X89.433 Y123.016 E5.89003
G1 X89.214 Y122.104 E5.9337
G1 X89.073 Y121.177 E5.97736
G1 X89.013 Y120.288 E6.01885
G1 X89 Y119.658 E6.04819
G1 X89.001 Y100.525 E6.93911
G0 F6000 X89.401 Y100.531
G1 F1200 X89.41 Y99.866 E6.97007
G1 X89.462 Y98.946 E7.01298
G1 X89.594 Y98.035 E7.05584
G1 X89.805 Y97.139 E7.09871
G1 X90.092 Y96.264 E7.14159
G1 X90.455 Y95.418 E7.18445
G1 X90.889 Y94.606 E7.22732
G1 X91.392 Y93.835 E7.27019
G1 X91.961 Y93.111 E7.31307
G1 X92.589 Y92.439 E7.3559
G1 X93.274 Y91.823 E7.39879
G1 X94.01 Y91.27 E7.44166
G1 X94.791 Y90.782 E7.48454
G1 X95.611 Y90.364 E7.5274
G1 X96.465 Y90.019 E7.57029
G1 X97.345 Y89.749 E7.61315
G1 X98.245 Y89.557 E7.656
G1 X99.159 Y89.443 E7.69889
G1 X99.712 Y89.413 E7.72468
G1 X100.33 Y89.4 E7.75346
G1 X119.293 Y89.4 E8.63646
G1 X120.143 Y89.411 E8.67604
G1 X121.062 Y89.464 E8.7189
G1 X121.973 Y89.597 E8.76177
G1 X122.869 Y89.808 E8.80464
G1 X123.743 Y90.096 E8.84749
G1 X124.59 Y90.459 E8.89039
G1 X125.401 Y90.894 E8.93325
G1 X126.171 Y91.398 E8.9761
G1 X126.895 Y91.967 E9.01898
G1 X127.567 Y92.597 E9.06187
G1 X128.182 Y93.282 E9.10474
G1 X128.735 Y94.018 E9.1476
G1 X129.222 Y94.799 E9.19046
G1 X129.639 Y95.62 E9.23334
G1 X129.984 Y96.474 E9.27623
G1 X130.253 Y97.354 E9.31907
G1 X130.445 Y98.255 E9.36197
G1 X130.558 Y99.168 E9.40481
G1 X130.587 Y99.712 E9.43017
G1 X130.6 Y100.33 E9.45896
G1 X130.599 Y119.395 E10.3467
G1 X130.59 Y120.122 E10.38056
G1 X130.539 Y121.041 E10.42342
G1 X130.408 Y121.953 E10.46632
G1 X130.198 Y122.849 E10.50917
G1 X129.912 Y123.724 E10.55204
G1 X129.551 Y124.571 E10.59491
G1 X129.117 Y125.383 E10.63778
G1 X128.615 Y126.155 E10.68066
G1 X128.047 Y126.88 E10.72355
G1 X127.419 Y127.553 E10.76641
G1 X126.735 Y128.169 E10.80927
G1 X126 Y128.723 E10.85213
G1 X125.22 Y129.212 E10.895
G1 X124.4 Y129.631 E10.93787
G1 X123.547 Y129.977 E10.98074
G1 X122.667 Y130.248 E11.02361
G1 X121.767 Y130.441 E11.06647
G1 X120.853 Y130.556 E11.10937
G1 X120.288 Y130.587 E11.13572
G1 X119.67 Y130.6 E11.1645
G1 X100.57 Y130.599 E12.05388
G1 X99.872 Y130.59 E12.08638
G1 X98.953 Y130.538 E12.12924
G1 X98.042 Y130.407 E12.1721
G1 X97.146 Y130.197 E12.21495
G1 X96.271 Y129.91 E12.25783
G1 X95.424 Y129.548 E12.30072
G1 X94.612 Y129.114 E12.34359
G1 X93.841 Y128.612 E12.38643
G1 X93.116 Y128.044 E12.42932
G1 X92.443 Y127.415 E12.47221
G1 X91.828 Y126.731 E12.51504
G1 X91.274 Y125.996 E12.5579
G1 X90.786 Y125.215 E12.60078
G1 X90.367 Y124.395 E12.64366
G1 X90.021 Y123.542 E12.68652
G1 X89.751 Y122.662 E12.72938
G1 X89.558 Y121.761 E12.77229
G1 X89.444 Y120.848 E12.81513
G1 X89.413 Y120.277 E12.84176
G1 X89.4 Y119.658 E12.87059
G1 X89.401 Y100.531 E13.76122
G0 F6000 X89.801 Y100.536
G1 F1200 X89.81 Y99.871 E13.79219
G1 X89.862 Y98.969 E13.83426
G1 X89.994 Y98.076 E13.8763
G1 X90.204 Y97.198 E13.91833
G1 X90.491 Y96.341 E13.96042
G1 X90.853 Y95.514 E14.00245
G1 X91.286 Y94.722 E14.04448
G1 X91.788 Y93.971 E14.08655
G1 X92.355 Y93.267 E14.12864
G1 X92.981 Y92.617 E14.17066
G1 X93.662 Y92.024 E14.21271
G1 X94.394 Y91.494 E14.25479
G1 X95.169 Y91.031 E14.29682
G1 X95.982 Y90.638 E14.33887
G1 X96.827 Y90.318 E14.38095
G1 X97.696 Y90.075 E14.42296
G1 X98.584 Y89.909 E14.46503
G1 X99.723 Y89.813 E14.51825
G1 X100.33 Y89.8 E14.54652
G1 X119.293 Y89.8 E15.42952
G1 X120.137 Y89.811 E15.46882
G1 X121.039 Y89.864 E15.5109
G1 X121.932 Y89.996 E15.55293
G1 X122.81 Y90.207 E15.59498
G1 X123.666 Y90.495 E15.63703
G1 X124.493 Y90.857 E15.67907
G1 X125.285 Y91.292 E15.72114
G1 X126.036 Y91.794 E15.76321
G1 X126.739 Y92.361 E15.80526
G1 X127.389 Y92.988 E15.84731
G1 X127.981 Y93.67 E15.88937
G1 X128.511 Y94.401 E15.93141
G1 X128.973 Y95.177 E15.97346
G1 X129.366 Y95.99 E16.01551
G1 X129.684 Y96.835 E16.05755
G1 X129.927 Y97.705 E16.09961
G1 X130.092 Y98.593 E16.14167
G1 X130.187 Y99.723 E16.19447
G1 X130.2 Y100.33 E16.22274
G1 X130.199 Y119.39 E17.11026
G1 X130.19 Y120.117 E17.14411
G1 X130.139 Y121.019 E17.18618
G1 X130.008 Y121.913 E17.22825
G1 X129.799 Y122.791 E17.27028
G1 X129.513 Y123.648 E17.31235
G1 X129.152 Y124.476 E17.35441
G1 X128.72 Y125.268 E17.39642
G1 X128.219 Y126.02 E17.43849
G1 X127.653 Y126.724 E17.48055
G1 X127.028 Y127.375 E17.52258
G1 X126.347 Y127.969 E17.56465
G1 X125.616 Y128.5 E17.60672
G1 X124.842 Y128.964 E17.64875
G1 X124.029 Y129.358 E17.69081
G1 X123.185 Y129.678 E17.73284
G1 X122.315 Y129.923 E17.77493
G1 X121.428 Y130.089 E17.81695
G1 X120.277 Y130.187 E17.87074
G1 X119.67 Y130.2 E17.89901
G1 X100.575 Y130.199 E18.78815
G1 X99.877 Y130.19 E18.82066
G1 X98.976 Y130.139 E18.86268
G1 X98.082 Y130.007 E18.90476
G1 X97.204 Y129.798 E18.94678
G1 X96.347 Y129.511 E18.98887
G1 X95.52 Y129.15 E19.03089
G1 X94.727 Y128.717 E19.07296
G1 X93.976 Y128.216 E19.11499
G1 X93.272 Y127.65 E19.15706
G1 X92.621 Y127.024 E19.19911
G1 X92.028 Y126.343 E19.24116
G1 X91.498 Y125.612 E19.2832
G1 X91.034 Y124.837 E19.32526
G1 X90.64 Y124.024 E19.36733
G1 X90.32 Y123.18 E19.40936
G1 X90.076 Y122.31 E19.45143
G1 X89.91 Y121.422 E19.4935
G1 X89.813 Y120.267 E19.54747
G1 X89.8 Y119.658 E19.57583
G1 X89.801 Y100.536 E20.46624
G1 F1500 E13.96624
;MESH:20x20 cube.stl
G0 F6000 X99.335 Y100.536
G0 X100.6 Y119.4
;TYPE:WALL-INNER
G1 F1500 E20.46624
G1 F1200 X119.4 Y119.4 E21.34164
G1 X119.4 Y110 E21.77935
G1 X119.4 Y100.6 E22.21705
G1 X100.6 Y100.6 E23.09246
G1 X100.6 Y119.4 E23.96786
G0 F6000 X100.2 Y119.8
;TYPE:WALL-OUTER
G1 F1200 X119.8 Y119.8 E24.88052
G1 X119.8 Y110 E25.33685
G1 X119.8 Y100.2 E25.79318
G1 X100.2 Y100.2 E26.70584
G1 X100.2 Y119.8 E27.61849
G0 F6000 X100.47 Y119.53
G0 X100.7 Y119.04
G0 X100.96 Y119.04
;TYPE:SKIN
G1 F1200 X119.04 Y119.04 E28.46038
G1 X119.04 Y110 E28.88132
G1 X119.04 Y100.96 E29.30226
G1 X100.96 Y100.96 E30.14414
G1 X100.96 Y119.04 E30.98602
G0 F6000 X101.302 Y118.839
G1 F1200 X101.159 Y118.695 E30.99547
G0 F6000 X101.159 Y118.129
G1 F1200 X101.868 Y118.839 E31.04219
G0 F6000 X102.434 Y118.839
G1 F1200 X101.159 Y117.564 E31.12615
G0 F6000 X101.159 Y116.998
G1 F1200 X103 Y118.839 E31.24738
G0 F6000 X103.565 Y118.839
G1 F1200 X101.159 Y116.432 E31.40585
G0 F6000 X101.159 Y115.867
G1 F1200 X104.131 Y118.839 E31.60157
G0 F6000 X104.697 Y118.839
G1 F1200 X101.159 Y115.301 E31.83455
G0 F6000 X101.159 Y114.735
G1 F1200 X105.262 Y118.839 E32.10477
G0 F6000 X105.828 Y118.839
G1 F1200 X101.159 Y114.17 E32.41223
G0 F6000 X101.159 Y113.604
G1 F1200 X106.394 Y118.839 E32.75697
G0 F6000 X106.959 Y118.839
G1 F1200 X101.159 Y113.038 E33.13894
G0 F6000 X101.159 Y112.473
G1 F1200 X107.525 Y118.839 E33.55815
G0 F6000 X108.091 Y118.839
G1 F1200 X101.159 Y111.907 E34.01464
G0 F6000 X101.159 Y111.341
G1 F1200 X108.656 Y118.839 E34.50836
G0 F6000 X109.222 Y118.839
G1 F1200 X101.159 Y110.776 E35.03932
G0 F6000 X101.159 Y110.21
G1 F1200 X109.788 Y118.839 E35.60756
G0 F6000 X110.353 Y118.839
G1 F1200 X101.159 Y109.644 E36.21303
G0 F6000 X101.159 Y109.078
G1 F1200 X110.919 Y118.839 E36.85577
G0 F6000 X111.485 Y118.839
G1 F1200 X101.159 Y108.513 E37.53576
G0 F6000 X101.159 Y107.947
G1 F1200 X112.05 Y118.839 E38.25298
G0 F6000 X112.616 Y118.839
G1 F1200 X101.159 Y107.381 E39.00748
G0 F6000 X101.159 Y106.816
G1 F1200 X113.182 Y118.839 E39.79921
G0 F6000 X113.748 Y118.839
G1 F1200 X101.159 Y106.25 E40.62822
G0 F6000 X101.159 Y105.684
G1 F1200 X114.313 Y118.839 E41.49447
G0 F6000 X114.879 Y118.839
G1 F1200 X101.159 Y105.119 E42.39795
G0 F6000 X101.159 Y104.553
G1 F1200 X115.445 Y118.839 E43.33871
G0 F6000 X116.01 Y118.839
G1 F1200 X101.159 Y103.987 E44.31671
G0 F6000 X101.159 Y103.422
G1 F1200 X116.576 Y118.839 E45.33194
G0 F6000 X117.142 Y118.839
G1 F1200 X101.159 Y102.856 E46.38445
G0 F6000 X101.159 Y102.29
G1 F1200 X117.707 Y118.839 E47.4742
G0 F6000 X118.273 Y118.839
G1 F1200 X101.159 Y101.725 E48.60118
G0 F6000 X101.159 Y101.159
G1 F1200 X118.839 Y118.839 E49.76544
G0 F6000 X118.839 Y118.274
G1 F1200 X101.725 Y101.16 E50.89243
G0 F6000 X102.291 Y101.16
G1 F1200 X118.839 Y117.708 E51.98214
G0 F6000 X118.839 Y117.142
G1 F1200 X102.857 Y101.16 E53.03458
G0 F6000 X103.422 Y101.16
G1 F1200 X118.839 Y116.577 E54.04982
G0 F6000 X118.839 Y116.011
G1 F1200 X103.988 Y101.16 E55.02778
G0 F6000 X104.554 Y101.16
G1 F1200 X118.839 Y115.445 E55.96848
G0 F6000 X118.839 Y114.88
G1 F1200 X105.119 Y101.16 E56.87196
G0 F6000 X105.685 Y101.16
G1 F1200 X118.839 Y114.314 E57.73817
G0 F6000 X118.839 Y113.748
G1 F1200 X106.251 Y101.16 E58.56712
G0 F6000 X106.816 Y101.16
G1 F1200 X118.839 Y113.183 E59.35885
G0 F6000 X118.839 Y112.617
G1 F1200 X107.382 Y101.16 E60.11331
G0 F6000 X107.948 Y101.16
G1 F1200 X118.839 Y112.051 E60.8305
G0 F6000 X118.839 Y111.485
G1 F1200 X108.514 Y101.16 E61.51042
G0 F6000 X109.079 Y101.16
G1 F1200 X118.839 Y110.92 E62.15314
G0 F6000 X118.839 Y110.354
G1 F1200 X109.645 Y101.16 E62.75858
G0 F6000 X110.211 Y101.16
G1 F1200 X118.839 Y109.788 E63.32675
G0 F6000 X118.839 Y109.223
G1 F1200 X110.776 Y101.16 E63.85771
G0 F6000 X111.342 Y101.16
G1 F1200 X118.839 Y108.657 E64.3514
G0 F6000 X118.839 Y108.091
G1 F1200 X111.908 Y101.16 E64.80782
G0 F6000 X112.473 Y101.16
G1 F1200 X118.839 Y107.526 E65.22703
G0 F6000 X118.839 Y106.96
G1 F1200 X113.039 Y101.16 E65.60897
G0 F6000 X113.605 Y101.16
G1 F1200 X118.839 Y106.394 E65.95364
G0 F6000 X118.839 Y105.829
G1 F1200 X114.17 Y101.16 E66.2611
G0 F6000 X114.736 Y101.16
G1 F1200 X118.839 Y105.263 E66.53129
G0 F6000 X118.839 Y104.697
G1 F1200 X115.302 Y101.16 E66.7642
G0 F6000 X115.867 Y101.16
G1 F1200 X118.839 Y104.132 E66.95992
G0 F6000 X118.839 Y103.566
G1 F1200 X116.433 Y101.16 E67.11835
G0 F6000 X116.999 Y101.16
G1 F1200 X118.839 Y103 E67.23952
G0 F6000 X118.839 Y102.435
G1 F1200 X117.564 Y101.16 E67.32348
G0 F6000 X118.13 Y101.16
G1 F1200 X118.839 Y101.869 E67.37017
G0 F6000 X118.839 Y101.303
M104 S200
G1 F1200 X118.696 Y101.16 E67.37959
G1 F1500 E60.87959
;MESH:NONMESH
G0 F300 X118.696 Y101.16 Z0.56
G0 F6000 X118.696 Y100.7
G0 X100.772 Y100.772
G0 X100.6 Y119.4
;TIME_ELAPSED:84.331866
;LAYER:1
M106 S85
;TYPE:WALL-INNER
;MESH:20x20 cube.stl
G1 F1500 E67.37959
G1 F1350 X119.4 Y119.4 E68.255
G1 X119.4 Y110 E68.6927
G1 X119.4 Y100.6 E69.1304
G1 X100.6 Y100.6 E70.00581
G1 X100.6 Y119.4 E70.88122
G0 F7500 X100.2 Y119.8
;TYPE:WALL-OUTER
G1 F1350 X119.8 Y119.8 E71.79387
G1 X119.8 Y110 E72.2502
G1 X119.8 Y100.2 E72.70653
G1 X100.2 Y100.2 E73.61919
G1 X100.2 Y119.8 E74.53185
G0 F7500 X100.47 Y119.53
G0 X100.7 Y119.04
G0 X100.96 Y119.04
;TYPE:SKIN
G1 F1350 X119.04 Y119.04 E75.37373
G1 X119.04 Y110 E75.79467
G1 X119.04 Y100.96 E76.21561
G1 X100.96 Y100.96 E77.05749
G1 X100.96 Y119.04 E77.89937
G0 F7500 X100.7 Y119.04
G0 X100.772 Y100.772
G0 X101.355 Y100.7
G0 X101.355 Y101.159
G1 F1350 X101.16 Y101.355 E77.91224
G0 F7500 X101.16 Y101.92
G1 F1350 X101.921 Y101.159 E77.96236
G0 F7500 X102.487 Y101.159
G1 F1350 X101.16 Y102.486 E78.04974
G0 F7500 X101.16 Y103.052
G1 F1350 X103.053 Y101.159 E78.1744
G0 F7500 X103.618 Y101.159
G1 F1350 X101.16 Y103.618 E78.3363
G0 F7500 X101.16 Y104.183
G1 F1350 X104.184 Y101.159 E78.53543
G0 F7500 X104.75 Y101.159
G1 F1350 X101.16 Y104.749 E78.77184
G0 F7500 X101.16 Y105.315
G1 F1350 X105.315 Y101.159 E79.04549
G0 F7500 X105.881 Y101.159
G1 F1350 X101.16 Y105.88 E79.35637
G0 F7500 X101.16 Y106.446
G1 F1350 X106.447 Y101.159 E79.70453
G0 F7500 X107.012 Y101.159
G1 F1350 X101.16 Y107.012 E80.08993
G0 F7500 X101.16 Y107.577
G1 F1350 X107.578 Y101.159 E80.51256
G0 F7500 X108.144 Y101.159
G1 F1350 X101.16 Y108.143 E80.97247
G0 F7500 X101.16 Y108.709
G1 F1350 X108.709 Y101.159 E81.46962
G0 F7500 X109.275 Y101.159
G1 F1350 X101.16 Y109.274 E82.00401
G0 F7500 X101.16 Y109.84
G1 F1350 X109.841 Y101.159 E82.57566
G0 F7500 X110.406 Y101.159
G1 F1350 X101.16 Y110.406 E83.18456
G0 F7500 X101.16 Y110.971
G1 F1350 X110.972 Y101.159 E83.8307
G0 F7500 X111.538 Y101.159
G1 F1350 X101.16 Y111.537 E84.51411
G0 F7500 X101.16 Y112.103
G1 F1350 X112.104 Y101.159 E85.23479
G0 F7500 X112.669 Y101.159
G1 F1350 X101.16 Y112.668 E85.99268
G0 F7500 X101.16 Y113.234
G1 F1350 X113.235 Y101.159 E86.78784
G0 F7500 X113.801 Y101.159
G1 F1350 X101.16 Y113.8 E87.62027
G0 F7500 X101.16 Y114.366
G1 F1350 X114.366 Y101.159 E88.48994
G0 F7500 X114.932 Y101.159
G1 F1350 X101.16 Y114.931 E89.39685
G0 F7500 X101.16 Y115.497
G1 F1350 X115.498 Y101.159 E90.34103
G0 F7500 X116.063 Y101.159
G1 F1350 X101.16 Y116.063 E91.32245
G0 F7500 X101.16 Y116.628
G1 F1350 X116.629 Y101.159 E92.34111
G0 F7500 X117.195 Y101.159
G1 F1350 X101.16 Y117.194 E93.39704
G0 F7500 X101.16 Y117.76
G1 F1350 X117.76 Y101.159 E94.49021
G0 F7500 X118.326 Y101.159
G1 F1350 X101.16 Y118.325 E95.62062
G0 F7500 X101.211 Y118.839
G1 F1350 X118.839 Y101.212 E96.78143
G0 F7500 X118.839 Y101.778
G1 F1350 X101.777 Y118.839 E97.90495
G0 F7500 X102.343 Y118.839
G1 F1350 X118.839 Y102.343 E98.99124
G0 F7500 X118.839 Y102.909
G1 F1350 X102.908 Y118.839 E100.04029
G0 F7500 X103.474 Y118.839
