;FLAVOR:Marlin
;TIME:4893
;Filament used: 2.00001m
;Layer height: 0.12
;MINX:78.198
;MINY:81.224
;MINZ:0.12
;MAXX:130.181
;MAXY:133.193
;MAXZ:30
;Generated with Cura_SteamEngine main
M82 ;absolute extrusion mode
; Ender 3 Custom Start G-code
G92 E0 ; Reset Extruder
G28 ; Home all axes
M104 S175 ; Start heating up the nozzle most of the way
M190 S60 ; Start heating the bed, wait until target temperature reached
M109 S200 ; Finish heating the nozzle
G1 Z2.0 F3000 ; Move Z Axis up little to prevent scratching of Heat Bed
G1 X0.1 Y20 Z0.3 F5000.0 ; Move to start position
G1 X0.1 Y200.0 Z0.3 F1500.0 E15 ; Draw the first line
G1 X0.4 Y200.0 Z0.3 F5000.0 ; Move to side a little
G1 X0.4 Y20 Z0.3 F1500.0 E30 ; Draw the second line
G92 E0 ; Reset Extruder
G1 Z2.0 F3000 ; Move Z Axis up little to prevent scratching of Heat Bed
G1 X5 Y20 Z0.3 F5000.0 ; Move over to prevent blob squish
G92 E0
G92 E0
G1 F1500 E-6.5
;LAYER_COUNT:250
;LAYER:0
M107
G0 F6000 X86.269 Y88.375 Z0.12
G0 X78.23 Y105.911
;TYPE:SKIRT
G1 F1500 E0
G1 F1200 X78.261 Y105.393 E0.01036
G1 X78.317 Y104.718 E0.02387
G1 X78.367 Y104.241 E0.03344
G1 X78.454 Y103.556 E0.04722
G1 X78.536 Y103.017 E0.0581
G1 X78.659 Y102.325 E0.07213
G1 X78.754 Y101.848 E0.08184
G1 X78.901 Y101.191 E0.09527
G1 X79.036 Y100.653 E0.10634
G1 X79.241 Y99.914 E0.12164
G1 X79.389 Y99.426 E0.13182
G1 X79.592 Y98.807 E0.14482
G1 X79.763 Y98.323 E0.15507
G1 X80.048 Y97.574 E0.17106
G1 X80.263 Y97.05 E0.18236
G1 X80.56 Y96.376 E0.19706
G1 X80.818 Y95.832 E0.20907
G1 X81.213 Y95.054 E0.22649
G1 X81.468 Y94.58 E0.23723
G1 X81.798 Y94.002 E0.25051
G1 X82.078 Y93.538 E0.26132
G1 X82.429 Y92.988 E0.27435
G1 X82.711 Y92.569 E0.28442
G1 X83.21 Y91.861 E0.30171
G1 X83.614 Y91.323 E0.31514
G1 X84.172 Y90.626 E0.33295
G1 X84.552 Y90.177 E0.34469
G1 X85.066 Y89.601 E0.3601
G1 X85.43 Y89.212 E0.37073
G1 X85.907 Y88.727 E0.38431
G1 X86.269 Y88.375 E0.39438
G1 X86.725 Y87.952 E0.40679
G1 X87.108 Y87.614 E0.41699
G1 X88.016 Y86.856 E0.44059
G1 X88.492 Y86.489 E0.45259
G1 X89.072 Y86.061 E0.46697
G1 X89.535 Y85.737 E0.47825
G1 X90.161 Y85.323 E0.49323
G1 X90.602 Y85.046 E0.50362
G1 X91.2 Y84.69 E0.51751
G1 X91.637 Y84.443 E0.52752
G1 X92.235 Y84.123 E0.54106
G1 X92.72 Y83.879 E0.55189
G1 X93.411 Y83.552 E0.56715
G1 X93.941 Y83.318 E0.57871
G1 X94.743 Y82.989 E0.59601
G1 X95.283 Y82.784 E0.60754
G1 X95.94 Y82.554 E0.62143
G1 X96.46 Y82.386 E0.63233
G1 X97.161 Y82.179 E0.64692
G1 X97.663 Y82.044 E0.65729
G1 X98.395 Y81.865 E0.67233
G1 X98.921 Y81.75 E0.68308
G1 X99.599 Y81.619 E0.69686
G1 X100.104 Y81.533 E0.70708
G1 X100.799 Y81.432 E0.7211
G1 X101.294 Y81.372 E0.73105
G1 X101.979 Y81.304 E0.74478
G1 X102.504 Y81.264 E0.75529
G1 X103.012 Y81.238 E0.76544
G1 X103.574 Y81.224 E0.77666
G1 X104.801 Y81.224 E0.80115
G1 X105.471 Y81.241 E0.81452
G1 X105.999 Y81.272 E0.82508
G1 X106.672 Y81.328 E0.83855
G1 X107.156 Y81.379 E0.84827
G1 X107.844 Y81.467 E0.86211
G1 X108.37 Y81.547 E0.87272
G1 X109.063 Y81.67 E0.88677
G1 X109.543 Y81.766 E0.89654
G1 X110.2 Y81.913 E0.90997
G1 X110.738 Y82.048 E0.92104
G1 X111.477 Y82.253 E0.93635
G1 X112.003 Y82.413 E0.94732
G1 X112.744 Y82.659 E0.9629
G1 X113.234 Y82.835 E0.97329
G1 X113.893 Y83.089 E0.98739
G1 X114.439 Y83.316 E0.99919
G1 X115.177 Y83.647 E1.01533
G1 X115.677 Y83.887 E1.02639
G1 X116.341 Y84.226 E1.04127
G1 X116.797 Y84.472 E1.05161
G1 X117.392 Y84.812 E1.06529
G1 X117.903 Y85.124 E1.07724
G1 X118.632 Y85.595 E1.09456
G1 X119.061 Y85.886 E1.1049
G1 X119.591 Y86.265 E1.1179
G1 X120.068 Y86.626 E1.12984
G1 X120.765 Y87.184 E1.14766
G1 X121.214 Y87.564 E1.1594
G1 X121.79 Y88.078 E1.1748
G1 X122.179 Y88.442 E1.18544
G1 X122.664 Y88.919 E1.19901
G1 X123.016 Y89.281 E1.20909
G1 X123.439 Y89.737 E1.2215
G1 X123.831 Y90.178 E1.23327
G1 X124.521 Y91.012 E1.25488
G1 X124.871 Y91.461 E1.26624
G1 X125.338 Y92.094 E1.28193
G1 X125.679 Y92.584 E1.29385
G1 X126.112 Y93.243 E1.30958
G1 X126.379 Y93.669 E1.31962
G1 X126.725 Y94.252 E1.33315
G1 X126.975 Y94.697 E1.34333
G1 X127.28 Y95.27 E1.35629
G1 X127.508 Y95.723 E1.36641
G1 X127.825 Y96.391 E1.38116
G1 X128.064 Y96.931 E1.39295
G1 X128.398 Y97.745 E1.4105
G1 X128.593 Y98.258 E1.42146
G1 X128.825 Y98.915 E1.43536
G1 X129.009 Y99.484 E1.44729
G1 X129.235 Y100.255 E1.46333
G1 X129.367 Y100.746 E1.47347
G1 X129.527 Y101.403 E1.48697
G1 X129.641 Y101.927 E1.49767
G1 X129.774 Y102.618 E1.51171
G1 X129.858 Y103.115 E1.52177
G1 X129.959 Y103.81 E1.53579
G1 X130.019 Y104.305 E1.54574
G1 X130.086 Y104.98 E1.55927
G1 X130.125 Y105.491 E1.5695
G1 X130.161 Y106.178 E1.58323
G1 X130.176 Y106.672 E1.59309
G1 X130.181 Y107.346 E1.60654
G1 X130.174 Y107.823 E1.61606
G1 X130.15 Y108.491 E1.6294
G1 X130.12 Y109.003 E1.63964
G1 X130.064 Y109.68 E1.65319
G1 X130.013 Y110.159 E1.66281
G1 X129.927 Y110.836 E1.67643
G1 X129.846 Y111.373 E1.68726
G1 X129.721 Y112.077 E1.70153
G1 X129.62 Y112.574 E1.71165
G1 X129.461 Y113.279 E1.72608
G1 X129.328 Y113.811 E1.73702
G1 X129.133 Y114.511 E1.75152
G1 X128.977 Y115.02 E1.76215
G1 X128.744 Y115.723 E1.77692
G1 X128.567 Y116.217 E1.7874
G1 X128.305 Y116.897 E1.80194
G1 X128.105 Y117.382 E1.81241
G1 X127.839 Y117.985 E1.82556
G1 X127.597 Y118.498 E1.83688
G1 X127.19 Y119.305 E1.85492
G1 X126.92 Y119.808 E1.86631
G1 X126.587 Y120.391 E1.87971
G1 X126.334 Y120.811 E1.88949
G1 X126.025 Y121.3 E1.90104
G1 X125.742 Y121.725 E1.91123
G1 X125.229 Y122.459 E1.9291
G1 X124.825 Y123.002 E1.9426
G1 X124.248 Y123.728 E1.96111
G1 X123.846 Y124.205 E1.97356
G1 X123.319 Y124.796 E1.98936
G1 X122.952 Y125.188 E2.00008
G1 X122.476 Y125.672 E2.01362
G1 X122.117 Y126.021 E2.02362
G1 X121.657 Y126.448 E2.03614
G1 X121.192 Y126.861 E2.04855
G1 X120.376 Y127.536 E2.06969
G1 X119.93 Y127.883 E2.08096
G1 X119.297 Y128.35 E2.09666
G1 X118.888 Y128.637 E2.10663
G1 X118.211 Y129.086 E2.12284
G1 X117.726 Y129.388 E2.13424
G1 X117.162 Y129.724 E2.14735
G1 X116.711 Y129.978 E2.15767
G1 X116.177 Y130.263 E2.16975
G1 X115.728 Y130.49 E2.17979
G1 X114.989 Y130.842 E2.19613
G1 X114.43 Y131.089 E2.20833
G1 X113.676 Y131.398 E2.22459
G1 X113.176 Y131.589 E2.23527
G1 X112.484 Y131.834 E2.24992
G1 X111.942 Y132.011 E2.2613
G1 X111.278 Y132.208 E2.27512
G1 X110.791 Y132.34 E2.28519
G1 X110.027 Y132.529 E2.30089
G1 X109.461 Y132.653 E2.31246
G1 X108.769 Y132.786 E2.32652
G1 X108.275 Y132.87 E2.33652
G1 X107.58 Y132.971 E2.35053
G1 X107.086 Y133.031 E2.36046
G1 X106.412 Y133.098 E2.37398
G1 X105.897 Y133.137 E2.38429
G1 X105.207 Y133.173 E2.39808
G1 X104.716 Y133.188 E2.40788
G1 X104.049 Y133.193 E2.42119
G1 X103.577 Y133.186 E2.43061
G1 X102.901 Y133.162 E2.44411
G1 X102.379 Y133.131 E2.45454
G1 X101.706 Y133.075 E2.46802
G1 X101.22 Y133.024 E2.47777
G1 X100.533 Y132.936 E2.4916
G1 X100.009 Y132.856 E2.50217
G1 X99.316 Y132.733 E2.51622
G1 X98.832 Y132.636 E2.52607
G1 X98.127 Y132.478 E2.54049
G1 X97.56 Y132.335 E2.55216
G1 X96.851 Y132.136 E2.56685
G1 X96.368 Y131.988 E2.57693
G1 X95.673 Y131.758 E2.59154
G1 X95.163 Y131.575 E2.60236
G1 X94.48 Y131.311 E2.61697
G1 X93.969 Y131.099 E2.62801
G1 X93.244 Y130.776 E2.64385
G1 X92.721 Y130.526 E2.65542
G1 X92.045 Y130.181 E2.67056
G1 X91.594 Y129.938 E2.68079
G1 X91.005 Y129.602 E2.69432
G1 X90.58 Y129.346 E2.70422
G1 X90.091 Y129.037 E2.71576
G1 X89.504 Y128.646 E2.72984
G1 X88.846 Y128.18 E2.74593
G1 X88.433 Y127.872 E2.75621
G1 X87.825 Y127.394 E2.77164
G1 X87.339 Y126.988 E2.78428
G1 X86.624 Y126.356 E2.80333
G1 X86.196 Y125.957 E2.815
G1 X85.715 Y125.484 E2.82846
G1 X85.358 Y125.116 E2.8387
G1 X84.919 Y124.642 E2.85159
G1 X84.581 Y124.26 E2.86177
G1 X83.839 Y123.369 E2.88491
G1 X83.479 Y122.902 E2.89667
G1 X83.05 Y122.321 E2.91109
G1 X82.722 Y121.851 E2.92252
G1 X82.309 Y121.226 E2.93747
G1 X82.04 Y120.798 E2.94756
G1 X81.685 Y120.203 E2.96139
G1 X81.436 Y119.764 E2.97146
G1 X81.131 Y119.195 E2.98434
G1 X80.884 Y118.705 E2.9953
G1 X80.528 Y117.953 E3.0119
G1 X80.277 Y117.381 E3.02436
G1 X79.948 Y116.57 E3.04183
G1 X79.76 Y116.074 E3.05242
G1 X79.543 Y115.455 E3.0655
G1 X79.375 Y114.934 E3.07643
G1 X79.169 Y114.237 E3.09093
G1 X79.033 Y113.732 E3.10137
G1 X78.853 Y112.996 E3.11649
G1 X78.738 Y112.47 E3.12724
G1 X78.607 Y111.792 E3.14102
G1 X78.521 Y111.284 E3.1513
G1 X78.419 Y110.581 E3.16547
G1 X78.359 Y110.088 E3.17538
G1 X78.309 Y109.584 E3.18549
G1 X78.265 Y108.978 E3.19762
G1 X78.21 Y107.718 E3.22279
G1 X78.198 Y107.098 E3.23516
G1 X78.205 Y106.613 E3.24484
G1 X78.23 Y105.911 E3.25886
G0 F6000 X78.598 Y107.095
G1 F1200 X78.605 Y106.627 E3.2682
G1 X78.63 Y105.925 E3.28222
G1 X78.659 Y105.426 E3.29219
G1 X78.715 Y104.751 E3.30571
G1 X78.763 Y104.291 E3.31494
G1 X78.85 Y103.606 E3.32872
G1 X78.93 Y103.087 E3.3392
G1 X79.053 Y102.395 E3.35322
G1 X79.145 Y101.936 E3.36257
G1 X79.292 Y101.279 E3.376
G1 X79.422 Y100.76 E3.38668
G1 X79.627 Y100.021 E3.40198
G1 X79.769 Y99.551 E3.41178
G1 X79.972 Y98.932 E3.42478
G1 X80.137 Y98.465 E3.43467
G1 X80.422 Y97.716 E3.45066
G1 X80.629 Y97.212 E3.46153
G1 X80.926 Y96.538 E3.47623
G1 X81.174 Y96.013 E3.48782
G1 X81.569 Y95.235 E3.50523
G1 X81.816 Y94.778 E3.5156
G1 X82.146 Y94.2 E3.52888
G1 X82.416 Y93.754 E3.53928
G1 X82.767 Y93.204 E3.5523
G1 X83.038 Y92.799 E3.56203
G1 X83.537 Y92.091 E3.57931
G1 X83.926 Y91.573 E3.59224
G1 X84.484 Y90.876 E3.61006
G1 X84.85 Y90.443 E3.62137
G1 X85.364 Y89.867 E3.63678
G1 X85.716 Y89.492 E3.64704
G1 X86.193 Y89.007 E3.66062
G1 X86.541 Y88.669 E3.6703
G1 X86.997 Y88.246 E3.68271
G1 X87.366 Y87.919 E3.69255
G1 X88.263 Y87.171 E3.71586
G1 X88.729 Y86.811 E3.72761
G1 X89.309 Y86.383 E3.74199
G1 X89.756 Y86.071 E3.75287
G1 X90.382 Y85.657 E3.76785
G1 X90.807 Y85.39 E3.77787
G1 X91.405 Y85.034 E3.79175
G1 X91.826 Y84.796 E3.80141
G1 X92.424 Y84.476 E3.81494
G1 X92.891 Y84.241 E3.82537
G1 X93.582 Y83.914 E3.84063
G1 X94.093 Y83.688 E3.85178
G1 X94.895 Y83.359 E3.86908
G1 X95.416 Y83.161 E3.8802
G1 X96.073 Y82.931 E3.89409
G1 X96.573 Y82.77 E3.90457
G1 X97.274 Y82.563 E3.91916
G1 X97.758 Y82.432 E3.92917
G1 X98.49 Y82.253 E3.94421
G1 X98.997 Y82.142 E3.95456
G1 X99.675 Y82.011 E3.96834
G1 X100.162 Y81.929 E3.9782
G1 X100.857 Y81.828 E3.99221
G1 X101.334 Y81.77 E4.0018
G1 X102.019 Y81.702 E4.01554
G1 X102.524 Y81.664 E4.02565
G1 X103.032 Y81.638 E4.0358
G1 X103.574 Y81.624 E4.04662
G1 X104.801 Y81.624 E4.0711
G1 X105.457 Y81.64 E4.0842
G1 X105.966 Y81.671 E4.09438
G1 X106.639 Y81.727 E4.10785
G1 X107.105 Y81.776 E4.1172
G1 X107.793 Y81.864 E4.13104
G1 X108.3 Y81.941 E4.14128
G1 X108.993 Y82.064 E4.15532
G1 X109.455 Y82.157 E4.16473
G1 X110.112 Y82.304 E4.17816
G1 X110.631 Y82.434 E4.18884
G1 X111.37 Y82.639 E4.20415
G1 X111.877 Y82.793 E4.21472
G1 X112.618 Y83.039 E4.2303
G1 X113.09 Y83.208 E4.24031
G1 X113.749 Y83.462 E4.2544
G1 X114.275 Y83.681 E4.26577
G1 X115.013 Y84.012 E4.28191
G1 X115.495 Y84.243 E4.29258
G1 X116.159 Y84.582 E4.30746
G1 X116.598 Y84.82 E4.31742
G1 X117.193 Y85.16 E4.3311
G1 X117.686 Y85.46 E4.34261
G1 X118.415 Y85.931 E4.35993
G1 X118.829 Y86.212 E4.36992
G1 X119.359 Y86.591 E4.38292
G1 X119.818 Y86.938 E4.3944
G1 X120.515 Y87.496 E4.41222
G1 X120.948 Y87.862 E4.42354
G1 X121.524 Y88.376 E4.43894
G1 X121.899 Y88.728 E4.44921
G1 X122.384 Y89.205 E4.46278
G1 X122.722 Y89.553 E4.47246
G1 X123.145 Y90.009 E4.48488
G1 X123.529 Y90.442 E4.49642
G1 X124.212 Y91.265 E4.51777
G1 X124.549 Y91.698 E4.52872
G1 X125.016 Y92.331 E4.54442
G1 X125.345 Y92.803 E4.5559
G1 X125.778 Y93.462 E4.57163
G1 X126.035 Y93.873 E4.58131
G1 X126.381 Y94.456 E4.59484
G1 X126.622 Y94.885 E4.60465
G1 X126.927 Y95.458 E4.61761
G1 X127.146 Y95.895 E4.62736
G1 X127.463 Y96.563 E4.64212
G1 X127.694 Y97.083 E4.65347
G1 X128.028 Y97.897 E4.67103
G1 X128.216 Y98.392 E4.6816
G1 X128.448 Y99.049 E4.6955
G1 X128.625 Y99.596 E4.70698
G1 X128.851 Y100.367 E4.72301
G1 X128.978 Y100.841 E4.7328
G1 X129.138 Y101.498 E4.7463
G1 X129.248 Y102.003 E4.75661
G1 X129.381 Y102.694 E4.77065
G1 X129.462 Y103.173 E4.78035
G1 X129.563 Y103.868 E4.79436
G1 X129.621 Y104.345 E4.80395
G1 X129.688 Y105.02 E4.81749
G1 X129.725 Y105.512 E4.82734
G1 X129.761 Y106.199 E4.84106
G1 X129.776 Y106.675 E4.85057
G1 X129.781 Y107.349 E4.86402
G1 X129.774 Y107.809 E4.8732
G1 X129.75 Y108.477 E4.88654
G1 X129.721 Y108.97 E4.89639
G1 X129.665 Y109.647 E4.90995
G1 X129.616 Y110.109 E4.91922
G1 X129.53 Y110.786 E4.93284
G1 X129.452 Y111.303 E4.94328
G1 X129.327 Y112.007 E4.95754
G1 X129.23 Y112.486 E4.9673
G1 X129.071 Y113.191 E4.98172
G1 X128.942 Y113.704 E4.99228
G1 X128.747 Y114.404 E5.00678
G1 X128.598 Y114.894 E5.017
G1 X128.365 Y115.597 E5.03178
G1 X128.194 Y116.073 E5.04187
G1 X127.932 Y116.753 E5.05641
G1 X127.739 Y117.22 E5.0665
G1 X127.473 Y117.823 E5.07965
G1 X127.239 Y118.318 E5.09058
G1 X126.832 Y119.125 E5.10861
G1 X126.572 Y119.609 E5.11958
G1 X126.239 Y120.192 E5.13298
G1 X125.996 Y120.597 E5.1424
G1 X125.687 Y121.086 E5.15394
G1 X125.414 Y121.496 E5.16377
G1 X124.901 Y122.23 E5.18164
G1 X124.511 Y122.753 E5.19466
G1 X123.934 Y123.479 E5.21317
G1 X123.547 Y123.939 E5.22517
G1 X123.02 Y124.53 E5.24097
G1 X122.667 Y124.908 E5.25129
G1 X122.191 Y125.392 E5.26484
G1 X121.844 Y125.728 E5.27448
G1 X121.14 Y126.375 E5.29356
G1 X120.685 Y126.765 E5.30552
G1 X120.123 Y127.226 E5.32002
G1 X119.693 Y127.561 E5.3309
G1 X119.06 Y128.028 E5.3466
G1 X118.666 Y128.305 E5.35621
G1 X118.239 Y128.591 E5.36647
G1 X117.754 Y128.902 E5.37796
G1 X116.957 Y129.38 E5.39651
G1 X116.523 Y129.625 E5.40646
G1 X115.989 Y129.91 E5.41853
G1 X115.556 Y130.129 E5.42822
G1 X114.817 Y130.481 E5.44455
G1 X114.279 Y130.719 E5.45629
G1 X113.525 Y131.028 E5.47255
G1 X113.043 Y131.212 E5.48285
G1 X112.351 Y131.457 E5.4975
G1 X111.828 Y131.627 E5.50847
G1 X111.164 Y131.824 E5.5223
G1 X110.695 Y131.952 E5.532
G1 X109.931 Y132.141 E5.5477
G1 X109.386 Y132.26 E5.55884
G1 X108.694 Y132.393 E5.5729
G1 X108.217 Y132.474 E5.58255
G1 X107.522 Y132.575 E5.59657
G1 X107.047 Y132.633 E5.60612
G1 X106.373 Y132.7 E5.61964
G1 X105.876 Y132.738 E5.62958
G1 X105.186 Y132.774 E5.64337
G1 X104.713 Y132.788 E5.65281
G1 X104.046 Y132.793 E5.66613
G1 X103.591 Y132.786 E5.67521
G1 X102.915 Y132.762 E5.68871
G1 X102.412 Y132.732 E5.69876
G1 X101.739 Y132.676 E5.71224
G1 X101.271 Y132.627 E5.72163
G1 X100.584 Y132.539 E5.73545
G1 X100.079 Y132.462 E5.74564
G1 X99.386 Y132.339 E5.75969
G1 X98.92 Y132.245 E5.76918
G1 X98.215 Y132.087 E5.7836
G1 X97.669 Y131.95 E5.79483
G1 X96.96 Y131.751 E5.80952
G1 X96.494 Y131.608 E5.81925
G1 X95.799 Y131.378 E5.83386
G1 X95.307 Y131.202 E5.84429
G1 X94.624 Y130.938 E5.8589
G1 X94.132 Y130.734 E5.86953
G1 X93.407 Y130.411 E5.88537
G1 X92.902 Y130.169 E5.89655
G1 X92.226 Y129.824 E5.91169
G1 X91.793 Y129.59 E5.92151
G1 X91.204 Y129.254 E5.93504
G1 X90.794 Y129.008 E5.94459
G1 X90.017 Y128.511 E5.96299
G1 X89.524 Y128.173 E5.97492
G1 X89.078 Y127.855 E5.98585
G1 X88.681 Y127.557 E5.99576
G1 X88.073 Y127.079 E6.01119
G1 X87.604 Y126.688 E6.02338
G1 X86.889 Y126.056 E6.04242
G1 X86.477 Y125.672 E6.05366
G1 X85.996 Y125.199 E6.06712
G1 X85.651 Y124.844 E6.077
G1 X85.212 Y124.37 E6.0899
G1 X84.887 Y124.002 E6.09969
G1 X84.154 Y123.122 E6.12255
G1 X83.801 Y122.664 E6.13409
G1 X83.372 Y122.083 E6.1485
G1 X83.055 Y121.631 E6.15952
G1 X82.642 Y121.006 E6.17447
G1 X82.383 Y120.593 E6.1842
G1 X82.028 Y119.998 E6.19802
G1 X81.789 Y119.575 E6.20772
G1 X81.484 Y119.006 E6.2206
G1 X81.245 Y118.534 E6.23116
G1 X80.889 Y117.782 E6.24776
G1 X80.647 Y117.231 E6.25977
G1 X80.318 Y116.42 E6.27724
G1 X80.138 Y115.942 E6.28743
G1 X79.921 Y115.323 E6.30052
G1 X79.759 Y114.82 E6.31107
G1 X79.553 Y114.123 E6.32557
G1 X79.421 Y113.637 E6.33562
G1 X79.241 Y112.901 E6.35074
G1 X79.13 Y112.394 E6.3611
G1 X78.999 Y111.716 E6.37488
G1 X78.917 Y111.227 E6.38477
G1 X78.815 Y110.524 E6.39895
G1 X78.757 Y110.048 E6.40852
G1 X78.707 Y109.544 E6.41863
G1 X78.665 Y108.96 E6.43031
G1 X78.61 Y107.7 E6.45548
G1 X78.598 Y107.095 E6.46756
G0 F6000 X78.998 Y107.091
G1 F1200 X79.004 Y106.641 E6.47654
G1 X79.029 Y105.939 E6.49056
G1 X79.058 Y105.459 E6.50015
G1 X79.114 Y104.784 E6.51367
G1 X79.16 Y104.342 E6.52254
G1 X79.247 Y103.657 E6.53632
G1 X79.323 Y103.157 E6.54641
G1 X79.446 Y102.465 E6.56044
G1 X79.535 Y102.023 E6.56943
