;FLAVOR:Marlin
;TIME:1599
;Filament used: 1.28224m
;Layer height: 0.2
;MINX:89
;MINY:89
;MINZ:0.2
;MAXX:131
;MAXY:131
;MAXZ:20
;Generated with Cura_SteamEngine main
M82 ;absolute extrusion mode
; Ender 3 Custom Start G-code
G92 E0 ; Reset Extruder
G28 ; Home all axes
M104 S175 ; Start heating up the nozzle most of the way
M190 S60 ; Start heating the bed, wait until target temperature reached
M109 S200 ; Finish heating the nozzle
G1 Z2.0 F3000 ; Move Z Axis up little to prevent scratching of Heat Bed
G1 X0.1 Y20 Z0.3 F5000.0 ; Move to start position
G1 X0.1 Y200.0 Z0.3 F1500.0 E15 ; Draw the first line
G1 X0.4 Y200.0 Z0.3 F5000.0 ; Move to side a little
G1 X0.4 Y20 Z0.3 F1500.0 E30 ; Draw the second line
G92 E0 ; Reset Extruder
G1 Z2.0 F3000 ; Move Z Axis up little to prevent scratching of Heat Bed
G1 X5 Y20 Z0.3 F5000.0 ; Move over to prevent blob squish
G92 E0
G92 E0
G1 F1500 E-6.5
;LAYER_COUNT:100
;LAYER:0
M107
G0 F6000 X92.198 Y92.264 Z0.2
G0 X89.001 Y100.525
;TYPE:SKIRT
G1 F1500 E0
G1 F1200 X89.01 Y99.86 E0.02212
G1 X89.063 Y98.924 E0.0533
G1 X89.195 Y97.995 E0.08451
G1 X89.406 Y97.081 E0.11571
G1 X89.694 Y96.189 E0.14689
G1 X90.057 Y95.324 E0.17809
G1 X90.492 Y94.493 E0.20928
G1 X90.996 Y93.703 E0.24045
G1 X91.566 Y92.958 E0.27165
G1 X92.198 Y92.264 E0.30287
G1 X92.886 Y91.627 E0.33405
G1 X93.626 Y91.051 E0.36524
G1 X94.412 Y90.539 E0.39644
G1 X95.239 Y90.097 E0.42763
G1 X96.101 Y89.727 E0.45883
G1 X96.991 Y89.431 E0.49003
G1 X97.903 Y89.213 E0.52122
G1 X98.83 Y89.072 E0.5524
G1 X99.701 Y89.013 E0.58144
G1 X100.33 Y89 E0.60236
G1 X119.451 Y89.001 E1.23833
G1 X120.149 Y89.011 E1.26155
G1 X121.085 Y89.065 E1.29273
G1 X122.013 Y89.197 E1.32391
G1 X122.927 Y89.409 E1.35511
G1 X123.819 Y89.698 E1.3863
G1 X124.684 Y90.061 E1.4175
G1 X125.514 Y90.497 E1.44868
G1 X126.305 Y91.002 E1.4799
G1 X127.049 Y91.573 E1.51109
G1 X127.742 Y92.205 E1.54229
G1 X128.379 Y92.893 E1.57347
G1 X128.954 Y93.634 E1.60467
G1 X129.465 Y94.42 E1.63585
G1 X129.907 Y95.248 E1.66707
G1 X130.276 Y96.11 E1.69825
G1 X130.571 Y97 E1.72944
G1 X130.789 Y97.912 E1.76063
G1 X130.929 Y98.84 E1.79184
G1 X130.987 Y99.701 E1.82054
G1 X131 Y100.33 E1.84147
G1 X130.999 Y119.4 E2.47574
G1 X130.99 Y120.127 E2.49992
G1 X130.939 Y121.064 E2.53113
G1 X130.807 Y121.992 E2.56231
G1 X130.598 Y122.906 E2.59349
G1 X130.311 Y123.799 E2.62469
G1 X129.949 Y124.665 E2.65591
G1 X129.515 Y125.496 E2.68709
G1 X129.011 Y126.287 E2.71828
G1 X128.442 Y127.032 E2.74946
G1 X127.811 Y127.727 E2.78069
G1 X127.124 Y128.365 E2.81187
G1 X126.385 Y128.942 E2.84305
G1 X125.599 Y129.454 E2.87425
G1 X124.773 Y129.897 E2.90543
G1 X123.911 Y130.269 E2.93665
G1 X123.022 Y130.565 E2.96782
G1 X122.11 Y130.785 E2.99902
G1 X121.183 Y130.926 E3.03021
G1 X120.299 Y130.987 E3.05968
G1 X119.67 Y131 E3.0806
G1 X100.565 Y130.999 E3.71604
G1 X99.867 Y130.99 E3.73926
G1 X98.931 Y130.938 E3.77044
G1 X98.002 Y130.806 E3.80165
G1 X97.088 Y130.596 E3.83284
G1 X96.195 Y130.309 E3.86403
G1 X95.33 Y129.946 E3.89524
G1 X94.499 Y129.512 E3.92642
G1 X93.708 Y129.008 E3.95761
G1 X92.963 Y128.438 E3.98881
G1 X92.269 Y127.807 E4.02001
G1 X91.632 Y127.12 E4.05117
G1 X91.055 Y126.38 E4.08238
G1 X90.543 Y125.594 E4.11358
G1 X90.1 Y124.767 E4.14478
G1 X89.729 Y123.906 E4.17597
G1 X89.433 Y123.016 E4.20716
G1 X89.214 Y122.104 E4.23836
G1 X89.073 Y121.177 E4.26954
G1 X89.013 Y120.288 E4.29918
G1 X89 Y119.658 E4.32014
G1 X89.001 Y100.525 E4.9565
G0 F6000 X89.401 Y100.531
G1 F1200 X89.41 Y99.866 E4.97862
G1 X89.462 Y98.946 E5.00927
G1 X89.594 Y98.035 E5.03989
G1 X89.805 Y97.139 E5.0705
G1 X90.092 Y96.264 E5.10113
G1 X90.455 Y95.418 E5.13175
G1 X90.889 Y94.606 E5.16237
G1 X91.392 Y93.835 E5.19299
G1 X91.961 Y93.111 E5.22362
G1 X92.589 Y92.439 E5.25421
G1 X93.274 Y91.823 E5.28485
G1 X94.01 Y91.27 E5.31547
G1 X94.791 Y90.782 E5.3461
G1 X95.611 Y90.364 E5.37671
G1 X96.465 Y90.019 E5.40735
G1 X97.345 Y89.749 E5.43796
G1 X98.245 Y89.557 E5.46857
G1 X99.159 Y89.443 E5.49921
G1 X99.712 Y89.413 E5.51763
G1 X100.33 Y89.4 E5.53819
G1 X119.293 Y89.4 E6.1689
G1 X120.143 Y89.411 E6.19717
G1 X121.062 Y89.464 E6.22779
G1 X121.973 Y89.597 E6.25841
G1 X122.869 Y89.808 E6.28903
G1 X123.743 Y90.096 E6.31963
G1 X124.59 Y90.459 E6.35028
G1 X125.401 Y90.894 E6.38089
G1 X126.171 Y91.398 E6.4115
G1 X126.895 Y91.967 E6.44213
G1 X127.567 Y92.597 E6.47276
G1 X128.182 Y93.282 E6.50338
G1 X128.735 Y94.018 E6.534
G1 X129.222 Y94.799 E6.56461
G1 X129.639 Y95.62 E6.59524
G1 X129.984 Y96.474 E6.62588
G1 X130.253 Y97.354 E6.65648
G1 X130.445 Y98.255 E6.68712
G1 X130.558 Y99.168 E6.71772
G1 X130.587 Y99.712 E6.73584
G1 X130.6 Y100.33 E6.7564
G1 X130.599 Y119.395 E7.3905
G1 X130.59 Y120.122 E7.41468
G1 X130.539 Y121.041 E7.4453
G1 X130.408 Y121.953 E7.47594
G1 X130.198 Y122.849 E7.50655
G1 X129.912 Y123.724 E7.53717
G1 X129.551 Y124.571 E7.56779
G1 X129.117 Y125.383 E7.59841
G1 X128.615 Y126.155 E7.62904
G1 X128.047 Y126.88 E7.65968
G1 X127.419 Y127.553 E7.69029
G1 X126.735 Y128.169 E7.72091
G1 X126 Y128.723 E7.75152
G1 X125.22 Y129.212 E7.78214
G1 X124.4 Y129.631 E7.81277
G1 X123.547 Y129.977 E7.84338
G1 X122.667 Y130.248 E7.87401
G1 X121.767 Y130.441 E7.90462
G1 X120.853 Y130.556 E7.93526
G1 X120.288 Y130.587 E7.95408
G1 X119.67 Y130.6 E7.97464
G1 X100.57 Y130.599 E8.60991
G1 X99.872 Y130.59 E8.63313
G1 X98.953 Y130.538 E8.66374
G1 X98.042 Y130.407 E8.69435
G1 X97.146 Y130.197 E8.72496
G1 X96.271 Y129.91 E8.75559
G1 X95.424 Y129.548 E8.78623
G1 X94.612 Y129.114 E8.81685
G1 X93.841 Y128.612 E8.84745
G1 X93.116 Y128.044 E8.87808
G1 X92.443 Y127.415 E8.90872
G1 X91.828 Y126.731 E8.93932
G1 X91.274 Y125.996 E8.96993
G1 X90.786 Y125.215 E9.00056
G1 X90.367 Y124.395 E9.03119
G1 X90.021 Y123.542 E9.0618
G1 X89.751 Y122.662 E9.09242
G1 X89.558 Y121.761 E9.12307
G1 X89.444 Y120.848 E9.15367
G1 X89.413 Y120.277 E9.17269
G1 X89.4 Y119.658 E9.19328
G1 X89.401 Y100.531 E9.82945
G0 F6000 X89.801 Y100.536
G1 F1200 X89.81 Y99.871 E9.85157
G1 X89.862 Y98.969 E9.88162
G1 X89.994 Y98.076 E9.91164
G1 X90.204 Y97.198 E9.94167
G1 X90.491 Y96.341 E9.97173
G1 X90.853 Y95.514 E10.00175
G1 X91.286 Y94.722 E10.03177
G1 X91.788 Y93.971 E10.06182
G1 X92.355 Y93.267 E10.09188
G1 X92.981 Y92.617 E10.1219
G1 X93.662 Y92.024 E10.15193
G1 X94.394 Y91.494 E10.18199
G1 X95.169 Y91.031 E10.21202
G1 X95.982 Y90.638 E10.24205
G1 X96.827 Y90.318 E10.2721
G1 X97.696 Y90.075 E10.30212
G1 X98.584 Y89.909 E10.33216
G1 X99.723 Y89.813 E10.37018
G1 X100.33 Y89.8 E10.39037
G1 X119.293 Y89.8 E11.02109
G1 X120.137 Y89.811 E11.04916
G1 X121.039 Y89.864 E11.07921
G1 X121.932 Y89.996 E11.10924
G1 X122.81 Y90.207 E11.13927
G1 X123.666 Y90.495 E11.16931
G1 X124.493 Y90.857 E11.19933
G1 X125.285 Y91.292 E11.22939
G1 X126.036 Y91.794 E11.25943
G1 X126.739 Y92.361 E11.28947
G1 X127.389 Y92.988 E11.31951
G1 X127.981 Y93.67 E11.34955
G1 X128.511 Y94.401 E11.37958
G1 X128.973 Y95.177 E11.40962
G1 X129.366 Y95.99 E11.43965
G1 X129.684 Y96.835 E11.46968
G1 X129.927 Y97.705 E11.49972
G1 X130.092 Y98.593 E11.52976
G1 X130.187 Y99.723 E11.56748
G1 X130.2 Y100.33 E11.58767
G1 X130.199 Y119.39 E12.22161
G1 X130.19 Y120.117 E12.24579
G1 X130.139 Y121.019 E12.27584
G1 X130.008 Y121.913 E12.30589
G1 X129.799 Y122.791 E12.33591
G1 X129.513 Y123.648 E12.36596
G1 X129.152 Y124.476 E12.39601
G1 X128.72 Y125.268 E12.42601
G1 X128.219 Y126.02 E12.45607
G1 X127.653 Y126.724 E12.48611
G1 X127.028 Y127.375 E12.51613
G1 X126.347 Y127.969 E12.54618
G1 X125.616 Y128.5 E12.57623
G1 X124.842 Y128.964 E12.60625
G1 X124.029 Y129.358 E12.6363
G1 X123.185 Y129.678 E12.66632
G1 X122.315 Y129.923 E12.69638
G1 X121.428 Y130.089 E12.72639
G1 X120.277 Y130.187 E12.76481
G1 X119.67 Y130.2 E12.78501
G1 X100.575 Y130.199 E13.42011
G1 X99.877 Y130.19 E13.44333
G1 X98.976 Y130.139 E13.47334
G1 X98.082 Y130.007 E13.5034
G1 X97.204 Y129.798 E13.53342
G1 X96.347 Y129.511 E13.56348
G1 X95.52 Y129.15 E13.59349
G1 X94.727 Y128.717 E13.62354
G1 X93.976 Y128.216 E13.65357
G1 X93.272 Y127.65 E13.68361
G1 X92.621 Y127.024 E13.71365
G1 X92.028 Y126.343 E13.74368
G1 X91.498 Y125.612 E13.77372
G1 X91.034 Y124.837 E13.80376
G1 X90.64 Y124.024 E13.83381
G1 X90.32 Y123.18 E13.86383
G1 X90.076 Y122.31 E13.89388
G1 X89.91 Y121.422 E13.92393
G1 X89.813 Y120.267 E13.96248
G1 X89.8 Y119.658 E13.98274
G1 X89.801 Y100.536 E14.61874
G1 F1500 E8.11874
;MESH:20x20 cube.stl
G0 F6000 X99.335 Y100.536
G0 X100.6 Y119.4
;TYPE:WALL-INNER
G1 F1500 E14.61874
G1 F1200 X119.4 Y119.4 E15.24403
G1 X119.4 Y110 E15.55668
G1 X119.4 Y100.6 E15.86932
G1 X100.6 Y100.6 E16.49461
G1 X100.6 Y119.4 E17.1199
G0 F6000 X100.2 Y119.8
;TYPE:WALL-OUTER
G1 F1200 X119.8 Y119.8 E17.7718
G1 X119.8 Y110 E18.09775
G1 X119.8 Y100.2 E18.4237
G1 X100.2 Y100.2 E19.0756
G1 X100.2 Y119.8 E19.7275
G0 F6000 X100.47 Y119.53
G0 X100.7 Y119
G0 X101 Y119
;TYPE:SKIN
G1 F1200 X119 Y119 E20.32618
G1 X119 Y110 E20.62552
G1 X119 Y101 E20.92486
G1 X101 Y101 E21.52354
G1 X101 Y119 E22.12223
G0 F6000 X101.4 Y118.6
G1 F1200 X118.6 Y118.6 E22.6943
G1 X118.6 Y110 E22.98034
G1 X118.6 Y101.4 E23.26637
G1 X101.4 Y101.4 E23.83845
G1 X101.4 Y118.6 E24.41052
G0 F6000 X101.8 Y118.2
G1 F1200 X118.2 Y118.2 E24.95599
G1 X118.2 Y110 E25.22872
G1 X118.2 Y101.8 E25.50146
G1 X101.8 Y101.8 E26.04692
G1 X101.8 Y118.2 E26.59239
G0 F6000 X102.2 Y117.8
G1 F1200 X117.8 Y117.8 E27.11125
G1 X117.8 Y110 E27.37068
G1 X117.8 Y102.2 E27.6301
G1 X102.2 Y102.2 E28.14896
G1 X102.2 Y117.8 E28.66782
G0 F6000 X102.6 Y117.4
G1 F1200 X117.4 Y117.4 E29.16007
G1 X117.4 Y102.6 E29.65232
G1 X102.6 Y102.6 E30.14457
G1 X102.6 Y117.4 E30.63682
G0 F6000 X103 Y117
G1 F1200 X117 Y117 E31.10246
G1 X117 Y110 E31.33528
G1 X117 Y103 E31.5681
G1 X103 Y103 E32.03375
G1 X103 Y117 E32.49939
G0 F6000 X103.4 Y116.6
G1 F1200 X116.6 Y116.6 E32.93842
G1 X116.6 Y110 E33.15794
G1 X116.6 Y103.4 E33.37746
G1 X103.4 Y103.4 E33.81649
G1 X103.4 Y116.6 E34.25552
G0 F6000 X103.8 Y116.2
G1 F1200 X116.2 Y116.2 E34.66795
G1 X116.2 Y110 E34.87416
G1 X116.2 Y103.8 E35.08037
G1 X103.8 Y103.8 E35.4928
G1 X103.8 Y116.2 E35.90523
G0 F6000 X104.2 Y115.8
G1 F1200 X115.8 Y115.8 E36.29104
G1 X115.8 Y104.2 E36.67686
G1 X110 Y104.2 E36.86977
G1 X104.2 Y104.2 E37.06268
G1 X104.2 Y115.8 E37.4485
G0 F6000 X104.6 Y115.4
G1 F1200 X115.4 Y115.4 E37.80771
G1 X115.4 Y110 E37.98731
G1 X115.4 Y104.6 E38.16691
G1 X104.6 Y104.6 E38.52612
G1 X104.6 Y115.4 E38.88533
G0 F6000 X105 Y115
G1 F1200 X115 Y115 E39.21794
G1 X115 Y110 E39.38424
G1 X115 Y105 E39.55054
G1 X105 Y105 E39.88314
G1 X105 Y115 E40.21574
G0 F6000 X105.4 Y114.6
G1 F1200 X114.6 Y114.6 E40.52173
G1 X114.6 Y110 E40.67473
G1 X114.6 Y105.4 E40.82773
G1 X105.4 Y105.4 E41.13372
G1 X105.4 Y114.6 E41.43971
G0 F6000 X105.8 Y114.2
G1 F1200 X114.2 Y114.2 E41.7191
G1 X114.2 Y110 E41.85879
G1 X114.2 Y105.8 E41.99848
G1 X105.8 Y105.8 E42.27787
G1 X105.8 Y114.2 E42.55725
G0 F6000 X106.2 Y113.8
G1 F1200 X113.8 Y113.8 E42.81003
G1 X113.8 Y106.2 E43.06281
G1 X106.2 Y106.2 E43.31558
G1 X106.2 Y110 E43.44197
G1 X106.2 Y113.8 E43.56836
G0 F6000 X106.6 Y113.4
G1 F1200 X113.4 Y113.4 E43.79453
G1 X113.4 Y106.6 E44.0207
G1 X106.6 Y106.6 E44.24687
G1 X106.6 Y113.4 E44.47304
G0 F6000 X107 Y113
G1 F1200 X113 Y113 E44.6726
G1 X113 Y110 E44.77238
G1 X113 Y107 E44.87216
G1 X107 Y107 E45.07172
G1 X107 Y113 E45.27128
G0 F6000 X107.4 Y112.6
G1 F1200 X112.6 Y112.6 E45.44423
G1 X112.6 Y110 E45.53071
G1 X112.6 Y107.4 E45.61719
G1 X107.4 Y107.4 E45.79014
G1 X107.4 Y112.6 E45.96309
G0 F6000 X107.8 Y112.2
G1 F1200 X112.2 Y112.2 E46.10944
G1 X112.2 Y110 E46.18261
G1 X112.2 Y107.8 E46.25578
G1 X107.8 Y107.8 E46.40212
G1 X107.8 Y112.2 E46.54847
G0 F6000 X108.2 Y111.8
G1 F1200 X111.8 Y111.8 E46.66821
G1 X111.8 Y110 E46.72807
G1 X111.8 Y108.2 E46.78794
G1 X108.2 Y108.2 E46.90768
G1 X108.2 Y111.8 E47.02741
G0 F6000 X108.6 Y111.4
G1 F1200 X111.4 Y111.4 E47.12054
G1 X111.4 Y110 E47.16711
G1 X111.4 Y108.6 E47.21367
G1 X108.6 Y108.6 E47.3068
G1 X108.6 Y111.4 E47.39993
G0 F6000 X109 Y111
G1 F1200 X111 Y111 E47.46645
G1 X111 Y110 E47.49971
G1 X111 Y109 E47.53297
G1 X109 Y109 E47.59949
G1 X109 Y111 E47.66601
G0 F6000 X109.4 Y110.6
G1 F1200 X110.6 Y110.6 E47.70592
G1 X110.6 Y110 E47.72588
G1 X110.6 Y109.4 E47.74583
G1 X109.4 Y109.4 E47.78575
G1 X109.4 Y110.6 E47.82566
G0 F6000 X109.8 Y110.2
M104 S200
G1 F1200 X110.2 Y110.2 E47.83896
G1 X110.2 Y110 E47.84561
G1 X110.2 Y109.8 E47.85227
G1 X109.8 Y109.8 E47.86557
G1 X109.8 Y110.2 E47.87887
G1 F1500 E41.37887
;MESH:NONMESH
G0 F300 X109.8 Y110.2 Z0.4
G0 F6000 X100.8 Y110.2
G0 X100.6 Y119.4
;TIME_ELAPSED:81.959222
;LAYER:1
M106 S85
;TYPE:WALL-INNER
;MESH:20x20 cube.stl
G1 F1500 E47.87887
G1 F1350 X119.4 Y119.4 E48.50416
G1 X119.4 Y110 E48.81681
G1 X119.4 Y100.6 E49.12946
G1 X100.6 Y100.6 E49.75475
G1 X100.6 Y119.4 E50.38004
G0 F7500 X100.2 Y119.8
;TYPE:WALL-OUTER
G1 F1350 X119.8 Y119.8 E51.03194
G1 X119.8 Y110 E51.35788
G1 X119.8 Y100.2 E51.68383
G1 X100.2 Y100.2 E52.33573
G1 X100.2 Y119.8 E52.98763
G0 F7500 X100.47 Y119.53
G0 X100.7 Y119
G0 X101 Y119
;TYPE:SKIN
G1 F1350 X119 Y119 E53.58631
G1 X119 Y110 E53.88565
G1 X119 Y101 E54.185
G1 X101 Y101 E54.78368
G1 X101 Y119 E55.38236
G0 F7500 X101.4 Y118.6
G1 F1350 X110 Y118.6 E55.6684
G1 X118.6 Y118.6 E55.95444
G1 X118.6 Y101.4 E56.52651
G1 X101.4 Y101.4 E57.09858
G1 X101.4 Y118.6 E57.67066
G0 F7500 X101.8 Y118.2
G1 F1350 X118.2 Y118.2 E58.21612
G1 X118.2 Y110 E58.48886
G1 X118.2 Y101.8 E58.76159
G1 X101.8 Y101.8 E59.30706
G1 X101.8 Y118.2 E59.85252
G0 F7500 X102.2 Y117.8
G1 F1350 X117.8 Y117.8 E60.37138
G1 X117.8 Y110 E60.63081
G1 X117.8 Y102.2 E60.89024
G1 X102.2 Y102.2 E61.4091
G1 X102.2 Y117.8 E61.92796
G0 F7500 X102.6 Y117.4
G1 F1350 X117.4 Y117.4 E62.42021
G1 X117.4 Y110 E62.66633
G1 X117.4 Y102.6 E62.91246
G1 X102.6 Y102.6 E63.40471
G1 X102.6 Y117.4 E63.89696
G0 F7500 X103 Y117
G1 F1350 X117 Y117 E64.3626
G1 X117 Y103 E64.82824
G1 X103 Y103 E65.29388
G1 X103 Y117 E65.75952
G0 F7500 X103.4 Y116.6
G1 F1350 X116.6 Y116.6 E66.19856
G1 X116.6 Y110 E66.41807
G1 X116.6 Y103.4 E66.63759
G1 X103.4 Y103.4 E67.07662
G1 X103.4 Y116.6 E67.51566
G0 F7500 X103.8 Y116.2
G1 F1350 X116.2 Y116.2 E67.92808
G1 X116.2 Y110 E68.1343
G1 X116.2 Y103.8 E68.34051
G1 X103.8 Y103.8 E68.75294
G1 X103.8 Y116.2 E69.16536
G0 F7500 X104.2 Y115.8
G1 F1350 X115.8 Y115.8 E69.55118
G1 X115.8 Y104.2 E69.937
G1 X110 Y104.2 E70.1299
G1 X104.2 Y104.2 E70.32281
G1 X104.2 Y115.8 E70.70863
G0 F7500 X104.6 Y115.4
G1 F1350 X115.4 Y115.4 E71.06784
G1 X115.4 Y110 E71.24745
G1 X115.4 Y104.6 E71.42705
G1 X104.6 Y104.6 E71.78626
G1 X104.6 Y115.4 E72.14547
G0 F7500 X105 Y115
G1 F1350 X115 Y115 E72.47807
G1 X115 Y110 E72.64437
G1 X115 Y105 E72.81067
G1 X105 Y105 E73.14327
G1 X105 Y115 E73.47587
G0 F7500 X105.4 Y114.6
G1 F1350 X114.6 Y114.6 E73.78187
G1 X114.6 Y110 E73.93486
G1 X114.6 Y105.4 E74.08786
G1 X105.4 Y105.4 E74.39385
G1 X105.4 Y114.6 E74.69985
G0 F7500 X105.8 Y114.2
G1 F1350 X114.2 Y114.2 E74.97923
G1 X114.2 Y110 E75.11893
G1 X114.2 Y105.8 E75.25862
G1 X105.8 Y105.8 E75.538
G1 X105.8 Y114.2 E75.81739
G0 F7500 X106.2 Y113.8
G1 F1350 X113.8 Y113.8 E76.07016
G1 X113.8 Y110 E76.19655
G1 X113.8 Y106.2 E76.32294
G1 X106.2 Y106.2 E76.57572
G1 X106.2 Y113.8 E76.8285
G0 F7500 X106.6 Y113.4
G1 F1350 X113.4 Y113.4 E77.05466
G1 X113.4 Y110 E77.16775
G1 X113.4 Y106.6 E77.28083
G1 X106.6 Y106.6 E77.507
G1 X106.6 Y113.4 E77.73317
G0 F7500 X107 Y113
G1 F1350 X113 Y113 E77.93273
G1 X113 Y110 E78.03251
G1 X113 Y107 E78.13229
G1 X107 Y107 E78.33185
G1 X107 Y113 E78.53141
G0 F7500 X107.4 Y112.6
G1 F1350 X112.6 Y112.6 E78.70437
G1 X112.6 Y110 E78.79084
G1 X112.6 Y107.4 E78.87732
G1 X107.4 Y107.4 E79.05027
G1 X107.4 Y112.6 E79.22323
G0 F7500 X107.8 Y112.2
G1 F1350 X112.2 Y112.2 E79.36957
G1 X112.2 Y110 E79.44274
G1 X112.2 Y107.8 E79.51591
G1 X107.8 Y107.8 E79.66226
G1 X107.8 Y112.2 E79.8086
G0 F7500 X108.2 Y111.8
G1 F1350 X111.8 Y111.8 E79.92834
G1 X111.8 Y110 E79.98821
G1 X111.8 Y108.2 E80.04808
G1 X108.2 Y108.2 E80.16781
G1 X108.2 Y111.8 E80.28755
G0 F7500 X108.6 Y111.4
G1 F1350 X111.4 Y111.4 E80.38068
G1 X111.4 Y110 E80.42724
G1 X111.4 Y108.6 E80.47381
G1 X108.6 Y108.6 E80.56694
G1 X108.6 Y111.4 E80.66006
G0 F7500 X109 Y111
G1 F1350 X111 Y111 E80.72658
