;FLAVOR:Marlin
;TIME:11008
;Filament used: 3.7199m
;Layer height: 0.12
;MINX:84.876
;MINY:93.553
;MINZ:0.12
;MAXX:135.126
;MAXY:126.315
;MAXZ:30
;Generated with Cura_SteamEngine main
M82 ;absolute extrusion mode
; Ender 3 Custom Start G-code
G92 E0 ; Reset Extruder
G28 ; Home all axes
M104 S175 ; Start heating up the nozzle most of the way
M190 S60 ; Start heating the bed, wait until target temperature reached
M109 S200 ; Finish heating the nozzle
G1 Z2.0 F3000 ; Move Z Axis up little to prevent scratching of Heat Bed
G1 X0.1 Y20 Z0.3 F5000.0 ; Move to start position
G1 X0.1 Y200.0 Z0.3 F1500.0 E15 ; Draw the first line
G1 X0.4 Y200.0 Z0.3 F5000.0 ; Move to side a little
G1 X0.4 Y20 Z0.3 F1500.0 E30 ; Draw the second line
G92 E0 ; Reset Extruder
G1 Z2.0 F3000 ; Move Z Axis up little to prevent scratching of Heat Bed
G1 X5 Y20 Z0.3 F5000.0 ; Move over to prevent blob squish
G92 E0
G92 E0
G1 F1500 E-6.5
;LAYER_COUNT:250
;LAYER:0
M107
G0 F6000 X92.566 Y96.109 Z0.12
G0 X85.604 Y106.574
;TYPE:SKIRT
G1 F1500 E0
G1 F1200 X85.885 Y105.836 E0.01576
G1 X86.239 Y105.13 E0.03152
G1 X86.663 Y104.463 E0.04729
G1 X87.152 Y103.843 E0.06305
G1 X87.701 Y103.276 E0.0788
G1 X88.436 Y102.669 E0.09782
G1 X89.391 Y101.977 E0.12136
G1 X89.6 Y101.317 E0.13517
G1 X89.881 Y100.579 E0.15093
G1 X90.235 Y99.874 E0.16668
G1 X90.401 Y99.613 E0.17285
G1 X90.468 Y99.406 E0.17719
G1 X90.749 Y98.668 E0.19295
G1 X91.103 Y97.963 E0.20869
G1 X91.527 Y97.296 E0.22447
G1 X92.016 Y96.676 E0.24022
G1 X92.566 Y96.109 E0.25599
G1 X93.296 Y95.506 E0.27488
G1 X93.848 Y95.104 E0.28851
G1 X94.509 Y94.672 E0.30427
G1 X95.211 Y94.309 E0.32004
G1 X95.945 Y94.019 E0.33579
G1 X96.705 Y93.804 E0.35155
G1 X97.483 Y93.668 E0.36731
G1 X98.44 Y93.609 E0.38645
G1 X99.122 Y93.609 E0.40006
G1 X99.911 Y93.649 E0.41582
G1 X100.691 Y93.768 E0.43157
G1 X101.449 Y93.964 E0.44719
G1 X101.814 Y93.86 E0.45477
G1 X102.592 Y93.72 E0.47054
G1 X103.379 Y93.66 E0.48629
G1 X104.094 Y93.675 E0.50056
G1 X105.838 Y93.791 E0.53544
G1 X106.622 Y93.883 E0.5512
G1 X107.139 Y93.998 E0.56177
G1 X107.253 Y93.981 E0.56407
G1 X108.042 Y93.947 E0.57983
G1 X108.634 Y93.974 E0.59165
G1 X109.914 Y94.081 E0.61729
G1 X110.306 Y93.965 E0.62544
G1 X111.36 Y93.784 E0.64679
G1 X113.261 Y93.592 E0.68492
G1 X114.05 Y93.553 E0.70068
G1 X114.892 Y93.601 E0.71751
G1 X115.374 Y93.566 E0.72715
G1 X116.05 Y93.566 E0.74064
G1 X116.839 Y93.606 E0.75641
G1 X117.619 Y93.725 E0.77216
G1 X118.384 Y93.923 E0.78793
G1 X118.755 Y94.06 E0.79582
G1 X119.567 Y94.014 E0.81205
G1 X120.356 Y94.009 E0.82779
G1 X121.143 Y94.084 E0.84357
G1 X121.917 Y94.237 E0.85932
G1 X121.958 Y94.251 E0.86018
G1 X122.655 Y94.24 E0.87409
G1 X123.442 Y94.307 E0.88985
G1 X124.218 Y94.454 E0.90561
G1 X124.975 Y94.679 E0.92137
G1 X125.706 Y94.979 E0.93714
G1 X126.402 Y95.351 E0.95289
G1 X126.971 Y95.728 E0.96651
G1 X127.518 Y96.126 E0.98001
G1 X128.132 Y96.622 E0.99576
G1 X128.693 Y97.178 E1.01153
G1 X129.195 Y97.788 E1.02729
G1 X129.633 Y98.445 E1.04305
G1 X130.001 Y99.143 E1.0588
G1 X130.345 Y100.015 E1.0775
G1 X130.613 Y100.836 E1.09474
G1 X131.564 Y101.524 E1.11816
G1 X132.179 Y102.02 E1.13393
G1 X132.739 Y102.576 E1.14968
G1 X133.241 Y103.186 E1.16544
G1 X133.679 Y103.843 E1.1812
G1 X134.048 Y104.542 E1.19697
G1 X134.392 Y105.416 E1.21572
G1 X134.743 Y106.494 E1.23834
G1 X134.949 Y107.256 E1.25409
G1 X135.077 Y108.036 E1.26987
G1 X135.126 Y108.824 E1.28562
G1 X135.094 Y109.613 E1.30138
G1 X134.983 Y110.395 E1.31714
G1 X134.743 Y111.324 E1.33629
G1 X134.392 Y112.402 E1.35892
G1 X134.11 Y113.139 E1.37466
G1 X133.754 Y113.845 E1.39044
G1 X133.329 Y114.51 E1.40619
G1 X132.84 Y115.13 E1.42195
G1 X132.289 Y115.696 E1.43771
G1 X131.564 Y116.294 E1.45647
G1 X130.646 Y116.962 E1.47913
G1 X130.337 Y117.164 E1.48649
G1 X130.271 Y117.632 E1.49592
G1 X130.031 Y118.559 E1.51503
G1 X129.838 Y119.152 E1.52748
G1 X129.556 Y119.89 E1.54324
G1 X129.201 Y120.595 E1.559
G1 X128.776 Y121.261 E1.57476
G1 X128.286 Y121.88 E1.59052
G1 X127.906 Y122.272 E1.60141
G1 X127.7 Y122.568 E1.60861
G1 X127.217 Y123.193 E1.62437
G1 X126.673 Y123.765 E1.64013
G1 X125.891 Y124.418 E1.66046
G1 X125.338 Y124.821 E1.67411
G1 X124.677 Y125.253 E1.68987
G1 X123.976 Y125.616 E1.70562
G1 X123.241 Y125.906 E1.72139
G1 X122.481 Y126.121 E1.73715
G1 X121.704 Y126.258 E1.7529
G1 X120.916 Y126.315 E1.76867
G1 X119.86 Y126.267 E1.78976
G1 X117.703 Y126.021 E1.83308
G1 X116.344 Y126.21 E1.86047
G1 X115.557 Y126.279 E1.87623
G1 X114.685 Y126.262 E1.89364
G1 X113.048 Y126.139 E1.9264
G1 X112.264 Y126.04 E1.94217
G1 X111.631 Y125.893 E1.95514
G1 X110.236 Y125.895 E1.98297
G1 X109.519 Y126.02 E1.9975
G1 X108.731 Y126.077 E2.01326
G1 X107.942 Y126.054 E2.02902
G1 X107.845 Y126.041 E2.03097
G1 X107.239 Y126.174 E2.04335
G1 X106.454 Y126.266 E2.05912
G1 X105.665 Y126.277 E2.07487
G1 X104.878 Y126.208 E2.09064
G1 X104.457 Y126.128 E2.09919
G1 X104.311 Y126.155 E2.10215
G1 X103.265 Y126.225 E2.12307
G1 X102.583 Y126.225 E2.13668
G1 X101.794 Y126.185 E2.15245
G1 X101.014 Y126.066 E2.16819
G1 X100.49 Y125.93 E2.179
G1 X99.084 Y125.928 E2.20706
G1 X98.369 Y125.891 E2.22134
G1 X98.052 Y125.921 E2.2277
G1 X97.262 Y125.916 E2.24346
G1 X96.477 Y125.832 E2.25922
G1 X95.704 Y125.668 E2.27499
G1 X94.952 Y125.427 E2.29075
G1 X94.228 Y125.111 E2.30651
G1 X93.54 Y124.724 E2.32226
G1 X93.111 Y124.433 E2.33261
G1 X92.558 Y124.03 E2.34626
G1 X91.944 Y123.533 E2.36203
G1 X91.384 Y122.977 E2.37778
G1 X90.883 Y122.366 E2.39354
G1 X90.445 Y121.709 E2.4093
G1 X90.077 Y121.01 E2.42507
G1 X89.732 Y120.131 E2.44391
G1 X89.522 Y119.483 E2.4575
G1 X89.317 Y118.72 E2.47327
G1 X89.199 Y117.994 E2.48795
G1 X88.436 Y117.439 E2.50678
G1 X87.821 Y116.943 E2.52254
G1 X87.261 Y116.387 E2.53829
G1 X86.759 Y115.777 E2.55406
G1 X86.321 Y115.12 E2.56982
G1 X85.952 Y114.421 E2.58559
G1 X85.604 Y113.534 E2.6046
G1 X85.255 Y112.456 E2.62722
G1 X85.05 Y111.694 E2.64296
G1 X84.924 Y110.914 E2.65873
G1 X84.876 Y110.126 E2.67448
G1 X84.909 Y109.337 E2.69024
G1 X85.021 Y108.555 E2.70601
G1 X85.255 Y107.652 E2.72462
G1 X85.604 Y106.574 E2.74724
G1 F1500 E-3.75276
G0 F6000 X86.077 Y109.94
G1 F1500 E2.74724
G1 F1200 X86.129 Y109.216 E2.76172
G1 X86.261 Y108.501 E2.77623
G1 X86.397 Y108.021 E2.78619
G1 X86.746 Y106.943 E2.8088
G1 X87.007 Y106.265 E2.8233
G1 X87.342 Y105.621 E2.83778
G1 X87.745 Y105.016 E2.85229
G1 X88.212 Y104.46 E2.86678
G1 X88.737 Y103.959 E2.88126
G1 X89.142 Y103.639 E2.89156
G1 X90.06 Y102.971 E2.91422
G1 X90.42 Y102.738 E2.92278
G1 X90.55 Y102.28 E2.93228
G1 X90.742 Y101.687 E2.94472
G1 X91.003 Y101.009 E2.95922
G1 X91.338 Y100.364 E2.97372
G1 X91.494 Y100.13 E2.97933
G1 X91.609 Y99.776 E2.98676
G1 X91.871 Y99.099 E3.00125
G1 X92.206 Y98.454 E3.01575
G1 X92.609 Y97.85 E3.03024
G1 X93.076 Y97.294 E3.04473
G1 X93.602 Y96.792 E3.05924
G1 X94.003 Y96.476 E3.06943
G1 X94.555 Y96.074 E3.08306
G1 X95.164 Y95.679 E3.09754
G1 X95.814 Y95.354 E3.11205
G1 X96.495 Y95.102 E3.12654
G1 X97.2 Y94.927 E3.14103
G1 X97.92 Y94.83 E3.15553
G1 X98.44 Y94.809 E3.16592
G1 X99.122 Y94.809 E3.17953
G1 X99.847 Y94.849 E3.19402
G1 X100.564 Y94.968 E3.20852
G1 X101.263 Y95.166 E3.22302
G1 X101.42 Y95.23 E3.2264
G1 X101.665 Y95.141 E3.2316
G1 X102.371 Y94.969 E3.2461
G1 X103.091 Y94.876 E3.26059
G1 X104.014 Y94.873 E3.27901
G1 X105.758 Y94.989 E3.31389
G1 X106.479 Y95.077 E3.32839
G1 X107.082 Y95.219 E3.34075
G1 X107.54 Y95.162 E3.34996
G1 X108.534 Y95.17 E3.3698
G1 X110.04 Y95.296 E3.39996
G1 X110.169 Y95.247 E3.40271
G1 X110.873 Y95.069 E3.4172
G1 X111.481 Y94.978 E3.42947
G1 X113.382 Y94.786 E3.4676
G1 X114.107 Y94.753 E3.48208
G1 X114.769 Y94.796 E3.49532
G1 X115.374 Y94.766 E3.50741
G1 X116.05 Y94.766 E3.5209
G1 X116.775 Y94.806 E3.53539
G1 X117.492 Y94.925 E3.54989
G1 X118.191 Y95.123 E3.56439
G1 X118.561 Y95.273 E3.57236
G1 X119.635 Y95.212 E3.59383
G1 X120.361 Y95.21 E3.60832
G1 X121.084 Y95.289 E3.62283
G1 X121.869 Y95.463 E3.63888
G1 X122.061 Y95.443 E3.64273
G1 X122.788 Y95.447 E3.65724
G1 X123.509 Y95.532 E3.67172
G1 X124.217 Y95.695 E3.68622
G1 X124.903 Y95.935 E3.70073
G1 X125.558 Y96.249 E3.71522
G1 X126.265 Y96.698 E3.73194
G1 X126.812 Y97.096 E3.74543
G1 X127.375 Y97.555 E3.75993
G1 X127.884 Y98.073 E3.77442
G1 X128.333 Y98.644 E3.78892
G1 X128.717 Y99.261 E3.80342
G1 X129.03 Y99.916 E3.81791
G1 X129.204 Y100.387 E3.82793
G1 X129.413 Y101.028 E3.84138
G1 X129.557 Y101.57 E3.85258
G1 X129.94 Y101.826 E3.86177
G1 X130.858 Y102.494 E3.88443
G1 X131.421 Y102.953 E3.89892
G1 X131.93 Y103.472 E3.91343
G1 X132.379 Y104.042 E3.92791
G1 X132.763 Y104.659 E3.94241
G1 X133.076 Y105.314 E3.9569
G1 X133.251 Y105.788 E3.96698
G1 X133.602 Y106.866 E3.98961
G1 X133.788 Y107.568 E4.0041
G1 X133.897 Y108.286 E4.01859
G1 X133.925 Y109.012 E4.03309
G1 X133.874 Y109.736 E4.04757
G1 X133.743 Y110.451 E4.06208
G1 X133.602 Y110.952 E4.07247
G1 X133.251 Y112.03 E4.09509
G1 X132.988 Y112.708 E4.1096
G1 X132.653 Y113.352 E4.12409
G1 X132.249 Y113.955 E4.13857
G1 X131.781 Y114.511 E4.15308
G1 X131.254 Y115.012 E4.16759
G1 X130.858 Y115.324 E4.17765
G1 X129.94 Y115.992 E4.20031
G1 X129.198 Y116.472 E4.21794
G1 X129.162 Y116.973 E4.22796
G1 X129.031 Y117.688 E4.24247
G1 X128.89 Y118.188 E4.25284
G1 X128.697 Y118.781 E4.26528
G1 X128.435 Y119.458 E4.27977
G1 X128.099 Y120.102 E4.29427
G1 X127.695 Y120.706 E4.30877
G1 X127.227 Y121.261 E4.32325
G1 X126.992 Y121.485 E4.32973
G1 X126.715 Y121.883 E4.33941
G1 X126.268 Y122.455 E4.3539
G1 X125.761 Y122.975 E4.36839
G1 X125.184 Y123.448 E4.38328
G1 X124.631 Y123.851 E4.39693
G1 X124.021 Y124.246 E4.41144
G1 X123.372 Y124.571 E4.42592
G1 X122.691 Y124.823 E4.44041
G1 X121.986 Y124.999 E4.45491
G1 X121.266 Y125.096 E4.46941
G1 X120.54 Y125.114 E4.4839
G1 X119.996 Y125.074 E4.49479
G1 X117.689 Y124.811 E4.54113
G1 X116.178 Y125.021 E4.57157
G1 X115.455 Y125.081 E4.58605
G1 X114.774 Y125.065 E4.59964
G1 X113.137 Y124.942 E4.6324
G1 X112.417 Y124.848 E4.64689
G1 X111.786 Y124.693 E4.65986
G1 X110.072 Y124.695 E4.69406
G1 X109.745 Y124.773 E4.70077
G1 X109.024 Y124.863 E4.71527
G1 X108.298 Y124.874 E4.72976
G1 X107.778 Y124.824 E4.74019
G1 X106.983 Y125 E4.75644
G1 X106.26 Y125.075 E4.77094
G1 X105.534 Y125.069 E4.78543
G1 X104.812 Y124.984 E4.79994
G1 X104.482 Y124.907 E4.8067
G1 X103.86 Y124.998 E4.81925
G1 X103.265 Y125.025 E4.83113
G1 X102.583 Y125.025 E4.84474
G1 X101.858 Y124.985 E4.85923
G1 X101.141 Y124.866 E4.87374
G1 X100.663 Y124.731 E4.88365
G1 X99.086 Y124.728 E4.91512
G1 X98.363 Y124.687 E4.92957
G1 X97.882 Y124.727 E4.9392
G1 X97.156 Y124.706 E4.9537
G1 X96.436 Y124.606 E4.9682
G1 X95.732 Y124.427 E4.9827
G1 X95.052 Y124.172 E4.99719
G1 X94.404 Y123.844 E5.01169
G1 X93.818 Y123.463 E5.02563
G1 X93.265 Y123.06 E5.03929
G1 X92.702 Y122.6 E5.0538
G1 X92.194 Y122.082 E5.06828
G1 X91.745 Y121.511 E5.08277
G1 X91.362 Y120.894 E5.09727
G1 X91.049 Y120.238 E5.11177
G1 X90.873 Y119.761 E5.12192
G1 X90.663 Y119.113 E5.13551
G1 X90.478 Y118.41 E5.15002
G1 X90.371 Y117.692 E5.1645
G1 X90.357 Y117.336 E5.17161
G1 X90.06 Y117.137 E5.17875
G1 X89.142 Y116.469 E5.2014
G1 X88.579 Y116.01 E5.2159
G1 X88.07 Y115.491 E5.23041
G1 X87.621 Y114.921 E5.24489
G1 X87.237 Y114.304 E5.25939
G1 X86.924 Y113.649 E5.27388
G1 X86.746 Y113.165 E5.28417
G1 X86.397 Y112.087 E5.30678
G1 X86.212 Y111.385 E5.32127
G1 X86.104 Y110.666 E5.33578
G1 X86.077 Y109.94 E5.35028
G0 F6000 X86.478 Y109.882
G1 F1200 X86.538 Y109.181 E5.36432
G1 X86.676 Y108.49 E5.37838
G1 X86.777 Y108.144 E5.38557
G1 X87.126 Y107.066 E5.40818
G1 X87.381 Y106.41 E5.42223
G1 X87.708 Y105.787 E5.43627
G1 X88.104 Y105.205 E5.45032
G1 X88.563 Y104.671 E5.46437
G1 X89.08 Y104.193 E5.47842
G1 X89.377 Y103.963 E5.48592
G1 X90.295 Y103.295 E5.50857
G1 X90.783 Y102.981 E5.52015
G1 X90.829 Y102.75 E5.52485
G1 X90.93 Y102.403 E5.53207
G1 X91.122 Y101.81 E5.54451
G1 X91.377 Y101.154 E5.55855
G1 X91.704 Y100.531 E5.57259
G1 X91.86 Y100.302 E5.57812
G1 X91.99 Y99.9 E5.58655
G1 X92.245 Y99.243 E5.60062
G1 X92.572 Y98.62 E5.61466
G1 X92.968 Y98.038 E5.62871
G1 X93.428 Y97.505 E5.64276
G1 X93.945 Y97.027 E5.65681
G1 X94.238 Y96.799 E5.66422
G1 X94.79 Y96.397 E5.67784
G1 X95.382 Y96.016 E5.69189
G1 X96.013 Y95.704 E5.70594
G1 X96.675 Y95.465 E5.71999
G1 X97.36 Y95.304 E5.73403
G1 X98.06 Y95.221 E5.7481
G1 X98.44 Y95.209 E5.75568
G1 X99.122 Y95.209 E5.76929
G1 X99.825 Y95.249 E5.78334
G1 X100.519 Y95.368 E5.7974
G1 X101.194 Y95.566 E5.81143
G1 X101.412 Y95.657 E5.81615
G1 X101.864 Y95.499 E5.8257
G1 X102.55 Y95.343 E5.83974
G1 X103.25 Y95.267 E5.85379
G1 X103.987 Y95.272 E5.8685
G1 X105.731 Y95.388 E5.90338
G1 X106.43 Y95.474 E5.91744
G1 X107.05 Y95.624 E5.93017
G1 X107.632 Y95.557 E5.94186
G1 X108.501 Y95.569 E5.9592
G1 X110.099 Y95.702 E5.9912
G1 X110.372 Y95.604 E5.99699
G1 X111.057 Y95.441 E6.01104
G1 X111.521 Y95.376 E6.02039
G1 X113.422 Y95.184 E6.05852
G1 X114.125 Y95.154 E6.07256
G1 X114.799 Y95.201 E6.08605
G1 X115.003 Y95.177 E6.09015
G1 X115.374 Y95.166 E6.09755
G1 X116.05 Y95.166 E6.11104
G1 X116.753 Y95.206 E6.12509
G1 X117.447 Y95.325 E6.13915
G1 X118.122 Y95.523 E6.15318
G1 X118.491 Y95.678 E6.16117
G1 X119.658 Y95.611 E6.1845
G1 X120.362 Y95.611 E6.19855
G1 X121.061 Y95.691 E6.21259
G1 X121.833 Y95.869 E6.2284
G1 X122.124 Y95.84 E6.23423
G1 X122.828 Y95.851 E6.24828
G1 X123.526 Y95.941 E6.26233
G1 X124.21 Y96.11 E6.27639
G1 X124.869 Y96.356 E6.29043
G1 X125.497 Y96.674 E6.30447
G1 X126.03 Y97.022 E6.31718
G1 X126.577 Y97.42 E6.33068
G1 X127.122 Y97.865 E6.34472
G1 X127.612 Y98.37 E6.35876
G1 X128.043 Y98.927 E6.37282
G1 X128.407 Y99.53 E6.38687
G1 X128.701 Y100.169 E6.40091
G1 X128.824 Y100.511 E6.40816
G1 X129.033 Y101.152 E6.42162
G1 X129.212 Y101.836 E6.43573
G1 X129.392 Y101.937 E6.43984
G1 X129.705 Y102.15 E6.4474
G1 X130.623 Y102.818 E6.47006
G1 X131.168 Y103.264 E6.48411
G1 X131.659 Y103.768 E6.49815
G1 X132.089 Y104.326 E6.51221
G1 X132.453 Y104.928 E6.52625
G1 X132.747 Y105.568 E6.5403
G1 X132.87 Y105.911 E6.54758
G1 X133.221 Y106.989 E6.5702
G1 X133.401 Y107.67 E6.58426
G1 X133.502 Y108.367 E6.59831
G1 X133.524 Y109.07 E6.61235
G1 X133.466 Y109.772 E6.6264
G1 X133.328 Y110.462 E6.64045
G1 X133.221 Y110.829 E6.64808
G1 X132.87 Y111.907 E6.6707
G1 X132.615 Y112.562 E6.68473
G1 X132.286 Y113.185 E6.69879
G1 X131.89 Y113.767 E6.71283
G1 X131.429 Y114.3 E6.7269
G1 X130.912 Y114.777 E6.74094
G1 X130.623 Y115 E6.74822
G1 X129.705 Y115.668 E6.77088
G1 X129.113 Y116.049 E6.78493
G1 X128.821 Y116.193 E6.79142
G1 X128.754 Y117.009 E6.80776
G1 X128.616 Y117.699 E6.8218
G1 X128.51 Y118.064 E6.82939
G1 X128.317 Y118.657 E6.84183
G1 X128.061 Y119.313 E6.85589
G1 X127.733 Y119.936 E6.86994
G1 X127.336 Y120.517 E6.88398
G1 X126.876 Y121.05 E6.89803
G1 X126.684 Y121.226 E6.90323
G1 X126.387 Y121.654 E6.91362
G1 X125.953 Y122.209 E6.92768
G1 X125.458 Y122.71 E6.94174
G1 X124.949 Y123.125 E6.95484
G1 X124.396 Y123.528 E6.9685
G1 X123.804 Y123.909 E6.98255
G1 X123.173 Y124.221 E6.9966
G1 X122.511 Y124.46 E7.01064
G1 X121.826 Y124.622 E7.02469
G1 X121.126 Y124.705 E7.03876
G1 X120.422 Y124.709 E7.05281
G1 X120.041 Y124.677 E7.06044
G1 X117.683 Y124.408 E7.1078
G1 X116.123 Y124.625 E7.13923
G1 X115.422 Y124.682 E7.15326
G1 X114.804 Y124.667 E7.1656
G1 X113.167 Y124.544 E7.19836
G1 X112.47 Y124.451 E7.21239
G1 X111.84 Y124.293 E7.22536
G1 X110.025 Y124.295 E7.26158
G1 X109.566 Y124.397 E7.27096
G1 X108.866 Y124.472 E7.28501
G1 X108.162 Y124.466 E7.29906
G1 X107.778 Y124.409 E7.3068
G1 X107.587 Y124.461 E7.31075
G1 X106.898 Y124.609 E7.32482
G1 X106.198 Y124.677 E7.33885
G1 X105.494 Y124.665 E7.3529
G1 X104.796 Y124.574 E7.36695
G1 X104.493 Y124.498 E7.37319
G1 X104.414 Y124.518 E7.37481
G1 X103.716 Y124.609 E7.38886
G1 X103.265 Y124.625 E7.39787
G1 X102.583 Y124.625 E7.41148
G1 X101.88 Y124.585 E7.42553
G1 X101.186 Y124.466 E7.43958
G1 X100.725 Y124.331 E7.44916
G1 X99.087 Y124.328 E7.48185
G1 X98.377 Y124.286 E7.49605
G1 X97.828 Y124.328 E7.50703
G1 X97.124 Y124.302 E7.52109
G1 X96.428 Y124.196 E7.53514
G1 X95.749 Y124.012 E7.54918
G1 X95.094 Y123.753 E7.56324
G1 X94.474 Y123.42 E7.57728
G1 X94.053 Y123.14 E7.58737
G1 X93.5 Y122.737 E7.60103
G1 X92.956 Y122.29 E7.61508
