;FLAVOR:Marlin
;TIME:5954
;Filament used: 2.70843m
;Layer height: 0.2
;MINX:81
;MINY:88.099
;MINZ:0.2
;MAXX:139
;MAXY:131.71
;MAXZ:30
;Generated with Cura_SteamEngine main
M82 ;absolute extrusion mode
; Ender 3 Custom Start G-code
G92 E0 ; Reset Extruder
G28 ; Home all axes
M104 S175 ; Start heating up the nozzle most of the way
M190 S60 ; Start heating the bed, wait until target temperature reached
M109 S200 ; Finish heating the nozzle
G1 Z2.0 F3000 ; Move Z Axis up little to prevent scratching of Heat Bed
G1 X0.1 Y20 Z0.3 F5000.0 ; Move to start position
G1 X0.1 Y200.0 Z0.3 F1500.0 E15 ; Draw the first line
G1 X0.4 Y200.0 Z0.3 F5000.0 ; Move to side a little
G1 X0.4 Y20 Z0.3 F1500.0 E30 ; Draw the second line
G92 E0 ; Reset Extruder
G1 Z2.0 F3000 ; Move Z Axis up little to prevent scratching of Heat Bed
G1 X5 Y20 Z0.3 F5000.0 ; Move over to prevent blob squish
G92 E0
G92 E0
G1 F1500 E-6.5
;LAYER_COUNT:150
;LAYER:0
M107
G0 F6000 X88.53 Y91.229 Z0.2
G0 X85.147 Y96.326
;TYPE:SKIRT
G1 F1500 E0
G1 F1200 X86.262 Y94.195 E0.07999
G1 X86.732 Y93.384 E0.11117
G1 X87.269 Y92.615 E0.14237
G1 X87.87 Y91.895 E0.17356
G1 X88.53 Y91.229 E0.20474
G1 X89.244 Y90.621 E0.23594
G1 X90.008 Y90.077 E0.26713
G1 X90.815 Y89.599 E0.29833
G1 X91.66 Y89.192 E0.32952
G1 X92.537 Y88.859 E0.36072
G1 X93.438 Y88.601 E0.39189
G1 X94.359 Y88.421 E0.42311
G1 X95.701 Y88.301 E0.46792
G1 X96.33 Y88.288 E0.48884
G1 X100.452 Y88.289 E0.62594
G1 X102.255 Y88.316 E0.68592
G1 X103.099 Y88.339 E0.714
G1 X105.635 Y88.337 E0.79835
G1 X107.537 Y88.291 E0.86163
G1 X114.113 Y88.285 E1.08035
G1 X116.665 Y88.214 E1.16526
G1 X118.436 Y88.123 E1.22424
G1 X119.332 Y88.099 E1.25405
G1 X123.482 Y88.101 E1.39208
G1 X124.157 Y88.111 E1.41453
G1 X125.093 Y88.165 E1.44572
G1 X126.022 Y88.298 E1.47693
G1 X126.935 Y88.511 E1.50811
G1 X127.827 Y88.8 E1.5393
G1 X128.692 Y89.164 E1.57051
G1 X129.522 Y89.6 E1.6017
G1 X130.312 Y90.105 E1.63288
G1 X131.056 Y90.676 E1.66407
G1 X131.749 Y91.308 E1.69527
G1 X132.385 Y91.997 E1.72646
G1 X132.961 Y92.738 E1.75767
G1 X133.471 Y93.525 E1.78886
G1 X133.802 Y94.13 E1.8118
G1 X134.819 Y96.132 E1.88649
G1 X136.014 Y98.346 E1.97017
G1 X137.503 Y100.913 E2.06887
G1 X137.939 Y101.744 E2.10008
G1 X138.302 Y102.608 E2.13125
G1 X138.59 Y103.501 E2.16246
G1 X138.801 Y104.415 E2.19366
G1 X138.934 Y105.343 E2.22484
G1 X138.981 Y106.035 E2.24791
G1 X139 Y106.764 E2.27216
G1 X138.999 Y112.986 E2.47911
G1 X138.989 Y113.717 E2.50342
G1 X138.936 Y114.654 E2.53464
G1 X138.804 Y115.582 E2.56581
G1 X138.593 Y116.496 E2.59701
G1 X138.305 Y117.389 E2.62822
G1 X137.942 Y118.253 E2.65939
G1 X137.364 Y119.323 E2.69984
G1 X136.771 Y120.289 E2.73754
G1 X135.456 Y122.498 E2.82304
G1 X134.208 Y124.732 E2.90815
G1 X133.667 Y125.731 E2.94594
G1 X133.185 Y126.536 E2.97715
G1 X132.637 Y127.298 E3.00837
G1 X132.027 Y128.009 E3.03952
G1 X131.357 Y128.666 E3.07073
G1 X130.634 Y129.264 E3.10194
G1 X129.863 Y129.798 E3.13314
G1 X129.05 Y130.264 E3.1643
G1 X128.199 Y130.659 E3.19551
G1 X127.318 Y130.98 E3.22669
G1 X126.413 Y131.226 E3.25789
G1 X125.49 Y131.393 E3.28908
G1 X124.333 Y131.49 E3.3277
G1 X123.672 Y131.505 E3.34969
G1 X119.095 Y131.506 E3.50192
G1 X118.977 Y131.513 E3.50586
G1 X117.699 Y131.51 E3.54836
G1 X115.192 Y131.577 E3.63177
G1 X113.043 Y131.687 E3.70334
G1 X112.17 Y131.71 E3.73239
G1 X108.048 Y131.709 E3.86949
G1 X106.244 Y131.682 E3.9295
G1 X105.4 Y131.659 E3.95758
G1 X102.865 Y131.661 E4.04189
G1 X100.963 Y131.707 E4.10517
G1 X96.55 Y131.709 E4.25195
G1 X95.848 Y131.699 E4.2753
G1 X94.912 Y131.646 E4.30648
G1 X93.984 Y131.513 E4.33766
G1 X93.07 Y131.301 E4.36887
G1 X92.177 Y131.013 E4.40008
G1 X91.313 Y130.649 E4.43126
G1 X90.482 Y130.213 E4.46247
G1 X89.692 Y129.708 E4.49366
G1 X88.948 Y129.138 E4.52483
G1 X88.255 Y128.506 E4.55603
G1 X87.618 Y127.817 E4.58723
G1 X87.042 Y127.077 E4.61842
G1 X86.531 Y126.29 E4.64963
G1 X86.261 Y125.805 E4.6681
G1 X85.697 Y124.729 E4.7085
G1 X84.469 Y122.459 E4.79434
G1 X83.164 Y120.203 E4.88103
G1 X82.559 Y119.187 E4.92036
G1 X82.114 Y118.362 E4.95153
G1 X81.741 Y117.501 E4.98274
G1 X81.442 Y116.612 E5.01394
G1 X81.221 Y115.701 E5.04512
G1 X81.077 Y114.774 E5.07632
G1 X81.015 Y113.895 E5.10563
G1 X81 Y113.232 E5.12768
G1 X81.001 Y106.986 E5.33543
G1 X81.011 Y106.282 E5.35884
G1 X81.064 Y105.345 E5.39006
G1 X81.197 Y104.417 E5.42124
G1 X81.409 Y103.503 E5.45245
G1 X81.697 Y102.611 E5.48362
G1 X82.061 Y101.746 E5.51484
G1 X82.56 Y100.808 E5.55017
G1 X83.899 Y98.56 E5.6372
G1 X85.147 Y96.326 E5.72231
G1 F1500 E-0.77769
G0 F6000 X81.801 Y106.997
G1 F1500 E5.72231
G1 F1200 X81.811 Y106.293 E5.74573
G1 X81.864 Y105.392 E5.77575
G1 X81.996 Y104.498 E5.80581
G1 X82.207 Y103.62 E5.83584
G1 X82.495 Y102.764 E5.86588
G1 X82.857 Y101.937 E5.89591
G1 X83.247 Y101.218 E5.92311
G1 X84.6 Y98.947 E6.01103
G1 X85.83 Y96.743 E6.09498
G1 X86.97 Y94.566 E6.17672
G1 X87.424 Y93.786 E6.20673
G1 X87.945 Y93.048 E6.23678
G1 X88.53 Y92.36 E6.26682
G1 X89.173 Y91.725 E6.29687
G1 X89.869 Y91.15 E6.3269
G1 X90.614 Y90.639 E6.35695
G1 X91.401 Y90.196 E6.38699
G1 X92.224 Y89.825 E6.41701
G1 X93.076 Y89.527 E6.44703
G1 X93.952 Y89.306 E6.47708
G1 X94.844 Y89.164 E6.50712
G1 X95.723 Y89.101 E6.53643
G1 X96.33 Y89.088 E6.55663
G1 X100.44 Y89.089 E6.69333
G1 X102.104 Y89.113 E6.74868
G1 X103.078 Y89.139 E6.78108
G1 X105.654 Y89.137 E6.86676
G1 X107.798 Y89.088 E6.93809
G1 X114.136 Y89.085 E7.14889
G1 X116.686 Y89.014 E7.23374
G1 X118.477 Y88.922 E7.29339
G1 X119.332 Y88.899 E7.32184
G1 X123.47 Y88.901 E7.45947
G1 X124.145 Y88.911 E7.48192
G1 X125.047 Y88.964 E7.51197
G1 X125.94 Y89.097 E7.542
G1 X126.818 Y89.309 E7.57204
G1 X127.674 Y89.597 E7.60208
G1 X128.501 Y89.96 E7.63212
G1 X129.293 Y90.394 E7.66216
G1 X130.043 Y90.897 E7.69219
G1 X130.745 Y91.464 E7.72221
G1 X131.395 Y92.091 E7.75224
G1 X131.987 Y92.774 E7.78231
G1 X132.516 Y93.505 E7.81232
G1 X133.089 Y94.492 E7.85028
G1 X134.117 Y96.516 E7.92578
G1 X135.312 Y98.73 E8.00946
G1 X136.811 Y101.314 E8.10882
G1 X137.229 Y102.115 E8.13887
G1 X137.575 Y102.949 E8.1689
G1 X137.845 Y103.811 E8.19895
G1 X138.039 Y104.693 E8.22898
G1 X138.153 Y105.589 E8.25902
G1 X138.181 Y106.064 E8.27485
G1 X138.2 Y106.764 E8.29814
G1 X138.199 Y112.976 E8.50475
G1 X138.189 Y113.707 E8.52907
G1 X138.137 Y114.608 E8.55908
G1 X138.005 Y115.502 E8.58914
G1 X137.794 Y116.38 E8.61918
G1 X137.507 Y117.236 E8.6492
G1 X137.145 Y118.063 E8.67923
G1 X136.682 Y118.905 E8.71119
G1 X136.101 Y119.852 E8.74814
G1 X134.746 Y122.126 E8.83618
G1 X133.533 Y124.298 E8.91893
G1 X132.963 Y125.351 E8.95875
G1 X132.498 Y126.125 E8.98878
G1 X131.967 Y126.855 E9.01881
G1 X131.373 Y127.536 E9.04886
G1 X130.722 Y128.161 E9.07888
G1 X130.017 Y128.726 E9.10893
G1 X129.265 Y129.227 E9.13898
G1 X128.472 Y129.659 E9.16902
G1 X127.644 Y130.019 E9.19905
G1 X126.788 Y130.305 E9.22907
G1 X125.909 Y130.513 E9.25911
G1 X125.015 Y130.644 E9.28916
G1 X124.309 Y130.69 E9.31269
G1 X123.672 Y130.705 E9.33389
G1 X119.198 Y130.706 E9.48269
G1 X118.979 Y130.713 E9.48998
G1 X117.68 Y130.71 E9.53318
G1 X115.17 Y130.777 E9.6167
G1 X113.002 Y130.888 E9.6889
G1 X112.17 Y130.91 E9.71658
G1 X108.06 Y130.909 E9.85328
G1 X106.395 Y130.885 E9.90866
G1 X105.421 Y130.859 E9.94107
G1 X102.846 Y130.861 E10.02672
G1 X100.697 Y130.91 E10.09821
G1 X96.562 Y130.909 E10.23574
G1 X95.86 Y130.899 E10.25909
G1 X94.958 Y130.846 E10.28914
G1 X94.065 Y130.714 E10.31917
G1 X93.187 Y130.503 E10.3492
G1 X92.331 Y130.215 E10.37924
G1 X91.503 Y129.853 E10.4093
G1 X90.711 Y129.419 E10.43934
G1 X89.961 Y128.916 E10.46937
G1 X89.258 Y128.35 E10.49939
G1 X88.608 Y127.723 E10.52943
G1 X88.016 Y127.041 E10.55946
G1 X87.486 Y126.309 E10.58952
G1 X86.97 Y125.434 E10.62331
G1 X86.379 Y124.306 E10.66566
G1 X85.164 Y122.063 E10.75051
G1 X83.913 Y119.898 E10.83367
G1 X83.246 Y118.778 E10.87703
G1 X82.819 Y117.982 E10.90707
G1 X82.464 Y117.152 E10.9371
G1 X82.183 Y116.294 E10.96713
G1 X81.98 Y115.414 E10.99717
G1 X81.855 Y114.519 E11.02722
G1 X81.815 Y113.871 E11.04882
G1 X81.8 Y113.232 E11.07007
G1 X81.801 Y106.997 E11.27745
G0 F6000 X81.401 Y106.991
G1 F1200 X81.411 Y106.287 E11.30087
G1 X81.464 Y105.368 E11.33149
G1 X81.597 Y104.457 E11.36211
G1 X81.808 Y103.561 E11.39272
G1 X82.096 Y102.687 E11.42333
G1 X82.459 Y101.841 E11.45395
G1 X82.903 Y101.013 E11.4852
G1 X84.265 Y98.727 E11.5737
G1 X85.485 Y96.541 E11.65697
G1 X86.616 Y94.381 E11.73806
G1 X87.078 Y93.585 E11.76867
G1 X87.607 Y92.831 E11.79931
G1 X88.2 Y92.127 E11.82992
G1 X88.852 Y91.477 E11.86054
G1 X89.557 Y90.885 E11.89116
G1 X90.311 Y90.357 E11.92178
G1 X91.109 Y89.897 E11.95241
G1 X91.943 Y89.507 E11.98303
G1 X92.808 Y89.191 E12.01366
G1 X93.697 Y88.952 E12.04428
G1 X94.603 Y88.79 E12.07489
G1 X95.712 Y88.701 E12.1119
G1 X96.33 Y88.688 E12.13246
G1 X100.446 Y88.689 E12.26936
G1 X102.244 Y88.716 E12.32916
G1 X103.089 Y88.739 E12.35728
G1 X105.644 Y88.737 E12.44226
G1 X107.798 Y88.688 E12.51392
G1 X114.125 Y88.685 E12.72436
G1 X116.698 Y88.613 E12.80997
G1 X118.457 Y88.523 E12.86855
G1 X119.332 Y88.499 E12.89766
G1 X123.476 Y88.501 E13.03549
G1 X124.151 Y88.511 E13.05795
G1 X125.07 Y88.565 E13.08857
G1 X125.981 Y88.698 E13.11919
G1 X126.877 Y88.91 E13.14981
G1 X127.751 Y89.198 E13.18042
G1 X128.597 Y89.562 E13.21105
G1 X129.408 Y89.997 E13.24166
G1 X130.179 Y90.501 E13.2723
G1 X130.902 Y91.07 E13.3029
G1 X131.574 Y91.7 E13.33353
G1 X132.188 Y92.386 E13.36415
G1 X132.741 Y93.122 E13.39477
G1 X133.227 Y93.904 E13.4254
G1 X133.445 Y94.311 E13.44075
G1 X134.459 Y96.309 E13.51528
G1 X135.667 Y98.545 E13.5998
G1 X137.157 Y101.114 E13.69858
G1 X137.584 Y101.929 E13.72918
G1 X137.939 Y102.779 E13.75982
G1 X138.218 Y103.656 E13.79043
G1 X138.42 Y104.554 E13.82104
G1 X138.544 Y105.467 E13.85169
G1 X138.581 Y106.049 E13.87109
G1 X138.6 Y106.764 E13.89488
G1 X138.599 Y112.981 E14.10165
G1 X138.589 Y113.712 E14.12597
G1 X138.536 Y114.631 E14.15659
G1 X138.404 Y115.542 E14.1872
G1 X138.194 Y116.438 E14.21781
G1 X137.906 Y117.313 E14.24845
G1 X137.544 Y118.159 E14.27906
G1 X137.023 Y119.114 E14.31524
G1 X136.442 Y120.06 E14.35216
G1 X135.106 Y122.304 E14.43902
G1 X133.849 Y124.554 E14.52475
G1 X133.315 Y125.541 E14.56207
G1 X132.842 Y126.331 E14.5927
G1 X132.302 Y127.077 E14.62333
G1 X131.7 Y127.773 E14.65393
G1 X131.039 Y128.414 E14.68456
G1 X130.325 Y128.996 E14.7152
G1 X129.564 Y129.513 E14.7458
G1 X128.76 Y129.962 E14.77642
G1 X127.921 Y130.34 E14.80703
G1 X127.052 Y130.644 E14.83765
G1 X126.159 Y130.871 E14.8683
G1 X125.251 Y131.02 E14.8989
G1 X124.321 Y131.09 E14.92992
G1 X123.672 Y131.105 E14.95151
G1 X119.13 Y131.106 E15.10258
G1 X118.978 Y131.113 E15.10764
G1 X117.689 Y131.11 E15.15051
G1 X115.163 Y131.177 E15.23456
G1 X112.788 Y131.297 E15.31365
G1 X112.17 Y131.31 E15.33421
G1 X108.054 Y131.309 E15.47111
G1 X106.254 Y131.282 E15.53098
G1 X105.41 Y131.259 E15.55907
G1 X102.856 Y131.261 E15.64401
G1 X100.697 Y131.31 E15.71584
G1 X96.556 Y131.309 E15.85357
G1 X95.854 Y131.299 E15.87692
G1 X94.935 Y131.246 E15.90754
G1 X94.024 Y131.113 E15.93816
G1 X93.128 Y130.902 E15.96877
G1 X92.253 Y130.614 E15.99941
G1 X91.407 Y130.251 E16.03003
G1 X90.596 Y129.816 E16.06064
G1 X89.825 Y129.312 E16.09128
G1 X89.101 Y128.744 E16.12188
G1 X88.429 Y128.114 E16.15252
G1 X87.815 Y127.429 E16.18312
G1 X87.262 Y126.693 E16.21374
G1 X86.616 Y125.619 E16.25542
G1 X86.061 Y124.56 E16.29519
G1 X84.824 Y122.274 E16.38164
G1 X83.529 Y120.034 E16.4677
G1 X82.903 Y118.983 E16.50838
G1 X82.466 Y118.172 E16.53902
G1 X82.102 Y117.326 E16.56966
G1 X81.813 Y116.453 E16.60024
G1 X81.6 Y115.557 E16.63087
G1 X81.466 Y114.646 E16.6615
G1 X81.415 Y113.883 E16.68693
G1 X81.4 Y113.232 E16.70859
G1 X81.401 Y106.991 E16.91617
G1 F1500 E10.41617
G0 F6000 X95.347 Y103.329
G0 X121.2 Y101.299
G1 F1500 E16.91617
G1 F1200 X121.8 Y101.3 E16.93612
G1 X121.8 Y101.764 E16.95156
G1 X121.2 Y101.763 E16.97151
G1 X121.2 Y101.299 E16.98695
G0 F6000 X120.8 Y100.899
G1 F1200 X122.2 Y100.9 E17.03351
G1 X122.2 Y102.164 E17.07555
G1 X120.8 Y102.163 E17.12212
G1 X120.8 Y100.899 E17.16416
G0 F6000 X120.4 Y100.499
G1 F1200 X122.6 Y100.5 E17.23733
G1 X122.6 Y102.564 E17.30598
G1 X120.4 Y102.563 E17.37915
G1 X120.4 Y100.499 E17.4478
G0 F6000 X120 Y100.099
G1 F1200 X123 Y100.1 E17.54758
G1 X123 Y102.964 E17.64284
G1 X120 Y102.963 E17.74262
G1 X120 Y100.099 E17.83787
G0 F6000 X119.6 Y99.699
G1 F1200 X123.4 Y99.7 E17.96426
G1 X123.4 Y103.364 E18.08613
G1 X119.6 Y103.363 E18.21252
G1 X119.6 Y99.699 E18.33438
G0 F6000 X119.2 Y99.299
G1 F1200 X123.8 Y99.3 E18.48738
G1 X123.8 Y103.764 E18.63585
G1 X119.2 Y103.763 E18.78885
G1 X119.2 Y99.299 E18.93732
G1 F1500 E12.43732
G0 F6000 X112.3 Y99.488
G1 F1500 E18.93732
G1 F1200 X112.3 Y103.782 E19.08014
G1 X107.7 Y103.782 E19.23314
G1 X107.7 Y99.488 E19.37596
G1 X112.3 Y99.488 E19.52895
G1 F1500 E13.02895
G0 F6000 X109.7 Y101.488
G1 F1500 E19.52895
G1 F1200 X110.3 Y101.488 E19.54891
G1 X110.3 Y101.782 E19.55869
G1 X109.7 Y101.782 E19.57864
G1 X109.7 Y101.488 E19.58842
G0 F6000 X109.3 Y101.088
G1 F1200 X110.7 Y101.088 E19.63499
G1 X110.7 Y102.182 E19.67137
G1 X109.3 Y102.182 E19.71794
G1 X109.3 Y101.088 E19.75432
G0 F6000 X108.9 Y100.688
G1 F1200 X111.1 Y100.688 E19.82749
G1 X111.1 Y102.582 E19.89049
G1 X108.9 Y102.582 E19.96366
G1 X108.9 Y100.688 E20.02666
G0 F6000 X108.5 Y100.288
G1 F1200 X111.5 Y100.288 E20.12644
G1 X111.5 Y102.982 E20.21604
G1 X108.5 Y102.982 E20.31582
G1 X108.5 Y100.288 E20.40542
G0 F6000 X108.1 Y99.888
G1 F1200 X111.9 Y99.888 E20.53181
G1 X111.9 Y103.382 E20.64802
G1 X108.1 Y103.382 E20.77441
G1 X108.1 Y99.888 E20.89062
G1 F1500 E14.39062
G0 F6000 X100.8 Y99.488
G1 F1500 E20.89062
G1 F1200 X100.8 Y103.782 E21.03344
G1 X96.2 Y103.782 E21.18644
G1 X96.2 Y99.488 E21.32926
G1 X100.8 Y99.488 E21.48225
G1 F1500 E14.98225
G0 F6000 X98.2 Y101.488
G1 F1500 E21.48225
G1 F1200 X98.8 Y101.488 E21.50221
G1 X98.8 Y101.782 E21.51199
G1 X98.2 Y101.782 E21.53194
G1 X98.2 Y101.488 E21.54172
G0 F6000 X97.8 Y101.088
G1 F1200 X99.2 Y101.088 E21.58829
G1 X99.2 Y102.182 E21.62467
G1 X97.8 Y102.182 E21.67124
G1 X97.8 Y101.088 E21.70762
G0 F6000 X97.4 Y100.688
G1 F1200 X99.6 Y100.688 E21.7808
G1 X99.6 Y102.582 E21.84379
G1 X97.4 Y102.582 E21.91696
G1 X97.4 Y100.688 E21.97996
G0 F6000 X97 Y100.288
G1 F1200 X100 Y100.288 E22.07974
G1 X100 Y102.982 E22.16934
G1 X97 Y102.982 E22.26912
G1 X97 Y100.288 E22.35872
G0 F6000 X96.6 Y99.888
G1 F1200 X100.4 Y99.888 E22.48511
G1 X100.4 Y103.382 E22.60132
G1 X96.6 Y103.382 E22.72771
G1 X96.6 Y99.888 E22.84392
G1 F1500 E16.34392
G0 F6000 X92.2 Y106.635
G1 F1500 E22.84392
G1 F1200 X95.4 Y106.632 E22.95036
G1 X95.4 Y107.356 E22.97444
G1 X95.081 Y107.395 E22.98512
G1 X95 Y107.556 E22.99112
G1 X95 Y112.442 E23.15363
G1 X95.039 Y112.561 E23.15779
G1 X95.2 Y112.642 E23.16379
G1 X95.4 Y112.642 E23.17044
G1 X95.4 Y113.362 E23.19439
G1 X92.2 Y113.362 E23.30082
G1 X92.2 Y106.635 E23.52456
G0 F6000 X92.6 Y107.035
G1 F1200 X94.925 Y107.033 E23.60189
G1 X94.799 Y107.109 E23.60678
G1 X94.666 Y107.282 E23.61404
G1 X94.6 Y107.556 E23.62342
G1 X94.6 Y112.442 E23.78593
G1 X94.64 Y112.657 E23.7932
G1 X94.753 Y112.843 E23.80044
G1 X94.908 Y112.962 E23.80694
G1 X92.6 Y112.962 E23.8837
G1 X92.6 Y107.035 E24.08083
G0 F6000 X93 Y107.434
G1 F1200 X94.2 Y107.433 E24.12075
G1 X94.2 Y112.562 E24.29134
G1 X93 Y112.562 E24.33125
G1 X93 Y107.434 E24.50181
G0 F6000 X93.4 Y107.834
G1 F1200 X93.8 Y107.834 E24.51511
G1 X93.8 Y112.162 E24.65906
G1 X93.4 Y112.162 E24.67237
G1 X93.4 Y107.834 E24.81632
G1 F1500 E18.31632
G0 F6000 X95.347 Y103.329
G0 X101.653 Y103.329
G0 X102.013 Y105.537
G0 X102.065 Y106.636
G0 X101.6 Y106.636
G1 F1500 E24.81632
G1 F1200 X106.9 Y106.633 E24.99259
G1 X106.9 Y107.356 E25.01664
G1 X106.581 Y107.395 E25.02733
G1 X106.5 Y107.556 E25.03332
G1 X106.5 Y112.442 E25.19583
G1 X106.539 Y112.561 E25.2
G1 X106.7 Y112.642 E25.20599
G1 X106.9 Y112.642 E25.21265
G1 X106.9 Y113.369 E25.23683
G1 X101.6 Y113.372 E25.4131
G1 X101.6 Y112.642 E25.43738
G1 X101.919 Y112.603 E25.44807
G1 X102 Y112.442 E25.45407
G1 X102 Y107.556 E25.61658
G1 X101.961 Y107.437 E25.62074
G1 X101.8 Y107.356 E25.62674
G1 X101.6 Y107.356 E25.63339
G1 X101.6 Y106.636 E25.65734
